lut/08155b73-e90a-4b87-af4d-5ef5d48e5a86.cube
TITLE "Bleak Cool Fade"
LUT_3D_SIZE 5
0 0 0
0.227878 0 0.0269017
0.462547 0 0.0660868
0.694392 0.000671397 0.107759
0.924437 0.00270085 0.149279
0 0.236439 0.117113
0.141665 0.267735 0.0523995
0.502129 0.239811 0.0059968
0.799527 0.218967 0.0490272
1 0.206699 0.114305
0 0.475502 0.242969
0.127886 0.504143 0.217472
0.275639 0.543984 0.115389
0.682414 0.504723 0.0341344
0.985382 0.488762 0.011429
0 0.715099 0.36875
0.124285 0.740276 0.35993
0.260578 0.779614 0.296498
0.407324 0.820569 0.186007
0.839597 0.775311 0.0877546
0 0.954971 0.494484
0.116884 0.978408 0.493523
0.262669 1 0.443259
0.392035 1 0.35993
0.540429 1 0.241047
0 0 0.242908
0.243977 0 0.24097
0.491722 0 0.272602
0.746654 0 0.324681
0.990417 0 0.368673
0.0016022 0.246143 0.250233
0.245731 0.243168 0.249561
0.480827 0.242878 0.288731
0.712428 0.243442 0.32958
0.942382 0.244556 0.370474
0.0166476 0.480873 0.322026
0.239033 0.4822 0.372183
0.389227 0.517296 0.309621
0.749462 0.488731 0.258335
1 0.469123 0.316533
0.0235142 0.714977 0.446128
0.22948 0.721813 0.497154
0.382528 0.751934 0.475883
0.520989 0.793957 0.379278
0.928038 0.754238 0.300893
0.0222324 0.95198 0.575509
0.218967 0.961715 0.622019
0.378164 0.988266 0.618235
0.513527 1 0.550118
0.65301 1 0.438437
0 0.000350958 0.50576
0.242603 0 0.504005
0.494591 0 0.50428
0.739178 0 0.516884
0.980514 0 0.559625
0 0.247654 0.513161
0.244862 0.243824 0.511589
0.496864 0.24239 0.512032
0.741268 0.240925 0.534752
0.986084 0.234897 0.58735
0.00161746 0.495369 0.516457
0.246067 0.492363 0.515114
0.495354 0.491646 0.516243
0.735073 0.49044 0.551308
0.959533 0.493095 0.591073
0.0150149 0.734279 0.555444
0.268849 0.728496 0.578378
0.494499 0.729839 0.629419
0.636042 0.766766 0.574731
0.986801 0.738521 0.527443
0.0349737 0.966674 0.652293
0.280324 0.962066 0.700999
0.484871 0.969375 0.755505
0.635935 0.998413 0.737545
0.767575 1 0.638254
0 0.00114443 0.768872
0.241199 0 0.767147
0.493172 0 0.767544
0.741985 0 0.768612
0.983505 0.000503548 0.775006
0 0.248402 0.776333
0.243549 0.244526 0.774716
0.495415 0.24303 0.77525
0.744244 0.242405 0.776364
0.983673 0.242664 0.784909
0 0.497307 0.779904
0.242786 0.493568 0.778408
0.494087 0.492287 0.779263
0.742809 0.491722 0.780514
0.98262 0.491554 0.795102
0.00109865 0.745174 0.781704
0.244877 0.742061 0.780224
0.493446 0.741512 0.781369
0.739925 0.741573 0.783658
0.984771 0.738231 0.813672
0.012192 0.986603 0.806439
0.264271 0.98204 0.814771
0.513741 0.979095 0.83772
0.743221 0.979889 0.882811
0.886458 1 0.836759
0 0.00187686 1
0.239734 0 1
0.491676 0 1
0.740444 0 1
0.98381 0 1
0 0.248997 1
0.242115 0.245029 1
0.493996 0.24361 1
0.742748 0.243015 1
0.984344 0.243015 1
0 0.498054 1
0.241184 0.494179 1
0.492714 0.492805 1
0.741329 0.492271 1
0.983734 0.492241 1
0 0.747234 1
0.239963 0.743587 1
0.490623 0.742473 1
0.738643 0.742031 1
0.982681 0.742046 1
0.000228885 0.993057 1
0.242786 0.991424 1
0.491386 0.991333 1
0.737057 0.991516 1
0.978973 0.992676 1
