lut/08155b73-e90a-4b87-af4d-5ef5d48e5a86.cube
TITLE "Bleak Cool Fade"
LUT_3D_SIZE 9
0 0 0
0.108736 0 0.0132296
0.227878 0 0.0269017
0.346197 0 0.0462043
0.462547 0 0.0660868
0.578759 0 0.0869917
0.694392 0.000671397 0.107759
0.809613 0.00170901 0.128527
0.924437 0.00270085 0.149279
0 0.117098 0.0543069
0.0736706 0.129656 0.0280308
0.249088 0.117372 0.00236515
0.399847 0.10631 0.0223239
0.536019 0.0992752 0.0483406
0.656428 0.0969253 0.0818189
0.76376 0.0986648 0.113085
0.868467 0.101762 0.138186
0.970565 0.104875 0.159426
0 0.236439 0.117113
0.0576181 0.250553 0.102861
0.141665 0.267735 0.0523995
0.341863 0.249454 0.0126955
0.502129 0.239811 0.0059968
0.651713 0.229313 0.0249638
0.799527 0.218967 0.0490272
0.934859 0.211398 0.0818952
1 0.206699 0.114305
0 0.355917 0.180102
0.056733 0.368215 0.174289
0.126101 0.387686 0.141314
0.208087 0.406058 0.081117
0.420874 0.384298 0.0370489
0.594751 0.37322 0.00791943
0.75021 0.36379 0.00891127
0.897658 0.354025 0.027512
1 0.343969 0.0505531
0 0.475502 0.242969
0.0541238 0.486915 0.241489
0.127886 0.504143 0.217472
0.192706 0.525658 0.177569
0.275639 0.543984 0.115389
0.487449 0.523644 0.0564736
0.682414 0.504723 0.0341344
0.841215 0.498253 0.00694286
0.985382 0.488762 0.011429
0 0.5953 0.305821
0.0505379 0.606104 0.306767
0.126757 0.621866 0.290227
0.194995 0.641611 0.257527
0.25835 0.663966 0.213367
0.341909 0.682155 0.150347
0.545342 0.665156 0.0825513
0.768185 0.637201 0.0676738
0.92845 0.630594 0.026688
0 0.715099 0.36875
0.0464027 0.725582 0.370993
0.124285 0.740276 0.35993
0.195575 0.758618 0.332235
0.260578 0.779614 0.296498
0.323339 0.802487 0.249226
0.407324 0.820569 0.186007
0.599817 0.807263 0.113985
0.839597 0.775311 0.0877546
0 0.835004 0.431617
0.0424659 0.845243 0.434501
0.120912 0.859174 0.427436
0.194125 0.876371 0.405432
0.261875 0.896193 0.373007
0.325261 0.918044 0.333944
0.387823 0.941115 0.285344
0.472297 0.958404 0.221897
0.656382 0.941878 0.14638
0 0.954971 0.494484
0.0384527 0.965087 0.497826
0.116884 0.978408 0.493523
0.191806 0.993164 0.475441
0.262669 1 0.443259
0.328618 1 0.406104
0.392035 1 0.35993
0.455238 1 0.306523
0.540429 1 0.241047
0 0 0.111543
0.116457 0 0.110033
0.242756 0 0.128603
0.373114 0 0.154253
0.497719 0 0.175479
0.613214 0 0.194873
0.724163 0 0.214176
0.834287 0 0.23386
0.944747 0.00015259 0.253803
0.00123598 0.121736 0.116793
0.116762 0.119966 0.118135
0.238941 0.118517 0.137469
0.355505 0.118563 0.157305
0.472404 0.118578 0.177966
0.588708 0.1187 0.198642
0.704463 0.118959 0.219379
0.819776 0.119371 0.240146
0.934646 0.119936 0.260868
0.00900282 0.238499 0.157
0.112749 0.239582 0.180819
0.196704 0.254871 0.145754
0.375982 0.240848 0.119844
0.524926 0.230289 0.150347
0.659098 0.223957 0.182406
0.775662 0.222736 0.215564
0.881697 0.225086 0.244327
0.978927 0.228305 0.268147
0.0117494 0.355535 0.219486
0.108949 0.359075 0.243229
0.186801 0.373953 0.230838
0.265019 0.392706 0.178058
0.467079 0.373648 0.135119
0.625971 0.364309 0.123507
0.774807 0.353964 0.151751
0.922606 0.343801 0.181842
1 0.337118 0.214176
0.0113069 0.473838 0.283909
0.104677 0.478721 0.305745
0.185657 0.491737 0.302358
0.253834 0.511513 0.269795
0.332158 0.530785 0.211887
0.549432 0.507515 0.165957
0.717067 0.498283 0.127367
0.872114 0.488914 0.126894
0.999832 0.479301 0.153704
0.00961318 0.59292 0.348089
0.10013 0.598459 0.368261
0.182727 0.610559 0.369497
0.255161 0.628168 0.345647
0.319417 0.649775 0.306127
0.398306 0.669017 0.246632
0.612512 0.648142 0.186038
0.805615 0.629389 0.167102
0.96112 0.623697 0.125643
0.00733959 0.712245 0.411704
0.0951553 0.718364 0.430716
0.178943 0.729763 0.434684
0.253727 0.745968 0.418418
0.321279 0.765881 0.386084
0.384329 0.788266 0.342168
0.463767 0.807446 0.28191
0.665202 0.791302 0.21178
0.891539 0.761959 0.199374
0.00476081 0.831815 0.475013
0.0899825 0.838254 0.493141
0.174609 0.849256 0.499001
0.251102 0.864454 0.488121
0.321538 0.883024 0.460609
0.38613 0.904097 0.425299
0.448753 0.926925 0.378225
0.52874 0.945983 0.317708
0.71603 0.934081 0.244282
0.00196841 0.951598 0.538216
0.0846418 0.958251 0.555581
0.169696 0.969039 0.562524
0.247654 0.983352 0.555688
0.320378 0.99794 0.532067
0.38851 1 0.496971
0.452247 1 0.454475
0.515557 1 0.401923
0.596292 1 0.338994
0 0 0.242908
0.11577 0 0.241413
0.243977 0 0.24097
0.367971 0 0.249134
0.491722 0 0.272602
0.618372 0 0.299626
0.746654 0 0.324681
0.874037 0 0.347692
0.990417 0 0.368673
0 0.122698 0.247547
0.117815 0.12015 0.246159
0.246006 0.118837 0.245747
0.370291 0.117205 0.260639
0.498558 0.113222 0.2869
0.625574 0.109972 0.309285
0.74374 0.109575 0.329046
0.855802 0.111086 0.348196
0.965072 0.113344 0.367544
0.0016022 0.246143 0.250233
0.119432 0.243992 0.249104
0.245731 0.243168 0.249561
0.365713 0.242313 0.269032
0.480827 0.242878 0.288731
0.596872 0.243107 0.309178
0.712428 0.243442 0.32958
0.827573 0.243977 0.350027
0.942382 0.244556 0.370474
0.00883497 0.36492 0.272404
0.131762 0.361425 0.284672
0.243061 0.362585 0.309407
0.322759 0.379034 0.275944
0.501778 0.364569 0.255406
0.648936 0.354482 0.285878
0.779629 0.34931 0.317723
0.892363 0.349218 0.350652
0.984329 0.352193 0.377218
0.0166476 0.480873 0.322026
0.137163 0.478233 0.346609
0.239033 0.4822 0.372183
0.315404 0.497353 0.360739
0.389227 0.517296 0.309621
0.593164 0.497459 0.268818
0.749462 0.488731 0.258335
0.897765 0.478676 0.286519
1 0.469123 0.316533
0.0210422 0.597467 0.382177
0.136889 0.596475 0.411185
0.234333 0.601968 0.434592
0.314168 0.615228 0.432334
0.381415 0.635264 0.400076
0.455344 0.655543 0.344137
0.675731 0.631434 0.298405
0.839689 0.623087 0.261082
0.985992 0.613931 0.261189
0.0235142 0.714977 0.446128
0.134264 0.71548 0.475532
0.22948 0.721813 0.497154
0.311147 0.734035 0.499474
0.382528 0.751934 0.475883
0.446235 0.773709 0.436484
0.520989 0.793957 0.379278
0.735775 0.773129 0.316579
0.928038 0.754238 0.300893
0.0235752 0.833219 0.510857
0.13051 0.834897 0.539376
0.224292 0.841718 0.559564
0.307088 0.853391 0.564508
0.380957 0.869764 0.548669
0.447898 0.889891 0.516594
0.510597 0.912398 0.472679
0.585855 0.932525 0.415
0.783154 0.917861 0.342596
0.0222324 0.95198 0.575509
0.126131 0.954467 0.602808
0.218967 0.961715 0.622019
0.302525 0.972976 0.628672
0.378164 0.988266 0.618235
0.448585 1 0.58854
0.513527 1 0.550118
0.57673 1 0.49897
0.65301 1 0.438437
0 0 0.374319
0.115099 0 0.372854
0.243305 0 0.372488
0.369848 0 0.372427
0.493538 0 0.376593
0.61503 0 0.392004
0.73753 0 0.41622
0.862043 0 0.443244
0.984955 0 0.469657
0 0.123079 0.378927
0.117128 0.120562 0.377523
0.245289 0.119173 0.377249
0.371847 0.118334 0.377203
0.495232 0.1178 0.3832
0.617594 0.11606 0.404395
0.742748 0.112947 0.431312
0.869978 0.109346 0.456916
0.990631 0.105715 0.480552
0 0.247196 0.381659
0.117678 0.244694 0.380285
0.245518 0.243488 0.380163
0.372061 0.242603 0.380209
0.495323 0.241611 0.391104
0.621469 0.238193 0.417563
0.74963 0.234531 0.441169
0.870619 0.233249 0.461616
0.981933 0.234195 0.480842
0.00169375 0.370703 0.38349
0.119768 0.368536 0.382147
0.246189 0.367636 0.382208
0.370428 0.367437 0.383032
0.494957 0.365408 0.400275
0.606897 0.366949 0.419883
0.721355 0.367681 0.440131
0.836057 0.368322 0.460487
0.950469 0.368994 0.480873
0.00776684 0.490898 0.397604
0.1308 0.487892 0.401587
0.257572 0.485801 0.413153
0.371359 0.486381 0.4374
0.446357 0.503807 0.407538
0.626154 0.488746 0.390646
0.770886 0.479393 0.421393
0.89752 0.475334 0.453025
0.98938 0.476432 0.484047
0.0163882 0.607569 0.435142
0.143557 0.603952 0.449805
0.264332 0.60238 0.473976
0.367559 0.605707 0.501106
0.443275 0.620951 0.491508
0.512566 0.642084 0.442008
0.717144 0.621958 0.40209
0.872023 0.61355 0.392966
1 0.603464 0.421317
0.0250858 0.723659 0.487129
0.150851 0.720378 0.509636
0.264775 0.720378 0.538582
0.362768 0.725582 0.56379
0.441962 0.738827 0.56286
0.508461 0.759091 0.530739
0.578302 0.780423 0.477012
0.800229 0.755856 0.430671
0.961349 0.748104 0.394598
0.0323491 0.840101 0.546212
0.153689 0.837751 0.573449
0.26247 0.839277 0.603235
0.357656 0.845426 0.626322
0.43888 0.857679 0.629892
0.509316 0.875837 0.606867
0.572656 0.897765 0.567422
0.643366 0.918944 0.512551
0.856825 0.898787 0.447013
0.0364385 0.957244 0.608865
0.153674 0.955962 0.638285
0.258839 0.958587 0.667323
0.352392 0.965377 0.688899
0.43473 0.977035 0.694881
0.507759 0.993439 0.679377
0.575036 1 0.644404
0.638148 1 0.596536
0.710094 1 0.538277
0 0.000350958 0.50576
0.114412 0 0.504311
0.242603 0 0.504005
0.369146 0 0.504036
0.494591 0 0.50428
0.618204 0 0.506691
0.739178 0 0.516884
0.859785 0 0.535271
0.980514 0 0.559625
0 0.123476 0.510414
0.116487 0.120851 0.508995
0.244602 0.119554 0.50869
0.371145 0.118685 0.508782
0.496651 0.11809 0.509041
0.62005 0.117861 0.512016
0.740902 0.117388 0.525353
0.862379 0.11574 0.547982
0.982712 0.113161 0.574624
0 0.247654 0.513161
0.116899 0.24509 0.511772
0.244862 0.243824 0.511589
0.371359 0.242954 0.511727
0.496864 0.24239 0.512032
0.619989 0.2421 0.516167
0.741268 0.240925 0.534752
0.865034 0.238239 0.561196
0.986084 0.234897 0.58735
0 0.371847 0.515099
0.117189 0.369375 0.513741
0.244709 0.368307 0.51368
0.370901 0.367483 0.51397
0.49633 0.366903 0.514321
0.619165 0.36643 0.521614
0.743282 0.363745 0.547097
0.871061 0.360037 0.571847
0.988602 0.357763 0.593347
0.00161746 0.495369 0.516457
0.119631 0.493172 0.515114
0.246067 0.492363 0.515114
0.370901 0.491905 0.515679
0.495354 0.491646 0.516243
0.620981 0.489509 0.531579
0.735073 0.49044 0.551308
0.846601 0.492042 0.57084
0.959533 0.493095 0.591073
0.0068513 0.61648 0.526284
0.128786 0.613886 0.527413
0.255909 0.612345 0.531945
0.381155 0.610803 0.542535
0.497154 0.61088 0.56408
0.570077 0.628443 0.539849
0.749477 0.613245 0.525811
0.891569 0.604746 0.556512
0.99324 0.601846 0.588022
0.0150149 0.734279 0.555444
0.142519 0.730739 0.563745
0.268849 0.728496 0.578378
0.389303 0.727123 0.601633
0.494499 0.729839 0.629419
0.570474 0.744701 0.62269
0.636042 0.766766 0.574731
0.839704 0.746944 0.535134
0.986801 0.738521 0.527443
0.0245975 0.850584 0.599237
0.154238 0.846708 0.615015
0.276875 0.8448 0.637583
0.390784 0.844831 0.666194
0.490028 0.849439 0.69276
0.569253 0.862547 0.693675
0.63505 0.882979 0.661753
0.701259 0.905226 0.610147
0.922621 0.880888 0.56289
0.0349737 0.966674 0.652293
0.162203 0.963104 0.673945
0.280324 0.962066 0.700999
0.389013 0.963531 0.731014
0.484871 0.969375 0.755505
0.565988 0.981521 0.760464
0.635935 0.998413 0.737545
0.699733 1 0.694209
0.767575 1 0.638254
0 0.000747692 0.637293
0.113695 0 0.635843
0.241871 0 0.635569
0.368399 0 0.635615
0.493904 0 0.635874
0.618616 0 0.636332
0.742031 0 0.637934
0.862974 0 0.645029
0.98143 0.000289921 0.658839
0 0.123827 0.641947
0.115831 0.121202 0.640482
0.243931 0.119905 0.640238
0.370459 0.119081 0.640345
0.495964 0.118441 0.64062
0.62063 0.118074 0.641093
0.743999 0.117937 0.642893
0.864698 0.117968 0.65156
0.981857 0.117403 0.668345
0 0.24802 0.644709
0.116167 0.245487 0.643305
0.244205 0.244175 0.643107
0.370642 0.243305 0.64329
0.496132 0.242664 0.64361
0.620859 0.242344 0.644083
0.744091 0.242237 0.646174
0.864561 0.242084 0.657404
0.981994 0.240925 0.678294
0 0.372412 0.646723
0.116167 0.369879 0.64535
0.243961 0.368673 0.645228
0.370245 0.367803 0.645487
0.495644 0.367254 0.645884
0.620386 0.366873 0.646372
0.743389 0.366781 0.649134
0.863905 0.366155 0.664836
0.982864 0.363958 0.690303
0 0.496666 0.648157
0.116472 0.494255 0.646815
0.243763 0.493156 0.646769
0.36965 0.49247 0.64712
0.494774 0.491981 0.647669
0.619425 0.491569 0.648295
0.742153 0.491432 0.652628
0.864424 0.489509 0.675898
0.986023 0.486046 0.70161
0.00140383 0.620249 0.64918
0.119173 0.617975 0.647791
0.245609 0.617166 0.647745
0.370398 0.616739 0.648203
0.494285 0.616632 0.648951
0.61828 0.616449 0.649927
0.742702 0.614939 0.662287
0.863416 0.613779 0.682353
0.973007 0.6159 0.70161
0.00607309 0.741924 0.656413
0.12697 0.739406 0.656352
0.253803 0.738231 0.658473
0.379065 0.737285 0.66302
0.503029 0.736126 0.67335
0.619852 0.736522 0.689815
0.696086 0.752529 0.671382
0.8719 0.738003 0.660807
0.993545 0.730449 0.691478
0.0135653 0.860563 0.679759
0.139834 0.857374 0.684504
0.267124 0.855406 0.69337
0.392004 0.853574 0.707591
0.512535 0.852323 0.729824
0.619806 0.85449 0.756619
0.697017 0.86862 0.753491
0.760327 0.891218 0.707439
0.961791 0.871946 0.668345
0.0225681 0.977523 0.716777
0.153109 0.973739 0.727672
0.279149 0.971435 0.743648
0.40087 0.969726 0.765805
0.515251 0.969757 0.79382
0.616022 0.9738 0.821134
0.695888 0.986542 0.824277
0.761624 1 0.791211
0.825986 1 0.737987
0 0.00114443 0.768872
0.113024 0 0.767468
0.241199 0 0.767147
0.367681 0 0.767254
0.493172 0 0.767544
0.617884 0 0.768017
0.741985 0 0.768612
0.865217 0 0.769772
0.983505 0.000503548 0.775006
0 0.124147 0.773556
0.115129 0.121614 0.772107
0.243229 0.120226 0.771847
0.369757 0.119356 0.771969
0.495232 0.118807 0.772274
0.619959 0.118441 0.772778
0.744015 0.118181 0.773373
0.867231 0.118151 0.774624
0.983902 0.118456 0.780636
0 0.248402 0.776333
0.115496 0.245777 0.774884
0.243549 0.244526 0.774716
0.369985 0.243626 0.774868
0.495415 0.24303 0.77525
0.620142 0.242664 0.775784
0.744244 0.242405 0.776364
0.86743 0.24242 0.777691
0.983673 0.242664 0.784909
0 0.372824 0.778363
0.115389 0.370306 0.776944
0.243244 0.368994 0.776791
0.369558 0.3682 0.777035
0.494987 0.367605 0.777493
0.619654 0.367208 0.778027
0.743755 0.367025 0.778653
0.866865 0.367041 0.780118
0.9832 0.367086 0.789364
0 0.497307 0.779904
0.11519 0.494774 0.778485
0.242786 0.493568 0.778408
0.368902 0.492805 0.778698
0.494087 0.492287 0.779263
0.618723 0.491936 0.779873
0.742809 0.491722 0.780514
0.865797 0.491737 0.782254
0.98262 0.491554 0.795102
0 0.62153 0.780911
0.115633 0.61915 0.779583
0.242741 0.618158 0.779553
0.368383 0.617487 0.779965
0.493172 0.61709 0.780545
0.617533 0.61677 0.781292
0.741543 0.616571 0.78204
0.864347 0.616541 0.784466
0.982513 0.615442 0.804303
0.00109865 0.745174 0.781704
0.11841 0.74287 0.780255
0.244877 0.742061 0.780224
0.369665 0.741665 0.780636
0.493446 0.741512 0.781369
0.616754 0.741482 0.782376
0.739925 0.741573 0.783658
0.863859 0.740841 0.789929
0.984771 0.738231 0.813672
0.00534066 0.867277 0.78735
0.125231 0.864805 0.78674
0.251942 0.863767 0.787915
0.376989 0.863096 0.790372
0.50103 0.862516 0.794965
0.623896 0.861784 0.804929
0.739925 0.862867 0.816175
0.824201 0.876036 0.801907
0.987366 0.863081 0.795941
0.012192 0.986603 0.806439
0.137011 0.983703 0.809155
0.264271 0.98204 0.814771
0.389822 0.980575 0.823575
0.513741 0.979095 0.83772
0.634226 0.977981 0.858549
0.743221 0.979889 0.882811
0.823102 0.992767 0.884031
0.886458 1 0.836759
0 0.00155642 0.900542
0.112306 0 0.899092
0.240467 0 0.898833
0.366949 0 0.898939
0.492439 0 0.899245
0.617151 0 0.899748
0.741253 0 0.900359
0.86479 0 0.901076
0.98439 0.000183108 0.902083
0 0.124514 0.905196
0.114427 0.121935 0.903731
0.242573 0.120562 0.903471
0.369039 0.119692 0.903609
0.49453 0.119127 0.903975
0.619242 0.118761 0.904479
0.743297 0.118547 0.905119
0.86688 0.118471 0.905852
0.984939 0.118624 0.906874
0 0.248768 0.907973
0.114794 0.246174 0.906554
0.242863 0.244862 0.90634
0.369299 0.243915 0.906493
0.494759 0.243397 0.90692
0.619425 0.24303 0.907454
0.743526 0.242817 0.90808
0.867109 0.242741 0.908827
0.984909 0.242817 0.90985
0 0.37322 0.910048
0.11458 0.370642 0.908614
0.242542 0.369329 0.908461
0.368917 0.368475 0.90869
0.494301 0.367941 0.909117
0.618952 0.367559 0.909712
0.743053 0.367346 0.910369
0.866636 0.367239 0.911101
0.984665 0.367346 0.912169
0 0.497749 0.91162
0.114229 0.495201 0.910185
0.242008 0.493965 0.910048
0.3682 0.493172 0.910369
0.493462 0.492622 0.910872
0.618067 0.49221 0.911513
0.742107 0.492042 0.91223
0.86569 0.492058 0.912978
0.984268 0.492088 0.914076
0 0.622293 0.912779
0.11397 0.619806 0.911391
0.241505 0.618631 0.911284
0.367422 0.617899 0.91162
0.492439 0.617456 0.912169
0.616846 0.61709 0.912902
0.740841 0.616938 0.91371
0.864424 0.616846 0.914488
0.983764 0.616922 0.915679
0 0.746487 0.913436
0.114626 0.744091 0.912123
0.241596 0.743145 0.912123
0.367025 0.742535 0.912505
0.491646 0.742184 0.91313
0.615671 0.742016 0.913954
0.739391 0.741817 0.914855
0.862882 0.741787 0.91574
0.983139 0.741939 0.917098
0.000701915 0.870161 0.914061
0.117418 0.867887 0.912612
0.243915 0.866987 0.912566
0.36875 0.866636 0.912978
0.492515 0.866453 0.913695
0.615564 0.866575 0.914626
0.738369 0.866712 0.915801
0.860929 0.866911 0.916671
0.982345 0.866407 0.920913
0.00462348 0.991379 0.918624
0.123552 0.989746 0.917708
0.250156 0.989197 0.918425
0.375082 0.988632 0.919966
0.499031 0.988281 0.922591
0.62211 0.987976 0.927245
0.744091 0.987503 0.937255
0.858442 0.989441 0.944533
0.954452 0.998428 0.932845
0 0.00187686 1
0.111559 0 1
0.239734 0 1
0.366247 0 1
0.491676 0 1
0.616388 0 1
0.740444 0 1
0.864012 0 1
0.98381 0 1
0 0.124743 1
0.113725 0.122118 1
0.241825 0.120821 1
0.368322 0.119951 1
0.493751 0.119356 1
0.618463 0.118975 1
0.742504 0.118761 1
0.866087 0.118685 1
0.984375 0.118761 1
0 0.248997 1
0.114046 0.246372 1
0.242115 0.245029 1
0.368551 0.24416 1
0.493996 0.24361 1
0.618662 0.243229 1
0.742748 0.243015 1
0.866316 0.242939 1
0.984344 0.243015 1
0 0.373449 1
0.113802 0.370825 1
0.24184 0.369543 1
0.36817 0.368688 1
0.493553 0.368139 1
0.618189 0.367773 1
0.74226 0.367559 1
0.865843 0.367468 1
0.9841 0.367514 1
0 0.498054 1
0.113329 0.495445 1
0.241184 0.494179 1
0.367437 0.493385 1
0.492714 0.492805 1
0.617304 0.492454 1
0.741329 0.492271 1
0.864897 0.492195 1
0.983734 0.492241 1
0 0.62266 1
0.112795 0.620111 1
0.240482 0.618891 1
0.366552 0.618128 1
0.491676 0.617624 1
0.616144 0.617273 1
0.740108 0.617121 1
0.86363 0.617029 1
0.983246 0.617075 1
0 0.747234 1
0.112535 0.744717 1
0.239963 0.743587 1
0.365759 0.742885 1
0.490623 0.742473 1
0.614862 0.742168 1
0.738643 0.742031 1
0.862104 0.742 1
0.982681 0.742046 1
0 0.871427 1
0.11339 0.869047 1
0.240238 0.868055 1
0.365576 0.867521 1
0.489982 0.867185 1
0.613825 0.867048 1
0.73724 0.866987 1
0.860441 0.867002 1
0.981918 0.867094 1
0.000228885 0.993057 1
0.116228 0.991577 1
0.242786 0.991424 1
0.367605 0.991455 1
0.491386 0.991333 1
0.61442 0.991394 1
0.737057 0.991516 1
0.859541 0.991547 1
0.978973 0.992676 1
