lut/08155b73-e90a-4b87-af4d-5ef5d48e5a86.cube
TITLE "Bleak Cool Fade"
LUT_3D_SIZE 33
0 0 0
0.0234989 0 0.00260929
0.0487221 0 0.00637827
0.0786908 0 0.00982681
0.108736 0 0.0132296
0.138628 0 0.0166323
0.16846 0 0.0200198
0.19823 0 0.0234226
0.227878 0 0.0269017
0.257542 0 0.0305486
0.287221 0 0.0352636
0.316777 0 0.0408026
0.346197 0 0.0462043
0.375479 0 0.0514076
0.404562 0 0.0563516
0.433494 0 0.0610666
0.462547 0 0.0660868
0.491691 0 0.0712902
0.520745 0 0.0764935
0.549783 0 0.0816968
0.578759 0 0.0869917
0.607691 0 0.0921492
0.636622 0.000198367 0.0973526
0.665537 0.000427253 0.102541
0.694392 0.000671397 0.107759
0.723262 0.000915541 0.112963
0.752087 0.0011902 0.118166
0.780865 0.00141909 0.123339
0.809613 0.00170901 0.128527
0.838376 0.00195315 0.1337
0.867079 0.0021973 0.138918
0.895766 0.00244144 0.144106
0.924437 0.00270085 0.149279
0 0.0288548 0.010132
0.0177005 0.0298161 0.00369268
0.0515297 0.0278477 0.000411994
0.0910048 0.0248264 0.0037995
0.126421 0.0227665 0.00924697
0.159106 0.0215305 0.0145724
0.189044 0.0210727 0.0200198
0.217472 0.0211185 0.0247349
0.245777 0.0213016 0.029099
0.274281 0.0214084 0.0333715
0.302556 0.0216526 0.0383001
0.330495 0.0220035 0.0436713
0.358541 0.0223697 0.0488899
0.386542 0.0226902 0.0540169
0.414572 0.0230106 0.0591287
0.442542 0.0233158 0.064271
0.471443 0.0233768 0.0697185
0.500282 0.0234684 0.0750286
0.529015 0.0235752 0.0800793
0.557656 0.023743 0.0849165
0.586145 0.0239872 0.0895399
0.614557 0.0242618 0.0939956
0.643366 0.0243076 0.0992447
0.672099 0.0243839 0.104463
0.700893 0.024445 0.109712
0.729625 0.0245365 0.114931
0.758358 0.0246128 0.120134
0.78703 0.0246891 0.125277
0.815717 0.0248264 0.130449
0.844388 0.0249332 0.135683
0.87306 0.0251774 0.140871
0.901656 0.0252842 0.14609
0.930297 0.0254978 0.151278
0 0.0582742 0.0230716
0.0120851 0.0613413 0.0193942
0.037232 0.0619364 0.0138247
0.071931 0.0615702 0.00389105
0.119219 0.0572213 9.15541e-05
0.1579 0.0541848 0.0049897
0.195529 0.0513466 0.0103609
0.2309 0.0491798 0.0159457
0.264683 0.0475319 0.0214542
0.297139 0.0462501 0.0269017
0.32784 0.0455024 0.0324407
0.356909 0.0452125 0.0388952
0.384314 0.0455329 0.0463874
0.411215 0.046067 0.0530404
0.437934 0.0466011 0.0595865
0.46482 0.0472114 0.0660716
0.491859 0.0477302 0.071931
0.519097 0.0483558 0.0773175
0.54638 0.0488746 0.0825666
0.573739 0.0493935 0.0878004
0.601175 0.0499428 0.093019
0.628702 0.0504311 0.0982223
0.656825 0.0507362 0.103395
0.684962 0.0510872 0.108339
0.712963 0.0514534 0.113054
0.740871 0.0518807 0.11754
0.76875 0.0524147 0.121813
0.796811 0.0528115 0.126452
0.825208 0.0529946 0.131823
0.853651 0.0532235 0.137133
0.882063 0.0534676 0.142382
0.910384 0.0536965 0.147463
0.938689 0.0539559 0.152438
0 0.0876326 0.0383917
0.0115969 0.0906081 0.0360723
0.0272068 0.0943465 0.0311894
0.0555886 0.0955062 0.0214237
0.0946822 0.0941176 0.0111086
0.143908 0.0901961 0
0.184619 0.0871443 0.00125124
0.222995 0.0842298 0.00595102
0.26125 0.0813001 0.0110628
0.298283 0.078645 0.0164034
0.333761 0.0764324 0.0218967
0.367956 0.0746319 0.0273899
0.401358 0.073106 0.0327764
0.433433 0.0719463 0.0395056
0.463783 0.0712291 0.0479133
0.492882 0.0709697 0.0564279
0.521019 0.0709239 0.0649577
0.548363 0.0711986 0.0729839
0.574853 0.0718242 0.079881
0.601221 0.0725414 0.0863966
0.627543 0.0732586 0.0928359
0.65391 0.0739605 0.0992599
0.680491 0.0746624 0.10515
0.70724 0.075349 0.110491
0.734157 0.0760815 0.115816
0.761028 0.0767224 0.12108
0.787991 0.0773632 0.126375
0.815091 0.0779736 0.131655
0.842649 0.0785229 0.136584
0.8701 0.0790265 0.141238
0.89749 0.0796216 0.145754
0.92488 0.0802625 0.150103
0.952087 0.0809033 0.154345
0 0.117098 0.0543069
0.0110628 0.120043 0.0523995
0.0262913 0.123857 0.0476387
0.0424048 0.128267 0.0405737
0.0736706 0.129656 0.0280308
0.117159 0.127016 0.0164492
0.16379 0.123903 0.00488289
0.209613 0.120195 0.000137331
0.249088 0.117372 0.00236515
0.287205 0.114565 0.00694286
0.325429 0.11162 0.0118715
0.363195 0.108797 0.0169985
0.399847 0.10631 0.0223239
0.435218 0.104158 0.0277714
0.469581 0.102266 0.0332494
0.503166 0.100679 0.0401312
0.536019 0.0992752 0.0483406
0.567926 0.098146 0.0565347
0.598733 0.0973526 0.0648966
0.628138 0.0969558 0.0733806
0.656428 0.0969253 0.0818189
0.683879 0.0971389 0.0903487
0.710933 0.0973983 0.0988174
0.737575 0.0979171 0.106508
0.76376 0.0986648 0.113085
0.789899 0.0994278 0.119478
0.816052 0.100221 0.125917
0.842176 0.100999 0.132357
0.868467 0.101762 0.138186
0.894926 0.102556 0.143465
0.921462 0.103365 0.148775
0.947799 0.104128 0.154101
0.970565 0.104875 0.159426
0 0.14696 0.0699168
0.010544 0.149783 0.0685435
0.0255131 0.15349 0.0638285
0.0405737 0.1579 0.0568093
0.0585794 0.162768 0.0483864
0.0911269 0.164065 0.0338598
0.138048 0.160494 0.0211948
0.183719 0.157259 0.0113069
0.232471 0.153353 0.00270085
0.274083 0.150515 0.000732433
0.312993 0.147768 0.00337224
0.350759 0.145083 0.00790417
0.388785 0.142245 0.0127565
0.426764 0.139361 0.0177462
0.464118 0.13666 0.022858
0.500481 0.134218 0.0281529
0.535866 0.132067 0.0335699
0.570459 0.130114 0.0405127
0.604257 0.12842 0.0487678
0.6374 0.12697 0.0569924
0.670069 0.125643 0.0651255
0.701793 0.12462 0.0733349
0.732326 0.123903 0.081651
0.76199 0.123369 0.0900893
0.790829 0.123186 0.098558
0.818967 0.123217 0.106966
0.846006 0.123461 0.115465
0.872801 0.123812 0.123919
0.899382 0.124361 0.132174
0.925597 0.124987 0.139544
0.949538 0.125765 0.146014
0.969573 0.126558 0.152438
0.987671 0.127398 0.158831
0 0.176715 0.0856489
0.0100099 0.179416 0.0849012
0.0250553 0.182956 0.0812543
0.0401617 0.187366 0.0740826
0.056611 0.19237 0.0648661
0.0748608 0.197314 0.0559243
0.108248 0.19855 0.0399329
0.157565 0.1944 0.026154
0.203677 0.19086 0.016556
0.253834 0.186481 0.00788891
0.297597 0.183627 0.00224308
0.337804 0.181003 0.00144961
0.376394 0.178347 0.00430304
0.413977 0.175692 0.00881972
0.451713 0.172961 0.0136263
0.489616 0.170123 0.0185092
0.527245 0.167346 0.0234989
0.564279 0.164767 0.0286412
0.600504 0.162356 0.0339208
0.635966 0.16025 0.04065
0.670771 0.158206 0.0489052
0.704738 0.156481 0.0572061
0.738079 0.154925 0.0654765
0.770855 0.153567 0.07364
0.803143 0.152346 0.0817731
0.834791 0.151324 0.0899367
0.865644 0.150439 0.0981765
0.895491 0.14992 0.106523
0.923537 0.149752 0.114977
0.9467 0.149691 0.123461
0.966354 0.149691 0.131884
0.98471 0.150042 0.140368
1 0.150546 0.148745
0 0.206546 0.101472
0.00944533 0.20914 0.101152
0.0245518 0.212375 0.0988174
0.0407416 0.216571 0.0924849
0.0572519 0.2215 0.0838941
0.0733654 0.22678 0.0733654
0.0909285 0.232013 0.0629892
0.125063 0.233127 0.046128
0.174777 0.228946 0.0316167
0.222263 0.22504 0.0209354
0.274556 0.219699 0.0135805
0.320073 0.216587 0.00675975
0.361273 0.214237 0.00213626
0.401099 0.211643 0.00218204
0.439445 0.209018 0.00517281
0.476783 0.206455 0.0096437
0.514305 0.2038 0.0144503
0.55201 0.201053 0.0193179
0.589685 0.198276 0.0242466
0.627024 0.19559 0.0292515
0.663828 0.193057 0.0343786
0.700069 0.190707 0.0408637
0.735759 0.188434 0.0489509
0.770581 0.18645 0.0571908
0.8047 0.184649 0.0654612
0.838132 0.183078 0.0737469
0.871046 0.181689 0.082002
0.903578 0.180346 0.0901503
0.93283 0.179156 0.0982528
0.95433 0.17818 0.106355
0.974365 0.177386 0.11458
0.994018 0.176867 0.122881
1 0.176745 0.13106
0 0.236439 0.117113
0.00886549 0.238926 0.116991
0.0239109 0.2421 0.115251
0.0403449 0.246021 0.110506
0.0576181 0.250553 0.102861
0.0742504 0.255634 0.0934005
0.0904555 0.261173 0.0822156
0.107103 0.266712 0.0696269
0.141665 0.267735 0.0523995
0.192538 0.263355 0.0366217
0.239612 0.259617 0.0251316
0.294545 0.253315 0.0190433
0.341863 0.249454 0.0126955
0.384192 0.247196 0.00572213
0.42446 0.244999 0.00228885
0.463951 0.242359 0.00292973
0.502129 0.239811 0.0059968
0.539376 0.237278 0.0104067
0.576654 0.234684 0.015198
0.61413 0.231998 0.0200656
0.651713 0.229313 0.0249638
0.68925 0.226535 0.0299687
0.726253 0.223941 0.0349432
0.763058 0.221454 0.0411078
0.799527 0.218967 0.0490272
0.835172 0.21677 0.0570993
0.870008 0.214786 0.0653086
0.904204 0.21297 0.0735637
0.934859 0.211398 0.0818952
0.95639 0.209918 0.0901503
0.977127 0.20856 0.0983597
0.997711 0.207401 0.106462
1 0.206699 0.114305
0 0.266255 0.132937
0.00825513 0.268681 0.133074
0.0232395 0.271748 0.13196
0.0400854 0.275471 0.127825
0.0575875 0.279789 0.121065
0.0750134 0.284642 0.112825
0.0914168 0.289937 0.102739
0.107469 0.295613 0.0908217
0.124056 0.301183 0.0775006
0.158068 0.302388 0.058793
0.209567 0.297978 0.0419928
0.257908 0.293858 0.0298772
0.31339 0.287434 0.024033
0.363378 0.282475 0.0184634
0.406622 0.280018 0.0113222
0.447288 0.278126 0.00492866
0.487251 0.275807 0.00262455
0.526528 0.273228 0.00366217
0.564508 0.27068 0.00675975
0.601694 0.268208 0.0111238
0.638727 0.26569 0.0159152
0.676066 0.263066 0.0207675
0.713436 0.26038 0.0256657
0.750881 0.25771 0.0306096
0.788128 0.255039 0.0355688
0.825208 0.252461 0.0414893
0.862226 0.249851 0.0491951
0.898558 0.247486 0.0570687
0.933242 0.245243 0.0651255
0.956405 0.24329 0.0733349
0.977752 0.241474 0.0816358
0.998856 0.239857 0.0899214
1 0.238926 0.0980087
0 0.296147 0.148608
0.00762951 0.298558 0.148806
0.0225376 0.301457 0.148165
0.0398108 0.305043 0.145144
0.0575265 0.309163 0.139239
0.0754253 0.313817 0.131487
0.0921798 0.318929 0.122469
0.108431 0.324361 0.111833
0.124361 0.330007 0.0997024
0.14136 0.335561 0.0857862
0.174289 0.337087 0.0653086
0.22565 0.33283 0.0478981
0.276127 0.328115 0.0350958
0.330587 0.32195 0.0290684
0.383062 0.316136 0.0237736
0.428458 0.312871 0.0175784
0.469947 0.310933 0.00996414
0.509987 0.309087 0.00451667
0.549783 0.306706 0.0031281
0.588769 0.304128 0.00437934
0.626673 0.301625 0.00750744
0.663767 0.299184 0.0118105
0.700694 0.296712 0.0165713
0.737743 0.294179 0.0214237
0.775021 0.291539 0.0263218
0.812345 0.288899 0.0312505
0.849561 0.286259 0.0361944
0.886854 0.283604 0.0419471
0.924178 0.280964 0.0494698
0.953445 0.278386 0.0571756
0.976181 0.27602 0.0650492
0.997986 0.273899 0.073106
1 0.272557 0.081239
0 0.325978 0.16434
0.00698863 0.328344 0.164584
0.0218051 0.331273 0.16437
0.0392615 0.334737 0.161776
0.057145 0.338659 0.156909
0.0756695 0.343053 0.150118
0.0927596 0.348013 0.141451
0.109178 0.353277 0.131868
0.125338 0.35877 0.120958
0.141161 0.364523 0.1084
0.158602 0.369955 0.0941176
0.190951 0.371603 0.0727245
0.241337 0.367742 0.0539406
0.293477 0.362615 0.0417029
0.348211 0.35642 0.0350347
0.402121 0.350103 0.0301366
0.449104 0.346136 0.0237278
0.49192 0.343816 0.016022
0.532525 0.342061 0.00875868
0.572335 0.340124 0.00440986
0.611948 0.337697 0.00363165
0.650736 0.335164 0.00509651
0.688533 0.332677 0.00822461
0.725597 0.330251 0.0124361
0.762371 0.32781 0.0171817
0.799313 0.325322 0.022034
0.836423 0.322774 0.0269474
0.873594 0.320165 0.0318761
0.91078 0.317556 0.0368048
0.945861 0.314855 0.0425574
0.972274 0.312245 0.0498817
0.994812 0.30959 0.0573892
1 0.307713 0.0652781
0 0.355917 0.180102
0.00633249 0.358206 0.180362
0.0210269 0.361028 0.180529
0.0388037 0.364355 0.178592
0.056733 0.368215 0.174289
0.0753948 0.372457 0.168063
0.0930953 0.377234 0.160113
0.10985 0.382284 0.151293
0.126101 0.387686 0.141314
0.142092 0.393256 0.129702
0.157931 0.399039 0.117189
0.175799 0.404349 0.10251
0.208087 0.406058 0.081117
0.257557 0.402533 0.0612192
0.309499 0.397528 0.0487678
0.365057 0.391196 0.0404517
0.420874 0.384298 0.0370489
0.469322 0.379644 0.0299535
0.513222 0.376837 0.0223087
0.554681 0.374945 0.0144656
0.594751 0.37322 0.00791943
0.634394 0.371206 0.00456245
0.673793 0.368765 0.00415045
0.712505 0.366247 0.00578317
0.75021 0.36379 0.00891127
0.787243 0.361364 0.0130465
0.823941 0.358999 0.0177615
0.860716 0.356542 0.0225986
0.897658 0.354025 0.027512
0.934508 0.351476 0.0324254
0.966232 0.348882 0.0373846
0.989654 0.346273 0.0430152
1 0.343969 0.0505531
0 0.385794 0.195773
0.0056611 0.388098 0.196063
0.0203861 0.390845 0.196399
0.0380865 0.394095 0.194827
0.0562295 0.397848 0.191455
0.0751507 0.401923 0.186114
0.0931563 0.40647 0.17847
0.110277 0.41149 0.170184
0.126864 0.416587 0.161044
0.14287 0.422126 0.150469
0.15877 0.427741 0.138521
0.174563 0.433509 0.125887
0.19295 0.438758 0.110918
0.225116 0.440467 0.0895857
0.273762 0.437278 0.0690776
0.325673 0.432319 0.0558938
0.381277 0.426078 0.0456703
0.438819 0.418723 0.0423285
0.490227 0.413031 0.0382239
0.534203 0.409979 0.0286564
0.576577 0.407782 0.0206912
0.616968 0.406165 0.0131075
0.656703 0.404425 0.00737011
0.696193 0.402335 0.00474556
0.735515 0.399878 0.0047303
0.774044 0.397375 0.00645457
0.811704 0.394934 0.00956741
0.848692 0.392569 0.0136263
0.885313 0.390219 0.0182956
0.921981 0.387793 0.0231327
0.957916 0.385321 0.0280308
0.98323 0.382788 0.0329747
1 0.380438 0.0379187
0 0.415671 0.211536
0.0049897 0.41799 0.211872
0.0197452 0.420691 0.212497
0.0374304 0.423896 0.211276
0.0555581 0.427512 0.20827
0.0746471 0.431495 0.20354
0.093019 0.435874 0.196796
0.110567 0.44065 0.1888
0.127352 0.445762 0.180133
0.143557 0.451041 0.17052
0.159579 0.45658 0.159579
0.175418 0.462272 0.147524
0.19118 0.468071 0.134646
0.210056 0.473167 0.119448
0.242039 0.474952 0.0981003
0.289799 0.472084 0.0771344
0.342107 0.467094 0.0631571
0.397192 0.461067 0.0513924
0.455573 0.453574 0.0467079
0.510109 0.44683 0.0445106
0.555978 0.442939 0.0380255
0.597864 0.440757 0.0273747
0.638941 0.439017 0.0192416
0.678859 0.437491 0.0120089
0.718441 0.43566 0.00704967
0.757824 0.433478 0.00503548
0.796948 0.431037 0.00529488
0.835386 0.428595 0.0071107
0.872969 0.426154 0.010193
0.910002 0.423804 0.0141909
0.946548 0.421469 0.0188144
0.97586 0.419074 0.0236362
0.99971 0.416678 0.0285191
0 0.445624 0.227237
0.00430304 0.447944 0.227527
0.019089 0.450599 0.228275
0.0366979 0.453666 0.227436
0.0549477 0.457115 0.225055
0.0741741 0.461051 0.22089
0.092607 0.46537 0.214694
0.110567 0.470024 0.207218
0.127779 0.474891 0.198947
0.144121 0.480156 0.189929
0.16022 0.485527 0.179858
0.176196 0.491081 0.168795
0.191959 0.496834 0.156283
0.207706 0.502602 0.14342
0.227054 0.507637 0.127932
0.258885 0.509438 0.106691
0.30576 0.506813 0.0852827
0.357748 0.501976 0.0706951
0.413581 0.495811 0.0582895
0.47158 0.48864 0.051133
0.529046 0.480949 0.0488746
0.577432 0.476143 0.0459297
0.619745 0.473625 0.0360876
0.660685 0.471855 0.0259556
0.700938 0.470359 0.0178836
0.74049 0.468818 0.0111696
0.779965 0.466957 0.00691234
0.819211 0.464714 0.00540169
0.858244 0.462287 0.00587472
0.89659 0.459846 0.00776684
0.934142 0.45742 0.0108186
0.967224 0.455085 0.0147402
0.992737 0.452766 0.0193027
0 0.475502 0.242969
0.00360113 0.477821 0.243244
0.0184176 0.480415 0.244099
0.0359045 0.483543 0.243595
0.0541238 0.486915 0.241489
0.0735332 0.490669 0.237858
0.0922408 0.494881 0.232563
0.110399 0.499352 0.225498
0.127886 0.504143 0.217472
0.14464 0.509224 0.208896
0.160876 0.514504 0.199573
0.176867 0.520043 0.189334
0.192706 0.525658 0.177569
0.208484 0.531365 0.165148
0.224201 0.537179 0.152285
0.243992 0.542123 0.136492
0.275639 0.543984 0.115389
0.321584 0.54165 0.0937057
0.373312 0.536965 0.0783551
0.428809 0.530922 0.0654002
0.487449 0.523644 0.0564736
0.5458 0.515785 0.052781
0.597559 0.509804 0.0513924
0.641764 0.506493 0.0458076
0.682414 0.504723 0.0341344
0.722835 0.503136 0.0243229
0.762554 0.501747 0.0166629
0.801907 0.500191 0.010544
0.841215 0.498253 0.00694286
0.88043 0.495979 0.00579843
0.919341 0.493553 0.00645457
0.956588 0.491142 0.0083772
0.985382 0.488762 0.011429
0 0.50547 0.258686
0.00288396 0.507744 0.258885
0.017731 0.510307 0.259922
0.0351263 0.513313 0.259724
0.0533761 0.516655 0.258076
0.0728313 0.520409 0.25478
0.0916609 0.524529 0.249897
0.110048 0.528847 0.24358
0.127886 0.533425 0.23595
0.144884 0.53846 0.227573
0.161364 0.543633 0.218769
0.177508 0.548913 0.209277
0.193393 0.554513 0.198383
0.209201 0.560143 0.186496
0.224948 0.565957 0.174014
0.240681 0.571725 0.161074
0.260868 0.576577 0.145052
0.292271 0.5785 0.124056
0.337423 0.576425 0.102159
0.389166 0.571832 0.0859541
0.443 0.566354 0.0728466
0.502632 0.558846 0.0626078
0.561669 0.550958 0.0580606
0.616144 0.544091 0.0563058
0.662623 0.539879 0.0530098
0.704326 0.537514 0.0445258
0.744289 0.53608 0.0314794
0.784543 0.534554 0.0229953
0.82388 0.533211 0.0155947
0.863142 0.531594 0.0100862
0.902281 0.529625 0.0071107
0.941512 0.527321 0.00627146
0.975921 0.52491 0.00703441
0 0.535424 0.274403
0.00216678 0.537667 0.274525
0.0170443 0.540291 0.275746
0.0342412 0.543206 0.275639
0.05243 0.546456 0.274266
0.0721141 0.550057 0.271519
0.0910964 0.554101 0.267231
0.10956 0.558328 0.261341
0.127626 0.562844 0.25417
0.145006 0.567712 0.246128
0.161746 0.572763 0.237629
0.177996 0.578088 0.228656
0.193973 0.58349 0.218601
0.209888 0.589044 0.207599
0.22562 0.594812 0.195514
0.241367 0.600595 0.182834
0.257115 0.606348 0.169986
0.277684 0.611063 0.153735
0.308904 0.613016 0.132799
0.35314 0.611246 0.11078
0.404547 0.606851 0.0937972
0.457816 0.601526 0.080415
0.517159 0.594217 0.0687724
0.576883 0.586236 0.0632029
0.63357 0.57879 0.0616617
0.682979 0.573526 0.0591135
0.726101 0.570489 0.0532387
0.766308 0.568841 0.0426337
0.806104 0.567498 0.0293584
0.845716 0.56614 0.0215763
0.885023 0.564691 0.0147097
0.924178 0.563043 0.00976577
0.961791 0.561013 0.00729381
0 0.565316 0.29015
0.00144961 0.567575 0.290211
0.0163424 0.570092 0.291508
0.0334173 0.573083 0.291722
0.0515297 0.576226 0.290547
0.0712596 0.579843 0.28806
0.0903944 0.583764 0.284199
0.109102 0.5879 0.279026
0.127245 0.592355 0.272404
0.144869 0.597055 0.264515
0.161944 0.602029 0.256275
0.178454 0.607156 0.247669
0.194507 0.612528 0.2383
0.210468 0.618006 0.228016
0.226261 0.623621 0.216693
0.242008 0.629404 0.20441
0.257725 0.635157 0.191714
0.273548 0.640986 0.178836
0.294453 0.645579 0.162387
0.325444 0.647608 0.141543
0.368872 0.646067 0.119417
0.419913 0.64181 0.10164
0.472786 0.636637 0.0881056
0.530694 0.629984 0.0753338
0.591424 0.62182 0.0684062
0.650141 0.613687 0.0666361
0.702312 0.607553 0.0651713
0.747372 0.603754 0.0606851
0.788418 0.601602 0.05243
0.827771 0.600351 0.0401312
0.867338 0.599039 0.0281224
0.906783 0.597711 0.0203708
0.945953 0.596262 0.0139773
0 0.5953 0.305821
0.000717174 0.597543 0.305821
0.0156405 0.600061 0.30721
0.032517 0.602945 0.307561
0.0505379 0.606104 0.306767
0.0704204 0.609628 0.304707
0.0897078 0.613352 0.301076
0.108461 0.617502 0.296345
0.126757 0.621866 0.290227
0.144671 0.626474 0.282918
0.161975 0.631312 0.274861
0.178729 0.636378 0.266392
0.194995 0.641611 0.257527
0.211017 0.646967 0.247974
0.226856 0.652552 0.237324
0.242634 0.658228 0.22562
0.25835 0.663966 0.213367
0.274037 0.669764 0.200641
0.289998 0.675502 0.18764
0.311162 0.680049 0.171084
0.341909 0.682155 0.150347
0.384512 0.680919 0.128191
0.435157 0.67689 0.109758
0.487053 0.671946 0.0961624
0.545342 0.665156 0.0825513
0.605631 0.657313 0.0738079
0.665705 0.648997 0.0710918
0.720577 0.641962 0.0703899
0.768185 0.637201 0.0676738
0.810315 0.634577 0.0608377
0.850095 0.632975 0.0508736
0.889158 0.631754 0.0375982
0.92845 0.630594 0.026688
0 0.625208 0.321599
0 0.627466 0.321523
0.0149233 0.629969 0.322988
0.0316167 0.632792 0.323415
0.0495155 0.635966 0.32285
0.0694591 0.639353 0.320943
0.0888685 0.643107 0.317845
0.107881 0.647105 0.313634
0.126223 0.651453 0.307958
0.144228 0.655955 0.301015
0.161852 0.66067 0.293278
0.178897 0.665599 0.285023
0.195346 0.670756 0.276402
0.211505 0.676066 0.267384
0.22739 0.681544 0.257511
0.243214 0.687114 0.246509
0.258946 0.69276 0.234714
0.274647 0.698589 0.222248
0.290333 0.704417 0.209598
0.306386 0.710124 0.196551
0.327825 0.714611 0.179843
0.358373 0.716701 0.159197
0.400183 0.715694 0.136995
0.450278 0.711894 0.117937
0.502007 0.707118 0.10399
0.558862 0.70074 0.0901045
0.62005 0.692805 0.0801251
0.680339 0.684535 0.0757
0.737636 0.676722 0.0748913
0.78793 0.671122 0.0737011
0.831922 0.667628 0.068986
0.872435 0.665583 0.0603037
0.911406 0.664408 0.0488746
0 0.655192 0.337285
0 0.657435 0.337255
0.0141909 0.659968 0.338735
0.0307317 0.66273 0.339345
0.0485389 0.665843 0.33904
0.0685588 0.6692 0.337377
0.0880293 0.672862 0.334508
0.107088 0.676738 0.330556
0.125643 0.68098 0.325444
0.143832 0.685374 0.319097
0.161578 0.690074 0.311635
0.178805 0.694942 0.303502
0.195575 0.699992 0.29514
0.211933 0.705135 0.286427
0.227878 0.710567 0.277119
0.243732 0.71606 0.266835
0.259541 0.721691 0.255818
0.275212 0.727459 0.243732
0.290913 0.733196 0.23122
0.3066 0.738994 0.218555
0.32282 0.744656 0.205386
0.344442 0.749111 0.188586
0.374731 0.751385 0.168139
0.415824 0.7505 0.145922
0.465354 0.746944 0.126314
0.51693 0.742184 0.111788
0.571725 0.736538 0.0979934
0.633524 0.728542 0.0864576
0.694453 0.72015 0.0806134
0.753185 0.712032 0.0790875
0.806027 0.705562 0.0787366
0.852369 0.701213 0.0761578
0.894011 0.698695 0.0693217
0 0.685161 0.353033
0 0.687358 0.353002
0.0134737 0.689906 0.354421
0.0298009 0.692653 0.355123
0.0473945 0.695705 0.35494
0.0675364 0.699046 0.353567
0.0871748 0.702632 0.351141
0.106371 0.706477 0.347616
0.124971 0.710567 0.342687
0.143236 0.714977 0.336767
0.161212 0.719509 0.329854
0.178698 0.72433 0.321981
0.195621 0.72929 0.313695
0.212192 0.734401 0.305272
0.228336 0.739651 0.296376
0.244251 0.745098 0.286748
0.260029 0.750652 0.276326
0.275776 0.756313 0.264851
0.291447 0.762036 0.25272
0.307134 0.767819 0.240238
0.322805 0.773617 0.227512
0.339147 0.779263 0.214282
0.360983 0.783688 0.197406
0.391073 0.785946 0.177035
0.431464 0.785275 0.154818
0.480339 0.781994 0.134783
0.531624 0.777386 0.119936
0.586023 0.771832 0.105837
0.64622 0.764416 0.093019
0.708186 0.755856 0.0859693
0.767971 0.747539 0.0836194
0.82324 0.740291 0.0833906
0.871977 0.735134 0.0819409
0 0.715099 0.36875
0 0.717327 0.36878
0.012726 0.719829 0.370153
0.0288853 0.722545 0.371008
0.0464027 0.725582 0.370993
0.0664988 0.728893 0.369802
0.086183 0.732464 0.367575
0.105486 0.736202 0.364324
0.124285 0.740276 0.35993
0.142687 0.744564 0.354467
0.160708 0.749004 0.34789
0.178363 0.753674 0.34023
0.195575 0.758618 0.332235
0.212345 0.763653 0.323934
0.228641 0.768841 0.315312
0.244663 0.774243 0.306233
0.260578 0.779614 0.296498
0.276295 0.785214 0.285542
0.291997 0.790936 0.273899
0.307683 0.796658 0.261784
0.323339 0.802487 0.249226
0.338964 0.808255 0.23653
0.35552 0.813886 0.223178
0.377493 0.818265 0.206287
0.407324 0.820569 0.186007
0.447089 0.820142 0.163836
0.495262 0.817044 0.143404
0.546578 0.812558 0.127764
0.599817 0.807263 0.113985
0.659068 0.800244 0.100221
0.721141 0.791852 0.0913863
0.78201 0.783276 0.088014
0.839597 0.775311 0.0877546
0 0.745083 0.384451
0 0.747326 0.384497
0.0119936 0.749828 0.385824
0.0279545 0.752514 0.38677
0.0454108 0.75552 0.386892
0.0654765 0.758755 0.385962
0.0852827 0.762249 0.38407
0.104631 0.765972 0.381048
0.123491 0.769924 0.376883
0.142 0.774182 0.371817
0.160189 0.778607 0.365835
0.177966 0.783154 0.358495
0.195346 0.787991 0.350622
0.212345 0.79292 0.342443
0.22887 0.798077 0.334066
0.245029 0.803326 0.325277
0.26099 0.808743 0.31606
0.276768 0.814206 0.305837
0.2925 0.819852 0.29482
0.308202 0.825544 0.283101
0.323842 0.831296 0.270741
0.339529 0.837095 0.258198
0.355154 0.842924 0.245609
0.371832 0.848493 0.232105
0.393942 0.852781 0.215137
0.423606 0.855192 0.194949
0.462669 0.854948 0.172854
0.510201 0.852094 0.152148
0.561395 0.847684 0.135729
0.613306 0.842771 0.122271
0.672175 0.835889 0.107912
0.734401 0.827619 0.0974899
0.795483 0.819211 0.0924086
0 0.775051 0.400229
0 0.777249 0.400259
0.0112306 0.779751 0.401526
0.0270237 0.782437 0.402564
0.0444648 0.785397 0.402777
0.064332 0.788678 0.402045
0.0842451 0.792035 0.400259
0.1037 0.795727 0.397635
0.122683 0.79971 0.393957
0.141299 0.8038 0.38912
0.159518 0.808179 0.383398
0.177432 0.812726 0.376593
0.195102 0.817395 0.369039
0.212238 0.822263 0.360952
0.228946 0.827298 0.352621
0.245304 0.832532 0.344152
0.261387 0.837842 0.335332
0.277226 0.843229 0.325658
0.292988 0.848798 0.315251
0.308705 0.854444 0.304143
0.324361 0.860182 0.292103
0.340002 0.86595 0.279774
0.355642 0.871733 0.267231
0.371252 0.877607 0.254658
0.388128 0.883116 0.241047
0.410361 0.887343 0.224018
0.439887 0.88986 0.203937
