lut/1684aa7c-2596-4343-b481-d24a089d40da.cube
TITLE "Moody Cinematic"
LUT_3D_SIZE 33
0 0 0
0 0 0
0 0 0
0 0 0
0 0 0
0 0 0
0 0 0
0 0 0
0 0 0
0 0 0
0 0 0
0 0 0
0 0 0
0 0 0
0 0 0
0 0 0
0 0 0
0 0 0
0 0 0
0 0 0
0 0 0
0 0 0
0 0 0
0 0 0
0 0 0
0 0 0
0 0 0
0 0 0
0 0 0
0 0 0
0 0 0
0 0 0
0 0 0
0 0 0
0 0 0
0 0 0
0 0 0
0 0 0
0 0 0
0 0 0
0 0 0
0 0 0
0 0 0
0 0 0
0 0 0
0 0 0
0 0 0
0 0 0
0 0 0
0 0 0
0 0 0
0 0 0
0 0 0
0 0 0
0 0 0
0 0 0
0 0 0
0 0 0
0 0 0
0 0 0
0 0 0
0 0 0
0 0 0
0 0 0
0 0 0
0 0 0
0 0 0
0 0 0
0 0 0
0 0 0
0 0 0
0 0 0
0 0 0
0 0 0
0 0 0
0 0 0
0 0 0
0 0 0
0 0 0
0 0 0
0 0 0
0 0 0
0 0 0
0 0 0
0 0 0
0 0 0
0 0 0
0 0 0
0 0 0
0 0 0
0 0 0
0 0 0
0 0 0
0 0 0
0 0 0
0 0 0
0 0 0
0.00166323 0 0
0.00674449 0 0
0 0 0
0 0 0
0 0 0
0 0 0
0 0 0
0 0 0
0 0 0
0 0 0
0 0 0
0 0 0
0 0 0
0 0 0
0 0 0
0 0 0
0 0 0
0 0 0
0 0 0
0 0 0
0 0 0
0 0 0
0 0 0
0 0 0
0 0 0
0 0 0
0 0 0
0 0 0
0 0 0
0 0 0
0.00135805 0 0
0.00627146 0 0
0.0104677 0 0
0.0162356 0 0
0.0288548 7.62951e-05 0
0 0 0
0 0 0
0 0 0
0 0 0
0 0 0
0 0 0
0 0 0
0 0 0
0 0 0
0 0 0
0 0 0
0 0 0
0 0 0
0 0 0
0 0 0
0 0 0
0 0 0
0 0 0
0 0 0
0 0 0
0 0 0
0 0 0
0 0 0
0 0 0
0 0 0
0.00102235 0 0
0.00575265 0 0
0.00947585 0 0
0.0175326 0 0
0.0296483 0.00204471 0
0.0435645 0.00459297 0
0.0591592 0.00701915 0
0.0761273 0.00932326 0
0 0 0
0 0 0
0 0 0
0 0 0
0 0 0
0 0 0
0 0 0
0 0 0
0 0 0
0 0 0
0 0 0
0 0 0
0 0 0
0 0 0
0 0 0
0 0 0
0 0 0
0 0 0
0 0 0
0 0 0
0 0 0
0 0 0
0.000686656 0 0
0.00514229 0 0
0.00881971 0 0
0.0183413 0.00131228 0
0.0297856 0.00428778 0
0.0428168 0.00724804 0
0.0573739 0.0100862 0
0.0731823 0.0128328 0
0.0905623 0.0153811 0
0.109316 0.0177157 0
0.129442 0.019852 0
0 0 0
0 0 0
0 0 0
0 0 0
0 0 0
0 0 0
0 0 0
0 0 0
0 0 0
0 0 0
0 0 0
0 0 0
0 0 0
0 0 0
0 0 0
0 0 0
0 0 0
0 0 0
0 0 0
0.00030518 0 0
0.0043183 0 0
0.00947585 0.000106813 0
0.0185702 0.00340276 0
0.0292363 0.00680552 0
0.0413062 0.0101625 0
0.0547341 0.0134585 0
0.0693828 0.0166323 0
0.0854505 0.0196384 0
0.102831 0.0224613 0
0.121523 0.0250858 0
0.141497 0.0274968 0
0.162737 0.0297093 0
0.18526 0.031693 0
0 0 0
0 0 0
0 0 0
0 0 0
0 0 0
0 0 0
0 0 0
0 0 0
0 0 0
0 0 0
0 0 0
0 0 0
0 0 0
0 0 0
0 0 0
0 0 0
0 0 0
0.00357061 0 0
0.00978103 0.00204471 0
0.018204 0.00576791 0
0.027985 0.00956741 0
0.0390326 0.0133669 0
0.0512245 0.0171054 0
0.064744 0.0207065 1.5259e-05
0.0794842 0.0241703 0
0.0954757 0.0274815 0
0.112703 0.0305943 0
0.131151 0.0335241 0
0.150835 0.0362402 0
0.17174 0.0387427 0
0.19382 0.0410315 0
0.217105 0.0430915 0
0.24155 0.0449378 0
0 0 0
0 0 0
0 0 0
0 0 0
0 0 0
0 0 0
0 0 0
0 0 0
0 0 0
0 0 0
0 0 0
0 0 0
0 0 0
0 0 0
0.00318914 0.000350958 0
0.00959792 0.00424201 0
0.017258 0.0083772 0
0.0260929 0.0125887 0
0.0360723 0.0168154 0
0.0471046 0.0209812 0.000427253
0.0593576 0.0250401 0.00062562
0.0727855 0.0289616 0.000534066
0.0873732 0.0327306 0.00015259
0.103136 0.0363317 0
0.120089 0.0397498 0
0.138231 0.0429694 0
0.157534 0.0459907 0
0.177996 0.0487984 0
0.199619 0.0513771 0
0.22237 0.0537575 0
0.24625 0.0559091 0
0.271214 0.057847 0
0.29723 0.0595712 0
0 0 0
0 0 0
0 0 0
0 0 0
0 0 0
0 0 0
0 0 0
0 0 0
0 0 0
0 0 0
0 0 0
0.00320439 0.00231937 0
0.00898756 0.00665293 0
0.0158236 0.0112001 0
0.0236973 0.0158236 3.0518e-05
0.032578 0.0204471 0.000839246
0.0425116 0.0250401 0.00140383
0.0535286 0.0295262 0.00166323
0.0656443 0.0338903 0.00163272
0.0788739 0.038117 0.00134279
0.0932326 0.0421759 0.00077821
0.108736 0.046067 0
0.125368 0.0497597 0
0.14313 0.0532692 0
0.162051 0.0565652 0
0.182071 0.0596475 0
0.203235 0.0625162 0
0.225467 0.0651713 0
0.248798 0.0676127 0
0.273167 0.0698405 0
0.298573 0.07187 0
0.324956 0.0736858 0
0.3523 0.0753033 0
0 0 0
0 0 0
0 0 0
0 0 0
0 0 0
0 0 0
0 0 0
0 0.00030518 0
0.00271611 0.00453193 0
0.00775158 0.00929274 0
0.0135653 0.0142824 0
0.020325 0.0193637 0.000640879
0.0280156 0.0244297 0.00148013
0.0366979 0.0294652 0.00202945
0.0463722 0.0344244 0.00228885
0.057084 0.0392615 0.00230411
0.0688487 0.0439765 0.00202945
0.0816968 0.0485389 0.00149538
0.0956436 0.0529335 0.000686656
0.110689 0.057145 0
0.126833 0.0611582 0
0.144091 0.0649729 0
0.162463 0.0685893 0
0.181918 0.0719768 0
0.202472 0.0751659 0
0.224079 0.0781415 0
0.246738 0.0809033 0
0.270405 0.0834669 0
0.295079 0.0858015 0
0.320699 0.087953 0
0.34725 0.0899062 0
0.37467 0.0916762 0
0.402914 0.0932631 0
0 0 0
0 0 0
0 0 0
0 0 0
0 0.00222782 0
0.00138857 0.00704967 0
0.00560006 0.0122377 0
0.0105898 0.0176242 3.0518e-05
0.0163424 0.0231022 0.000976577
0.0228428 0.0286107 0.00178531
0.029984 0.0341802 0.00234989
0.0381933 0.0396429 0.00260929
0.0473793 0.0449989 0.00260929
0.0576028 0.0502327 0.00233463
0.068864 0.055314 0.00178531
0.081178 0.0602426 0.000991836
0.0945602 0.0649882 0
0.109026 0.0695354 0
0.124575 0.0738994 0
0.141222 0.0780499 0
0.158938 0.082002 0
0.177737 0.0857404 0
0.197589 0.08925 0
0.218479 0.0925612 0
0.240406 0.0956588 0
0.26331 0.098558 0
0.28719 0.101244 0
0.312001 0.103731 0
0.337697 0.10602 0
0.364248 0.108141 0
0.391699 0.110048 0
0.419776 0.111833 0
0.448554 0.113466 0
0 0.000442512 0
0 0.00456245 0
0 0.0099031 0
0.00239567 0.0155489 0
0.00628672 0.0213779 0.000457771
0.010956 0.0272679 0.00137331
0.0163729 0.0332036 0.00199893
0.0225681 0.0391394 0.00238041
0.0295567 0.0450294 0.002533
0.0372473 0.0509041 0.00247196
0.0455634 0.0567483 0.00225834
0.0550698 0.0624094 0.00172427
0.0656596 0.0678874 0.000915541
0.0773022 0.0731975 0
0.090013 0.0783093 0
0.103807 0.0832227 0
0.118669 0.087953 0
0.1346 0.0924544 0
0.151598 0.0967575 0
0.169665 0.100832 0
0.188769 0.104707 0
0.208911 0.108354 0
0.230045 0.111788 0
0.252155 0.115023 0
0.275212 0.118044 0
0.299168 0.120882 0
0.324102 0.123507 0
0.349737 0.125963 0
0.376165 0.128252 0
0.403311 0.130373 0
0.431128 0.132357 0
0.459541 0.134203 0
0.488487 0.135927 0
0 0.0192264 0
0.000823987 0.0255131 0.000839246
0.00427253 0.0318761 0.00167849
0.00839246 0.0382849 0.00221256
0.0132906 0.0446632 0.00248722
0.0189975 0.0510109 0.00250248
0.0255436 0.0572976 0.00227359
0.0329137 0.0634928 0.00180056
0.0411078 0.0695964 0.00112917
0.0499733 0.075639 0.000289921
0.0594034 0.0816358 0
0.070161 0.0873732 0
0.082063 0.0928817 0
0.0950637 0.0981918 0
0.109148 0.103288 0
0.124315 0.108156 0
0.140551 0.11281 0
0.157824 0.11725 0
0.17615 0.121462 0
0.195483 0.12546 0
0.215808 0.129244 0
0.23711 0.132815 0
0.259327 0.136172 0
0.282506 0.13933 0
0.306462 0.142306 0
0.331243 0.145098 0
0.356771 0.147723 0
0.383001 0.150179 0
0.409873 0.152499 0
0.437324 0.154681 0
0.465278 0.156756 0
0.493675 0.158724 0
0.522408 0.160616 0
0 0.0437934 0.00236515
0.00250248 0.0506752 0.002533
0.00677501 0.0575113 0.00242618
0.011902 0.064271 0.00207523
0.0178836 0.0709392 0.00148013
0.0247349 0.0775006 0.000640879
0.0324712 0.0839399 0
0.041062 0.0902419 0
0.0504768 0.096437 0
0.0605173 0.102541 0
0.0710307 0.108614 0
0.0830396 0.114351 0
0.0962081 0.119844 0
0.110521 0.125109 0
0.125902 0.130129 0
0.142367 0.13492 0
0.159854 0.139483 0
0.178378 0.143832 0
0.197879 0.147951 0
0.218357 0.151858 0
0.23978 0.15555 0
0.262058 0.159045 0
0.285176 0.162341 0
0.309087 0.165454 0
0.333745 0.168399 0
0.359091 0.171176 0
0.385061 0.1738 0
0.411597 0.176303 0
0.438605 0.178698 0
0.466026 0.180987 0
0.493751 0.1832 0
0.521569 0.185367 0
0.549401 0.187533 0
0 0.0717632 0.00183108
0.00106813 0.0789502 0.00111391
0.00640879 0.0860151 0.000137331
0.0126802 0.0929274 0
0.019852 0.0997177 0
0.0279545 0.10634 0
0.0369421 0.112825 0
0.0467994 0.119142 0
0.0574502 0.125338 0
0.0686961 0.131441 0
0.080293 0.137514 0
0.0935073 0.143206 0
0.107927 0.148623 0
0.123491 0.15378 0
0.140124 0.158709 0
0.157794 0.163394 0
0.176471 0.167865 0
0.196124 0.172091 0
0.216693 0.176104 0
0.238148 0.179904 0
0.260456 0.183505 0
0.283543 0.186923 0
0.307378 0.190173 0
0.331884 0.19324 0
0.357 0.19617 0
0.382666 0.198962 0
0.408804 0.201633 0
0.435279 0.204211 0
0.461906 0.206744 0
0.488609 0.209216 0
0.513466 0.211994 0
0.537453 0.214939 0
0.561364 0.217914 0
0 0.102495 0
0 0.109789 0
0.00321965 0.11693 0
0.0107576 0.123873 0
0.0192416 0.130663 0
0.0286564 0.137255 0
0.0389715 0.143694 0
0.0501411 0.14995 0
0.0620584 0.156069 0
0.0744945 0.162097 0
0.0871901 0.168124 0
0.10161 0.173724 0
0.117266 0.179019 0
0.13402 0.18407 0
0.151843 0.188861 0
0.170657 0.193408 0
0.190417 0.197726 0
0.211078 0.201831 0
0.232593 0.205737 0
0.254902 0.20943 0
0.277958 0.212955 0
0.301686 0.216297 0
0.326024 0.219486 0
0.350896 0.222538 0
0.376135 0.225483 0
0.401617 0.228336 0
0.42707 0.231144 0
0.45095 0.234119 0
0.474678 0.23714 0
0.49836 0.240177 0
0.522026 0.243244 0
0.545647 0.246342 0
0.569268 0.249454 0
0 0.135561 0
0 0.142824 0
0 0.14992 0
0.00634775 0.156802 0
0.0162356 0.163485 0
0.0270542 0.16997 0
0.0387579 0.176287 0
0.0512703 0.182422 0
0.0644999 0.188403 0
0.0781415 0.194324 0
0.0919203 0.200244 0
0.107546 0.205692 0
0.124407 0.210834 0
0.142336 0.215702 0
0.161288 0.220325 0
0.18117 0.22472 0
0.201938 0.228885 0
0.223514 0.232853 0
0.245838 0.236622 0
0.268864 0.240208 0
0.292485 0.243626 0
0.316503 0.246921 0
0.340871 0.250095 0
0.364981 0.253178 0
0.388495 0.25626 0
0.411963 0.259358 0
0.435416 0.26247 0
0.458854 0.265599 0
0.482292 0.268757 0
0.505714 0.271931 0
0.529152 0.275135 0
0.55259 0.27834 0
0.576043 0.281575 0
0 0.170565 0
0 0.177722 0
0 0.184665 0
0 0.191379 0
0.0112306 0.197894 0
0.0235142 0.204211 0
0.0366064 0.210346 0
0.0505379 0.216281 0
0.0651102 0.22208 0
0.0800183 0.227802 0
0.0949569 0.233555 0
0.111757 0.238819 0
0.129793 0.243763 0
0.148867 0.248432 0
0.168887 0.252857 0
0.189776 0.257053 0
0.211444 0.261051 0
0.233768 0.264851 0
0.256596 0.268482 0
0.279835 0.271977 0
0.303075 0.275196 0
0.326253 0.27837 0
0.349432 0.281559 0
0.372625 0.284749 0
0.395834 0.287953 0
0.419043 0.291173 0
0.442267 0.294423 0
0.465507 0.297673 0
0.488762 0.300938 0
0.512047 0.304234 0
0.535363 0.30753 0
0.558709 0.310842 0
0.582086 0.314183 0
0 0.207156 0
0 0.214099 0
0 0.220813 0
0 0.227329 0
0.00471504 0.233585 0
0.0185702 0.239643 0
0.0332189 0.245502 0
0.0485847 0.251179 0
0.0645304 0.256718 0
0.0807202 0.262211 0
0.0968032 0.26775 0
0.114809 0.27277 0
0.134005 0.27747 0
0.154177 0.281895 0
0.175113 0.286091 0
0.196689 0.290089 0
0.21886 0.293843 0
0.241581 0.297139 0
0.264393 0.30042 0
0.287251 0.3037 0
0.31014 0.306981 0
0.333074 0.310262 0
0.356039 0.313573 0
0.379019 0.316869 0
0.402045 0.320195 0
0.425101 0.323537 0
0.448203 0.326879 0
0.471336 0.330236 0
0.494514 0.333608 0
0.517739 0.336996 0
0.541024 0.340383 0
0.56437 0.343786 0.00418097
0.587793 0.347204 0.00943008
0 0.244999 0
0 0.251637 0
0 0.25803 0
0 0.264195 0
0 0.27013 0
0.0130159 0.275853 0
0.0292363 0.281392 0
0.0461128 0.286748 0
0.0634775 0.291981 0
0.0809796 0.297169 0
0.0982376 0.302419 0
0.117311 0.307149 0
0.137377 0.311574 0
0.158694 0.31545 0
0.18085 0.318898 0
0.203174 0.322316 0
0.22562 0.325719 0
0.248142 0.329107 0
0.270741 0.332494 0
0.2934 0.335882 0
0.316106 0.339269 0
0.338872 0.342672 0
0.3617 0.346075 0
0.384573 0.349493 0
0.407507 0.352926 0
0.430503 0.356344 0
0.453559 0.359792 0
0.476677 0.363241 0
0.499886 0.36669 0.00512703
0.523156 0.370153 0.0104219
0.546517 0.373632 0.0157168
0.56997 0.377096 0.0209964
0.593515 0.380591 0.0262455
0 0.283574 0
0 0.289815 0
0 0.295811 0
0 0.301579 0
0 0.307103 0
0.00776684 0.312428 0
0.0256199 0.317556 0
0.0439918 0.32253 0
0.0626535 0.327382 0
0.0812085 0.332235 0
0.100572 0.336522 0
0.121614 0.340276 0
0.14313 0.343923 0
0.164935 0.347494 0
0.186938 0.351034 0
0.209079 0.354559 0
0.231342 0.358053 0
0.253712 0.361563 0
0.276158 0.365057 0
0.298695 0.368551 0
0.321309 0.372045 0
0.344015 0.37554 0
0.366781 0.379034 0
0.389639 0.382544 0
0.412573 0.386053 0.000396735
0.435599 0.389578 0.00573739
0.458701 0.393088 0.0110781
0.481926 0.396612 0.0164034
0.505241 0.400137 0.0217288
0.528664 0.403662 0.0269932
0.552209 0.407187 0.0322271
0.57583 0.410727 0.0374304
0.599588 0.414267 0.0425574
0 0.322423 0
0 0.328191 0
0 0.3337 0
0 0.338979 0
0 0.344015 0
0.00358587 0.348852 0
0.0232547 0.353338 0
0.0448615 0.356954 0
0.0661631 0.360647 0
0.0867781 0.364538 0
0.106386 0.368719 0
0.127275 0.37258 0
0.148638 0.376318 0
0.170291 0.379995 0
0.192142 0.383642 0
0.21416 0.387259 0
0.236316 0.390875 0
0.258595 0.394461 0
0.28098 0.398062 0
0.303487 0.401648 0
0.326085 0.405219 0
0.348806 0.408804 0.000579843
0.371618 0.41239 0.00598154
0.394537 0.415976 0.0113832
0.417578 0.419547 0.0167697
0.440742 0.423133 0.0221103
0.464012 0.426719 0.0274205
0.487419 0.430289 0.0326696
0.510918 0.433875 0.0378882
0.534569 0.437461 0.0430304
0.558373 0.441032 0.0480507
0.582345 0.444602 0.0529488
0.606485 0.448173 0.0576944
0 0.361074 0
0 0.366262 0
0 0.371191 0
0 0.375235 0
0 0.378653 0
0.00679026 0.382116 0
0.0286564 0.385672 0
0.050248 0.389319 0
0.0714427 0.393088 0
0.0919051 0.397086 0
0.11136 0.401373 0
0.132128 0.405325 0
0.153384 0.409171 0
0.174929 0.41294 0
0.196719 0.416678 0
0.218692 0.420401 0
0.240818 0.424094 0
0.263111 0.427771 0
0.285527 0.431449 0.000396735
0.308095 0.435111 0.00587472
0.330785 0.438773 0.0113375
0.353613 0.44242 0.0167697
0.376562 0.446067 0.0221561
0.399664 0.449699 0.0274968
0.422919 0.453346 0.0327764
0.446281 0.456977 0.0380102
0.469795 0.460609 0.0431525
0.493477 0.46424 0.048188
0.517342 0.467857 0.0530709
0.541375 0.471473 0.0578164
0.565606 0.475074 0.0623789
0.590051 0.47866 0.0667582
0.614694 0.482246 0.0709392
0 0.397665 0
0 0.400992 0
0 0.404334 0
0 0.407721 0
0 0.411154 0
0.0116884 0.41471 0
0.0334325 0.418357 0
0.054902 0.422095 0
0.0759747 0.425971 0
0.0963302 0.430076 0
0.115724 0.434455 0
0.136416 0.438499 0
0.157641 0.44242 0
0.179187 0.446296 0
0.200992 0.450111 0
0.223011 0.45391 0
0.245212 0.457679 0.00534066
0.267597 0.461433 0.0108797
0.29015 0.465171 0.0163882
0.312856 0.468894 0.0218357
0.335744 0.472602 0.0272221
0.358785 0.47631 0.0325322
0.381979 0.480003 0.0377813
0.405341 0.483696 0.0429541
0.42887 0.487373 0.0479896
0.452598 0.491051 0.0528725
0.476524 0.494713 0.0576028
0.500664 0.49836 0.06215
0.525002 0.502007 0.0665141
0.549569 0.505623 0.0706493
0.574365 0.509239 0.0745708
0.599405 0.51284 0.078233
0.624704 0.516426 0.0816358
0 0.43032 0
0 0.433677 0
0 0.437079 0
0 0.440528 0
0 0.444053 0
0.0158999 0.447715 0
0.0375677 0.451469 0
0.0589761 0.455299 0
0.0800031 0.459266 0
0.100343 0.463447 0
0.119738 0.467918 0
0.140459 0.472038 0
0.161746 0.476051 0
0.183368 0.479988 0.00428778
0.205295 0.483879 0.00996414
0.227451 0.487739 0.0155642
0.249821 0.491569 0.0211032
0.272419 0.495369 0.0265507
0.295201 0.499168 0.0319066
0.318181 0.502937 0.0371862
0.341329 0.506691 0.0423743
0.364675 0.510445 0.047425
0.388235 0.514168 0.0523232
0.412024 0.517891 0.0570535
0.436011 0.521584 0.0615854
0.460243 0.525277 0.065919
0.484718 0.528954 0.0700389
0.509422 0.532601 0.0739147
0.534386 0.536248 0.0775311
0.559609 0.539864 0.0808881
0.585061 0.543481 0.0840162
0.610742 0.547066 0.0869001
0.636652 0.550652 0.0895705
0 0.46331 0
0 0.466728 0
0 0.470207 0
0 0.473732 0
0 0.477378 0
0.0196841 0.481132 0
0.0413367 0.484962 0
0.0627604 0.488884 0
0.0838331 0.492927 0
0.10425 0.497169 0
0.123735 0.501717 0.00244144
0.144594 0.505898 0.00839246
0.166033 0.509972 0.0141909
0.187854 0.51397 0.0198672
0.209979 0.517906 0.0254215
0.232395 0.521828 0.0308537
0.255055 0.525689 0.0361791
0.277928 0.529549 0.041413
0.30103 0.533379 0.0464942
0.324376 0.537179 0.0514076
0.347967 0.540963 0.0561379
0.371786 0.544732 0.0606851
0.39588 0.54847 0.0650034
0.420203 0.552209 0.0690929
0.4448 0.555901 0.0729229
0.469673 0.559594 0.0765087
0.494789 0.563256 0.0798352
0.520165 0.566918 0.0829175
0.545754 0.57055 0.085771
0.571572 0.574166 0.0884108
0.597589 0.577783 0.0908675
0.623804 0.581384 0.0931563
0.650187 0.584985 0.0952773
0 0.496651 0
0 0.50016 0
0 0.5037 0
0 0.507301 0
0.00141909 0.511055 0
0.023331 0.514885 0
0.0450752 0.518791 0
0.0666056 0.522774 0
0.0878157 0.526879 0.00556954
