lut/1684aa7c-2596-4343-b481-d24a089d40da.cube
TITLE "Moody Cinematic"
LUT_3D_SIZE 9
0 0 0
0 0 0
0 0 0
0 0 0
0 0 0
0 0 0
0 0 0
0 0 0
0 0 0
0 0 0
0 0 0
0 0 0
0 0 0
0 0 0
0 0 0
0 0 0
0.0175326 0 0
0.0761273 0.00932326 0
0 0 0
0 0 0
0 0 0
0 0 0
0.017258 0.0083772 0
0.0593576 0.0250401 0.00062562
0.120089 0.0397498 0
0.199619 0.0513771 0
0.29723 0.0595712 0
0 0.000442512 0
0.00628672 0.0213779 0.000457771
0.0295567 0.0450294 0.002533
0.0656596 0.0678874 0.000915541
0.118669 0.087953 0
0.188769 0.104707 0
0.275212 0.118044 0
0.376165 0.128252 0
0.488487 0.135927 0
0 0.102495 0
0.0192416 0.130663 0
0.0620584 0.156069 0
0.117266 0.179019 0
0.190417 0.197726 0
0.277958 0.212955 0
0.376135 0.225483 0
0.474678 0.23714 0
0.569268 0.249454 0
0 0.244999 0
0 0.27013 0
0.0634775 0.291981 0
0.137377 0.311574 0
0.22562 0.325719 0
0.316106 0.339269 0
0.407507 0.352926 0
0.499886 0.36669 0.00512703
0.593515 0.380591 0.0262455
0 0.397665 0
0 0.411154 0
0.0759747 0.425971 0
0.157641 0.44242 0
0.245212 0.457679 0.00534066
0.335744 0.472602 0.0272221
0.42887 0.487373 0.0479896
0.525002 0.502007 0.0665141
0.624704 0.516426 0.0816358
0 0.530343 0
0.00511177 0.545052 0
0.0923018 0.561105 0.0205844
0.176638 0.578515 0.043183
0.268879 0.594461 0.0619974
0.366369 0.609796 0.0766918
0.468162 0.62472 0.087602
0.573144 0.639414 0.0959029
0.679866 0.653788 0.106477
0 0.667567 0.033341
0.0283207 0.683055 0.0498512
0.123247 0.699367 0.0642557
0.216464 0.716884 0.0767529
0.317769 0.732708 0.0863966
0.424445 0.746914 0.100145
0.532998 0.760098 0.121935
0.639399 0.773053 0.155352
0.7393 0.786664 0.203815
0 0 0
0 0 0
0 0 0
0 0 0
0 0 0
0 0 0
0 0 0
0 0 0
0 0 0
0 0 0
0 0 0
0 0 0
0 0 0
0 0 0
0 0 0
0.00277714 0 0
0.0346685 0.00354009 0.002533
0.0997787 0.0126955 0.0103304
0 0 0
0 0 0
0 0 0
0.000656138 0 0
0.0281987 0.0149233 0.0065156
0.0740673 0.0311894 0.0142977
0.138293 0.0450141 0.0185092
0.22092 0.0556039 0.0189822
0.32108 0.0627756 0.0160067
0 0.00747692 0.000671397
0.00987259 0.030457 0.010956
0.0352178 0.0539406 0.0188144
0.073579 0.0761273 0.0238956
0.129137 0.0952316 0.02533
0.201678 0.110964 0.0235752
0.29012 0.123339 0.0193027
0.392386 0.132738 0.0134737
0.505028 0.139925 0.00755322
0 0.113878 0.0235447
0.0191196 0.141024 0.0233463
0.0645304 0.165316 0.0209354
0.121965 0.187213 0.0176699
0.197238 0.204868 0.0128634
0.286305 0.219226 0.00828565
0.384878 0.231235 0.00634775
0.480323 0.243275 0.0192264
0.574517 0.255787 0.0365911
0 0.255818 0.00939956
0 0.279545 0.00350958
0.0652171 0.300114 0
0.142168 0.31812 0.00462348
0.230915 0.331991 0.0214084
0.321111 0.345708 0.0405585
0.412284 0.359518 0.0612955
0.50454 0.373434 0.0827955
0.598291 0.387442 0.104128
0 0.403967 0.000915541
0 0.417517 0.0154116
0.0808881 0.432502 0.0363165
0.162371 0.449104 0.0600748
0.249897 0.464485 0.0829786
0.340627 0.479515 0.104982
0.434333 0.494331 0.125231
0.531365 0.508965 0.142748
0.632197 0.523369 0.156527
0 0.537041 0.0562753
0.00996414 0.551904 0.0754253
0.0974289 0.568032 0.0980392
0.182345 0.585504 0.120119
0.275593 0.60145 0.137789
0.374197 0.616754 0.151156
0.47686 0.631678 0.161059
0.582452 0.646357 0.169329
0.689143 0.660716 0.181277
0 0.674525 0.109529
0.0354162 0.690028 0.125154
0.131395 0.706325 0.138308
0.225406 0.723857 0.14995
0.328038 0.739361 0.160327
0.435737 0.753231 0.17557
0.544488 0.766278 0.199115
0.650126 0.77937 0.234363
0.748241 0.793408 0.28452
0 0 0
0 0 0
0 0 0
0 0 0
0 0 0
0 0 0
0 0 0
0 0 0
0 0 0
0 0 0
0 0 0
0 0 0
0 0 0
0 0 0
0 0 0
0.0084535 0 0
0.0533455 0.00749218 0.0122377
0.124025 0.0157778 0.0251774
0 0 0
0 0 0
0 0 0
0.00732433 0.004654 0.00352483
0.0394293 0.0214694 0.0183261
0.0888533 0.037171 0.0315557
0.15639 0.0500954 0.0417639
0.241947 0.0596933 0.0485542
0.344442 0.0659495 0.0520333
0 0.0160067 0.00950637
0.0131228 0.0395972 0.024979
0.0406653 0.0626993 0.0386206
0.0813306 0.0841993 0.0499733
0.139437 0.102388 0.0578622
0.214343 0.117159 0.0625925
0.304753 0.128649 0.0646372
0.408087 0.137423 0.0649577
0.520836 0.144274 0.0646982
0 0.125063 0.0517433
0.0190127 0.151202 0.0580148
0.0670634 0.174441 0.0621195
0.126787 0.195331 0.0652781
0.204135 0.212055 0.0664683
0.294621 0.225696 0.0674144
0.39173 0.237598 0.0730449
0.485786 0.249943 0.0887922
0.579599 0.262654 0.107179
0 0.266468 0.0588235
0 0.288853 0.0588235
0.0676738 0.308248 0.0606851
0.147662 0.324773 0.0732433
0.236042 0.338781 0.091371
0.325994 0.352682 0.111421
0.417075 0.366629 0.132708
0.509483 0.380667 0.154391
0.603601 0.394751 0.175509
0 0.410758 0.0702831
0 0.424414 0.0857252
0.0856031 0.439551 0.107408
0.167102 0.456275 0.131594
0.254871 0.471763 0.154543
0.346075 0.486854 0.176196
0.440513 0.501717 0.195712
0.538537 0.51635 0.21207
0.640467 0.530739 0.224521
0 0.544244 0.127382
0.0150149 0.559228 0.146899
0.103044 0.575418 0.169039
0.1888 0.592905 0.190249
0.283146 0.608835 0.206622
0.382788 0.624125 0.218753
0.486213 0.639078 0.227817
0.592355 0.653666 0.236606
0.698802 0.668116 0.24979
0 0.681926 0.179004
0.0433509 0.697414 0.193515
0.140276 0.71371 0.205585
0.23508 0.731212 0.216617
0.339269 0.746273 0.228061
0.447852 0.759869 0.244694
0.556619 0.772854 0.269825
0.661311 0.78613 0.306783
0.757443 0.800687 0.358389
0 0 0
0 0 0
0 0 0
0 0 0
0 0 0
0 0 0
0 0 0
0 0 0
0 0 0
0 0 0
0 0 0
0 0 0
0 0 0
0 0 0
0 0 0
0.0196078 0.00128176 0.00595102
0.0727245 0.0113527 0.0240635
0.148577 0.0187076 0.0413214
0 0 0
0 0 0
0 0 0
0.0152132 0.0109712 0.0127871
0.0508583 0.0279393 0.0319829
0.103655 0.0430762 0.0497139
0.174395 0.0551919 0.064622
0.262776 0.0639658 0.0762188
0.367468 0.0694896 0.0845045
0 0.0249027 0.0207065
0.0162051 0.0487221 0.0406043
0.0460822 0.0714427 0.0588998
0.0891127 0.0923018 0.0751354
0.149783 0.109682 0.087892
0.227054 0.123659 0.0973983
0.31928 0.134478 0.104097
0.423651 0.142779 0.108782
0.536278 0.149538 0.112581
0 0.136248 0.0784924
0.0193332 0.161471 0.089601
0.0700847 0.18378 0.0984817
0.132174 0.203815 0.106325
0.211597 0.219776 0.111818
0.303365 0.232883 0.116777
0.398428 0.244999 0.128252
0.491981 0.257572 0.145251
0.585489 0.270466 0.164492
0 0.277333 0.101137
0 0.298512 0.105364
0.0711986 0.316899 0.111559
0.153903 0.332326 0.128939
0.241947 0.346517 0.14818
0.331701 0.360571 0.168963
0.422797 0.374655 0.190631
0.515435 0.3888 0.212345
0.61001 0.40296 0.233127
0 0.418448 0.126497
0.00538643 0.432258 0.142824
0.0912032 0.447532 0.165118
0.172793 0.464378 0.189578
0.260899 0.479942 0.212421
0.352651 0.495094 0.2336
0.447913 0.509987 0.252232
0.547005 0.524605 0.267308
0.649943 0.538994 0.278553
0 0.552361 0.184848
0.021149 0.567452 0.204654
0.109834 0.583673 0.226184
0.196521 0.601175 0.246357
0.291981 0.61709 0.261387
0.392538 0.632395 0.27245
0.496666 0.647349 0.280888
0.60325 0.66186 0.290547
0.709209 0.676432 0.305013
0 0.690196 0.234546
0.0525063 0.705684 0.247883
0.150286 0.721981 0.258976
0.24625 0.7393 0.269963
0.351888 0.753948 0.28249
0.461173 0.7673 0.300572
0.569757 0.780255 0.32752
0.673289 0.793744 0.366461
0.767285 0.808835 0.419821
0 0 0
0 0 0
0 0 0
0 0 0
0 0 0
0 0 0
0 0 0
0 0 0
0.00416571 0 0
0 0 0
0 0 0
0 0 0
0 0 0
0 0 0
0.00280766 0 0
0.0344854 0.00541695 0.0174563
0.0932937 0.0149081 0.0413367
0.173678 0.0212253 0.0644541
0 0 0
0 0 0
0.00077821 0.00131228 0.0040589
0.0236667 0.0175937 0.0266575
0.0624857 0.034287 0.0516823
0.118456 0.0486458 0.0754101
0.192172 0.0598306 0.096437
0.283101 0.067689 0.114122
0.389685 0.0724193 0.128328
0.000213626 0.0340887 0.0369879
0.0188907 0.0577859 0.0628214
0.0510872 0.0798657 0.0872511
0.096437 0.0999313 0.109728
0.159564 0.116411 0.128573
0.239063 0.129488 0.143923
0.332845 0.139605 0.1561
0.437964 0.147478 0.165728
0.550027 0.154208 0.173922
0 0.14696 0.115099
0.0190738 0.171115 0.132235
0.0725261 0.192386 0.146914
0.136889 0.211505 0.160159
0.21825 0.226688 0.170413
0.310826 0.239322 0.179919
0.40415 0.251759 0.195209
0.497276 0.26453 0.213306
0.590555 0.277592 0.233295
0 0.287251 0.156435
0 0.307179 0.165255
0.0764782 0.323796 0.177264
0.159228 0.339223 0.196338
0.246983 0.353597 0.216541
0.336629 0.367803 0.237949
0.427817 0.381994 0.259892
0.52076 0.396231 0.281498
0.6159 0.410452 0.301793
0 0.425467 0.194278
0.0102541 0.439414 0.211429
0.0960403 0.454826 0.234241
0.177813 0.471778 0.258839
0.266316 0.487419 0.281453
0.35874 0.502617 0.301991
0.454917 0.517525 0.319585
0.555138 0.532128 0.333303
0.658991 0.546517 0.343465
0 0.559777 0.25359
0.0267185 0.574975 0.273518
0.116182 0.591226 0.29427
0.203891 0.608713 0.313252
0.300435 0.624613 0.32697
0.401862 0.639918 0.337057
0.506706 0.654826 0.345327
0.613565 0.669322 0.355673
0.718837 0.684123 0.371008
0 0.697734 0.300969
0.0612802 0.713222 0.313085
0.159838 0.729534 0.323354
0.25742 0.746456 0.334661
0.364401 0.760754 0.347982
0.474266 0.773938 0.367071
0.582528 0.786969 0.395117
0.684749 0.800839 0.434974
0.776806 0.816571 0.488258
0 0 0
0 0 0
0 0 0
0 0 0
0 0 0
0 0 0
0 0 0
0 0 0
0.0110781 0 0.00158694
0 0 0
0 0 0
0 0 0
0 0 0
0 0 0
0.00973526 0 0.00735485
0.0508431 0.00949111 0.0341344
0.114549 0.0181125 0.0648661
0.199023 0.0232853 0.0949569
0 0 0
0 0 0
0.00616464 0.0071107 0.0157778
0.0323033 0.0242618 0.0460212
0.0741131 0.0403754 0.0780652
0.133074 0.0538186 0.108873
0.209567 0.0639963 0.136919
0.302815 0.0708934 0.16144
0.411139 0.0748302 0.182162
0.000457771 0.0433967 0.0592355
0.0211337 0.0666361 0.092134
0.0556802 0.0879225 0.123705
0.103273 0.107088 0.153292
0.16875 0.122591 0.178912
0.250278 0.134768 0.200595
0.34548 0.144198 0.218463
0.451057 0.151705 0.233051
0.561868 0.158587 0.245731
0 0.157153 0.160952
0.0183719 0.180148 0.18471
0.0745251 0.20032 0.205585
0.1411 0.218509 0.224384
0.224277 0.232944 0.239307
0.316472 0.245441 0.253452
0.409155 0.258106 0.270207
0.50193 0.271061 0.289265
0.595071 0.284291 0.30988
0 0.296345 0.222156
0 0.315022 0.235538
0.0815137 0.330098 0.251423
0.163928 0.345708 0.271702
0.251453 0.360235 0.29276
0.341054 0.374578 0.314672
0.432395 0.388891 0.336751
0.52575 0.403189 0.358114
0.62153 0.417456 0.377768
0 0.432044 0.269917
0.0145724 0.446143 0.287861
0.100404 0.461677 0.311055
0.182437 0.478721 0.335653
0.271443 0.494423 0.3579
0.36463 0.509667 0.377661
0.46183 0.524559 0.394034
0.563149 0.539147 0.406439
0.667826 0.553567 0.415625
0 0.566735 0.32987
0.0320439 0.58201 0.349722
0.122362 0.598276 0.369558
0.211185 0.615763 0.387213
0.308751 0.631647 0.399725
0.410925 0.646967 0.408972
0.516564 0.661768 0.417319
0.623514 0.676326 0.42797
0.727871 0.691463 0.443687
0 0.704784 0.374456
0.0698863 0.720256 0.385504
0.169345 0.736507 0.395163
0.268818 0.752972 0.406821
0.37705 0.766979 0.420554
0.487358 0.780087 0.44007
0.595163 0.793301 0.468406
0.695979 0.807675 0.508095
0.786343 0.824201 0.559365
0 0 0
0 0 0
0 0 0
0 0 0
0 0 0
0 0 0
0 0 0
0 0 0
0.0216678 0 0.0117494
0 0 0
0 0 0
0 0 0
0 0 0
0 0 0
0.0205844 0.00323491 0.0209506
0.0679484 0.0133669 0.0565194
0.136187 0.0208896 0.0950484
0.224384 0.0248722 0.132815
0 0 0
0 0 0.00527962
0.0121767 0.0135958 0.0332036
0.04094 0.0307774 0.071519
0.0856031 0.0461433 0.111391
0.147417 0.0585794 0.149889
0.22649 0.0677195 0.185428
0.321843 0.0736706 0.21706
0.431479 0.0769055 0.244373
0.000137331 0.0526284 0.087953
0.0229343 0.0752117 0.128649
0.0598306 0.0955825 0.167926
0.109651 0.113787 0.20499
0.177401 0.128283 0.237583
0.260822 0.13959 0.265583
0.357244 0.148394 0.288945
0.46302 0.155657 0.307973
0.56788 0.164187 0.32398
0 0.166827 0.215045
0.0172885 0.188632 0.245609
0.0762188 0.207691 0.272541
0.144961 0.224979 0.296574
0.229755 0.238758 0.31574
0.321477 0.251362 0.332219
0.413703 0.26424 0.350149
0.506203 0.277363 0.370047
0.599268 0.290745 0.39115
0 0.304723 0.295872
0 0.322042 0.313161
0.0860914 0.336172 0.330632
0.1682 0.351934 0.35198
0.255558 0.366629 0.373754
0.34519 0.381094 0.396033
0.43679 0.395514 0.418112
0.530617 0.409888 0.439094
0.627161 0.424186 0.457954
0 0.438361 0.350332
0.0185702 0.452613 0.369024
0.104524 0.468269 0.392447
0.186908 0.48539 0.416922
0.276509 0.501152 0.438636
0.37055 0.516411 0.45745
0.468879 0.531289 0.472496
0.571191 0.545876 0.483696
0.676616 0.560311 0.492027
0 0.573419 0.41059
0.0373236 0.588754 0.430182
0.128618 0.605035 0.44892
0.218585 0.622492 0.465202
0.317082 0.638392 0.476631
0.42002 0.653696 0.485252
0.526421 0.668406 0.493523
0.633265 0.683116 0.504097
0.736522 0.698711 0.519631
0 0.711528 0.452049
0.0784772 0.727001 0.462119
0.17937 0.743008 0.471458
0.280659 0.75906 0.483101
0.390036 0.772839 0.496788
0.500679 0.785962 0.516106
0.607889 0.799496 0.543893
0.70724 0.814496 0.582208
0.796139 0.831937 0.629755
0 0 0
0 0 0
0 0 0
0 0 0
0 0 0
0 0 0
0 0 0
0.00460822 0 0.00202945
0.0383001 0 0.0272831
0 0 0
0 0 0
0 0 0
0 0 0
0.00329595 0 0.00814832
0.0334936 0.00740063 0.0409247
0.0857252 0.0168612 0.085359
0.157977 0.0232395 0.13228
0.249546 0.0260166 0.178195
0 0 0
0 0.00408942 0.0172274
0.0182803 0.0202487 0.0565805
0.0494698 0.0370642 0.1037
0.096849 0.0515297 0.151949
0.161379 0.0629129 0.198566
0.242878 0.0710002 0.241779
0.340124 0.0760662 0.280537
0.450797 0.0786755 0.314229
0 0.0616617 0.123568
0.0242618 0.0834363 0.17258
0.0635386 0.1028 0.219883
0.115572 0.120012 0.264561
0.185534 0.133501 0.304112
0.270695 0.144015 0.338079
0.368154 0.1523 0.3664
0.473732 0.159472 0.389303
0.572946 0.169787 0.406149
0 0.175967 0.276982
0.0160678 0.196567 0.314168
0.0776837 0.214527 0.346838
0.148592 0.230991 0.375509
0.234653 0.244266 0.398001
0.32604 0.25713 0.414832
0.417884 0.270207 0.433799
0.510185 0.283513 0.454398
0.603265 0.297017 0.475868
0 0.31249 0.37641
0.00347906 0.32784 0.394949
0.0903029 0.342092 0.413642
0.172152 0.358022 0.435904
0.259419 0.372854 0.458274
0.349157 0.387442 0.480781
0.441093 0.401953 0.502724
0.535531 0.416388 0.523156
0.632914 0.430701 0.54107
0 0.444526 0.434302
0.0223392 0.45893 0.453666
0.108507 0.474678 0.477195
0.191333 0.491875 0.501396
0.281636 0.507668 0.522423
0.376638 0.522927 0.540139
0.476097 0.537789 0.553811
0.579339 0.552392 0.563912
0.685328 0.566873 0.571557
0 0.579904 0.494499
0.04271 0.5953 0.513634
0.135073 0.611566 0.531121
0.226139 0.629007 0.54609
0.325475 0.644907 0.556573
0.429328 0.660151 0.56466
0.536355 0.674846 0.572488
0.642908 0.689815 0.582467
0.744823 0.705974 0.597162
0 0.718044 0.532555
0.0870985 0.733532 0.541817
0.190005 0.749111 0.550774
0.29305 0.764828 0.56199
0.403449 0.778454 0.575082
0.514305 0.791699 0.593484
0.620813 0.805661 0.619776
0.718929 0.821408 0.655085
0.806287 0.839918 0.697597
0 0 0
0 0 0
0 0 0
0 0 0
0 0 0
0 0 0
0 0 0
0.0115816 0 0.0113375
0.0589761 0 0.0500649
0 0 0
0 0 0
0 0 0
0 0 0
0.0111696 0.00141909 0.0226749
0.0472725 0.0114748 0.067277
0.103822 0.0199588 0.121141
0.179736 0.0251164 0.176898
0.274372 0.0267185 0.231235
0 0 0.00607309
0.00344854 0.0100099 0.0364233
0.0242466 0.0268254 0.0865949
0.0577554 0.0430304 0.143008
0.107774 0.0565194 0.200031
0.174884 0.066804 0.254932
0.258671 0.0738842 0.305837
0.357687 0.0780652 0.351614
0.469062 0.0801862 0.39118
0 0.0704356 0.166491
0.0251316 0.091249 0.224125
0.0668345 0.109575 0.279576
0.121035 0.125765 0.331777
0.193103 0.138323 0.377935
0.279927 0.148074 0.417426
0.378225 0.155947 0.449973
0.482139 0.163622 0.475273
0.577539 0.175326 0.491493
0 0.184588 0.346517
0.0146792 0.203952 0.38996
0.0790112 0.22089 0.427771
0.152041 0.236591 0.460227
0.239307 0.249744 0.482612
0.330251 0.262821 0.500572
0.421775 0.276081 0.520439
0.513954 0.28954 0.541619
0.607126 0.303166 0.563302
0 0.319661 0.46273
0.00769055 0.333471 0.479942
0.0942092 0.34789 0.499718
0.175845 0.363989 0.522789
0.263096 0.378958 0.545602
0.353033 0.393652 0.568215
0.445411 0.40824 0.589853
0.54052 0.422705 0.609598
0.63888 0.437049 0.626398
0 0.450553 0.521126
0.0259861 0.465095 0.54107
0.112444 0.480934 0.564569
0.195804 0.498192 0.588327
0.2869 0.514031 0.60853
0.382971 0.529274 0.624979
0.483513 0.544121 0.637339
0.587564 0.55874 0.646494
0.693904 0.573327 0.653422
0 0.586236 0.580896
0.0482795 0.601663 0.599344
0.141787 0.617914 0.615473
0.23386 0.63534 0.629252
0.333928 0.65127 0.638895
0.438911 0.666377 0.64625
0.54638 0.681163 0.653178
0.652445 0.696498 0.661982
0.752834 0.713359 0.675074
0 0.724392 0.615381
0.0962081 0.739773 0.623926
0.201328 0.75491 0.632181
0.306035 0.770321 0.642451
0.41738 0.783902 0.654292
0.528313 0.797375 0.670954
0.634012 0.811902 0.694728
0.731167 0.828504 0.725338
0.816876 0.848234 0.761578
