lut/1684aa7c-2596-4343-b481-d24a089d40da.cube
TITLE "Moody Cinematic"
LUT_3D_SIZE 5
0 0 0
0 0 0
0 0 0
0 0 0
0 0 0
0 0 0
0 0 0
0.017258 0.0083772 0
0.120089 0.0397498 0
0.29723 0.0595712 0
0 0.102495 0
0.0620584 0.156069 0
0.190417 0.197726 0
0.376135 0.225483 0
0.569268 0.249454 0
0 0.397665 0
0.0759747 0.425971 0
0.245212 0.457679 0.00534066
0.42887 0.487373 0.0479896
0.624704 0.516426 0.0816358
0 0.667567 0.033341
0.123247 0.699367 0.0642557
0.317769 0.732708 0.0863966
0.532998 0.760098 0.121935
0.7393 0.786664 0.203815
0 0 0
0 0 0
0 0 0
0 0 0
0 0 0
0 0 0
0 0 0
0.0394293 0.0214694 0.0183261
0.15639 0.0500954 0.0417639
0.344442 0.0659495 0.0520333
0 0.125063 0.0517433
0.0670634 0.174441 0.0621195
0.204135 0.212055 0.0664683
0.39173 0.237598 0.0730449
0.579599 0.262654 0.107179
0 0.410758 0.0702831
0.0856031 0.439551 0.107408
0.254871 0.471763 0.154543
0.440513 0.501717 0.195712
0.640467 0.530739 0.224521
0 0.681926 0.179004
0.140276 0.71371 0.205585
0.339269 0.746273 0.228061
0.556619 0.772854 0.269825
0.757443 0.800687 0.358389
0 0 0
0 0 0
0 0 0
0 0 0
0.00416571 0 0
0 0 0
0.00077821 0.00131228 0.0040589
0.0624857 0.034287 0.0516823
0.192172 0.0598306 0.096437
0.389685 0.0724193 0.128328
0 0.14696 0.115099
0.0725261 0.192386 0.146914
0.21825 0.226688 0.170413
0.40415 0.251759 0.195209
0.590555 0.277592 0.233295
0 0.425467 0.194278
0.0960403 0.454826 0.234241
0.266316 0.487419 0.281453
0.454917 0.517525 0.319585
0.658991 0.546517 0.343465
0 0.697734 0.300969
0.159838 0.729534 0.323354
0.364401 0.760754 0.347982
0.582528 0.786969 0.395117
0.776806 0.816571 0.488258
0 0 0
0 0 0
0 0 0
0 0 0
0.0216678 0 0.0117494
0 0 0
0.0121767 0.0135958 0.0332036
0.0856031 0.0461433 0.111391
0.22649 0.0677195 0.185428
0.431479 0.0769055 0.244373
0 0.166827 0.215045
0.0762188 0.207691 0.272541
0.229755 0.238758 0.31574
0.413703 0.26424 0.350149
0.599268 0.290745 0.39115
0 0.438361 0.350332
0.104524 0.468269 0.392447
0.276509 0.501152 0.438636
0.468879 0.531289 0.472496
0.676616 0.560311 0.492027
0 0.711528 0.452049
0.17937 0.743008 0.471458
0.390036 0.772839 0.496788
0.607889 0.799496 0.543893
0.796139 0.831937 0.629755
0 0 0
0 0 0
0 0 0
0 0 0
0.0589761 0 0.0500649
0 0 0.00607309
0.0242466 0.0268254 0.0865949
0.107774 0.0565194 0.200031
0.258671 0.0738842 0.305837
0.469062 0.0801862 0.39118
0 0.184588 0.346517
0.0790112 0.22089 0.427771
0.239307 0.249744 0.482612
0.421775 0.276081 0.520439
0.607126 0.303166 0.563302
0 0.450553 0.521126
0.112444 0.480934 0.564569
0.2869 0.514031 0.60853
0.483513 0.544121 0.637339
0.693904 0.573327 0.653422
0 0.724392 0.615381
0.201328 0.75491 0.632181
0.41738 0.783902 0.654292
0.634012 0.811902 0.694728
0.816876 0.848234 0.761578
