lut/2a23a94f-d459-45df-8d03-fa69373d20f3.cube
TITLE "Rich Nature Enhancer"
LUT_3D_SIZE 16
0.000000 0.000000 0.000000
0.000000 0.000000 0.000000
0.000000 0.000000 0.000000
0.023217 0.000000 0.000000
0.187038 0.000000 0.000000
0.368849 0.000000 0.000000
0.559314 0.000000 0.000000
0.709816 0.000000 0.000000
0.840764 0.000000 0.000000
0.956176 0.000000 0.000000
1.000000 0.000000 0.000000
1.000000 0.000000 0.000000
1.000000 0.000000 0.000000
1.000000 0.000000 0.000000
1.000000 0.000000 0.000000
1.000000 0.000000 0.000000
0.000000 0.000000 0.000000
0.000000 0.000000 0.000000
0.000000 0.000000 0.000022
0.016370 0.000000 0.000623
0.178849 0.000000 0.000065
0.360060 0.000000 0.000000
0.552487 0.000000 0.000000
0.705624 0.000000 0.000000
0.838160 0.000000 0.000000
0.954152 0.000000 0.000000
1.000000 0.000000 0.000000
1.000000 0.000000 0.000000
1.000000 0.000000 0.000000
1.000000 0.000000 0.000000
1.000000 0.000000 0.000000
1.000000 0.000000 0.000000
0.000000 0.000000 0.000000
0.000000 0.000000 0.000000
0.000000 0.000000 0.000000
0.009390 0.000000 0.000000
0.168854 0.000000 0.000000
0.348148 0.000000 0.000000
0.542212 0.000000 0.000000
0.699739 0.000000 0.000000
0.832979 0.000000 0.000000
0.948679 0.000000 0.000000
1.000000 0.000000 0.000000
1.000000 0.000000 0.000000
1.000000 0.000000 0.000000
1.000000 0.000000 0.000000
1.000000 0.000000 0.000000
1.000000 0.000000 0.000000
0.000000 0.025282 0.000000
0.000000 0.024646 0.000000
0.000000 0.023312 0.000000
0.004327 0.019271 0.000000
0.133850 0.014286 0.000000
0.300369 0.009773 0.000000
0.499166 0.006126 0.000000
0.664398 0.003497 0.000000
0.793775 0.002157 0.000000
0.904146 0.001492 0.000000
0.992215 0.001305 0.000000
1.000000 0.001390 0.000000
1.000000 0.001795 0.000000
1.000000 0.002418 0.000000
1.000000 0.002956 0.000000
1.000000 0.002951 0.000000
0.000000 0.148177 0.000000
0.000000 0.147619 0.000000
0.000000 0.146608 0.000000
0.000000 0.138491 0.000015
0.076390 0.130957 0.000061
0.234660 0.115636 0.000023
0.395713 0.105701 0.000000
0.564496 0.091915 0.000000
0.708834 0.076862 0.000000
0.828949 0.068739 0.000000
0.933471 0.067673 0.000000
0.999417 0.070594 0.000000
1.000000 0.075925 0.000000
1.000000 0.082338 0.000000
1.000000 0.087034 0.000000
1.000000 0.086892 0.000000
0.000000 0.266799 0.000000
0.000000 0.266585 0.000000
0.000000 0.266050 0.000000
0.000000 0.257212 0.000000
0.059095 0.241312 0.000000
0.177117 0.241595 0.000000
0.372284 0.218899 0.000000
0.531784 0.211486 0.000000
0.653502 0.210511 0.000000
0.767190 0.209044 0.000000
0.877961 0.208138 0.000000
0.976014 0.208491 0.000000
1.000000 0.210731 0.000000
1.000000 0.214985 0.000000
1.000000 0.218700 0.000000
1.000000 0.218459 0.000000
0.000000 0.388651 0.000000
0.000000 0.388624 0.000000
0.000000 0.388279 0.000000
0.000000 0.380631 0.000000
0.037584 0.361894 0.000000
0.152969 0.364142 0.000000
0.292793 0.363204 0.000000
0.514436 0.337084 0.000000
0.660138 0.329678 0.000000
0.765642 0.333753 0.000000
0.852478 0.343992 0.000000
0.938522 0.352436 0.000000
0.997702 0.358150 0.000000
1.000000 0.361797 0.000000
1.000000 0.363455 0.000000
1.000000 0.363064 0.000000
0.000000 0.523649 0.000000
0.000000 0.523811 0.000000
0.000000 0.523634 0.000000
0.000000 0.517397 0.000000
0.024165 0.496627 0.000002
0.143454 0.496952 0.000008
0.258967 0.505450 0.000002
0.432441 0.496134 0.000000
0.634249 0.468154 0.000000
0.764241 0.460533 0.000000
0.871714 0.461910 0.000000
0.954389 0.470643 0.000000
0.998772 0.483319 0.000000
1.000000 0.494537 0.000000
1.000000 0.500684 0.000000
1.000000 0.500338 0.000000
0.000000 0.652323 0.000000
0.000000 0.652507 0.000000
0.000000 0.652502 0.000000
0.000000 0.647330 0.000000
0.021505 0.625046 0.000000
0.130392 0.626116 0.000000
0.269625 0.623098 0.000000
0.380908 0.633175 0.000000
0.559136 0.618262 0.000000
0.737608 0.592221 0.000000
0.852775 0.588730 0.000000
0.951145 0.590142 0.000000
1.000000 0.594664 0.000000
1.000000 0.602258 0.000000
1.000000 0.610199 0.000000
1.000000 0.609834 0.000000
0.000000 0.763559 0.000000
0.000000 0.763746 0.000000
0.000000 0.763883 0.000000
0.000000 0.758585 0.000000
0.020417 0.735191 0.000000
0.124867 0.734983 0.000000
0.263381 0.731280 0.000000
0.396606 0.731825 0.000000
0.508527 0.739084 0.000000
0.671068 0.721114 0.000000
0.831733 0.699022 0.000000
0.931808 0.697948 0.000000
0.996730 0.698491 0.000000
1.000000 0.699360 0.000000
1.000000 0.701080 0.000000
1.000000 0.700586 0.000000
0.000000 0.869384 0.000000
0.000000 0.869607 0.000000
0.000000 0.869791 0.000000
0.000000 0.864298 0.000000
0.025291 0.839429 0.000000
0.133198 0.838162 0.000000
0.264378 0.835102 0.000000
0.416771 0.827174 0.000000
0.519453 0.834254 0.000000
0.623808 0.834840 0.000000
0.772649 0.816079 0.000000
0.913610 0.795905 0.000000
0.991788 0.793022 0.000000
1.000000 0.791065 0.000000
1.000000 0.789300 0.000000
1.000000 0.788601 0.000000
0.000000 0.965916 0.000000
0.000000 0.966172 0.000000
0.000000 0.966320 0.000000
0.000000 0.961035 0.000000
0.037984 0.935918 0.000000
0.151643 0.932612 0.000000
0.273981 0.929203 0.000000
0.424326 0.918972 0.000000
0.549783 0.913888 0.000000
0.622542 0.922081 0.000000
0.728470 0.916786 0.000000
0.862846 0.897475 0.000000
0.980311 0.878387 0.000000
1.000000 0.872584 0.000000
1.000000 0.869329 0.000000
1.000000 0.868671 0.000000
0.000000 1.000000 0.000000
0.000000 1.000000 0.000000
0.000000 1.000000 0.000000
0.000000 1.000000 0.000000
0.054543 0.997070 0.000000
0.170706 0.996160 0.000000
0.283904 0.995450 0.000000
0.426476 0.991523 0.000000
0.566654 0.983487 0.000000
0.642447 0.986966 0.000000
0.716269 0.988159 0.000000
0.817399 0.982281 0.000000
0.938358 0.966441 0.000000
0.999312 0.946564 0.000000
1.000000 0.940406 0.000000
1.000000 0.939713 0.000000
0.000000 1.000000 0.000000
0.000000 1.000000 0.000000
0.000000 1.000000 0.000000
0.000000 1.000000 0.000000
0.064672 1.000000 0.000000
0.184928 1.000000 0.000000
0.288987 1.000000 0.000000
0.424273 1.000000 0.000000
0.566055 1.000000 0.000000
0.662040 1.000000 0.000000
0.720749 1.000000 0.000000
0.797753 1.000000 0.000000
0.891235 1.000000 0.000000
0.989609 0.999638 0.000000
1.000000 0.994888 0.000000
1.000000 0.994537 0.000000
0.000000 1.000000 0.000000
0.000000 1.000000 0.000000
0.000000 1.000000 0.000000
0.000000 1.000000 0.000000
0.068011 1.000000 0.000000
0.191594 1.000000 0.000000
0.288970 1.000000 0.000000
0.417534 1.000000 0.000000
0.556768 1.000000 0.000000
0.667810 1.000000 0.000000
0.735453 1.000000 0.000000
0.791238 1.000000 0.000000
0.867088 1.000000 0.000000
0.956691 1.000000 0.000000
1.000000 1.000000 0.000000
1.000000 1.000000 0.000000
0.000000 1.000000 0.000000
0.000000 1.000000 0.000000
0.000000 1.000000 0.000000
0.000000 1.000000 0.000000
0.066545 1.000000 0.000000
0.191304 1.000000 0.000000
0.286999 1.000000 0.000000
0.413376 1.000000 0.000000
0.551811 1.000000 0.000000
0.665547 1.000000 0.000000
0.738109 1.000000 0.000000
0.789898 1.000000 0.000000
0.860774 1.000000 0.000000
0.945667 1.000000 0.000000
1.000000 1.000000 0.000000
1.000000 1.000000 0.000000
0.000000 0.000000 0.000000
0.000000 0.000000 0.000000
0.000000 0.000000 0.000000
0.026037 0.000000 0.000000
0.190098 0.000000 0.000000
0.372255 0.000000 0.000000
0.561741 0.000000 0.000000
0.711256 0.000000 0.000000
0.842708 0.000000 0.000000
0.957982 0.000000 0.000000
1.000000 0.000000 0.000000
1.000000 0.000000 0.000000
1.000000 0.000000 0.000000
1.000000 0.000000 0.000000
1.000000 0.000000 0.000000
1.000000 0.000000 0.000000
0.000000 0.000000 0.000000
0.000000 0.000000 0.000000
0.000000 0.000000 0.000009
0.019008 0.000000 0.000212
0.182876 0.000000 0.000052
0.364626 0.000000 0.000000
0.556123 0.000000 0.000000
0.708373 0.000000 0.000000
0.840497 0.000000 0.000000
0.956116 0.000000 0.000000
1.000000 0.000000 0.000000
1.000000 0.000000 0.000000
1.000000 0.000000 0.000000
1.000000 0.000000 0.000000
1.000000 0.000000 0.000000
1.000000 0.000000 0.000000
0.000000 0.000000 0.000000
0.000000 0.000000 0.000000
0.000000 0.000000 0.000002
0.010671 0.000000 0.000069
0.173183 0.000000 0.000098
0.353005 0.000000 0.000003
0.546423 0.000000 0.000000
0.702727 0.000000 0.000000
0.835660 0.000000 0.000000
0.950785 0.000000 0.000000
1.000000 0.000000 0.000000
1.000000 0.000000 0.000000
1.000000 0.000000 0.000000
1.000000 0.000000 0.000000
1.000000 0.000000 0.000000
1.000000 0.000000 0.000000
0.000000 0.026061 0.000000
0.000000 0.025927 0.000000
0.000000 0.024633 0.000000
0.004442 0.019862 0.000000
0.136568 0.014431 0.000000
0.304260 0.009739 0.000000
0.503506 0.006058 0.000000
0.667391 0.003483 0.000000
0.796230 0.002140 0.000000
0.906189 0.001503 0.000000
0.993266 0.001318 0.000000
1.000000 0.001419 0.000000
1.000000 0.001843 0.000000
1.000000 0.002486 0.000000
1.000000 0.003022 0.000000
1.000000 0.003024 0.000000
0.000000 0.149159 0.000000
0.000000 0.149119 0.000000
0.000000 0.148263 0.000000
0.000000 0.139949 0.000031
0.076850 0.131640 0.000130
0.236619 0.115939 0.000063
0.398919 0.105663 0.000000
0.567444 0.091780 0.000000
0.711353 0.076833 0.000000
0.831000 0.068885 0.000000
0.935271 0.067980 0.000000
0.999455 0.071030 0.000000
1.000000 0.076259 0.000000
1.000000 0.082885 0.000000
1.000000 0.087483 0.000000
1.000000 0.087478 0.000000
0.000000 0.267801 0.000000
0.000000 0.267901 0.000000
0.000000 0.267533 0.000000
0.000000 0.258866 0.000001
0.058620 0.242408 0.000010
0.177829 0.242215 0.000010
0.374151 0.219312 0.000001
0.533888 0.211785 0.000000
0.655493 0.210734 0.000000
0.769195 0.209245 0.000000
0.879785 0.208376 0.000000
0.977142 0.208830 0.000000
1.000000 0.211158 0.000000
1.000000 0.215506 0.000000
1.000000 0.219137 0.000000
1.000000 0.218909 0.000000
0.000000 0.389710 0.000000
0.000000 0.389883 0.000000
0.000000 0.389768 0.000000
0.000000 0.382428 0.000000
0.036606 0.363336 0.000000
0.152941 0.365117 0.000000
0.293543 0.364112 0.000000
0.516090 0.337678 0.000000
0.661854 0.330202 0.000000
0.767114 0.334240 0.000000
0.853886 0.344553 0.000000
0.939965 0.352877 0.000000
0.998049 0.358679 0.000000
1.000000 0.362259 0.000000
1.000000 0.363945 0.000000
1.000000 0.363560 0.000000
0.000000 0.524917 0.000000
0.000000 0.525132 0.000000
0.000000 0.525119 0.000000
0.000000 0.519087 0.000000
0.023345 0.498192 0.000030
0.142599 0.498409 0.000124
0.259277 0.506385 0.000046
0.433156 0.497045 0.000000
0.635416 0.468928 0.000000
0.765509 0.461158 0.000000
0.873059 0.462572 0.000000
0.955594 0.471350 0.000000
0.998955 0.484018 0.000000
1.000000 0.495081 0.000000
1.000000 0.501132 0.000000
1.000000 0.500751 0.000000
0.000000 0.653449 0.000000
0.000000 0.653673 0.000000
0.000000 0.653819 0.000000
0.000000 0.648819 0.000000
0.020707 0.626679 0.000000
0.129375 0.627290 0.000001
0.269184 0.624202 0.000001
0.381132 0.634067 0.000000
0.559714 0.619070 0.000000
0.738699 0.592768 0.000000
0.853787 0.589490 0.000000
0.952178 0.590738 0.000000
1.000000 0.595189 0.000000
1.000000 0.602865 0.000000
1.000000 0.610549 0.000000
1.000000 0.610293 0.000000
0.000000 0.764565 0.000000
0.000000 0.764778 0.000000
0.000000 0.765066 0.000000
0.000000 0.759903 0.000000
0.019652 0.736510 0.000000
0.124004 0.736133 0.000000
0.262742 0.732302 0.000000
0.396699 0.732647 0.000000
0.508832 0.739870 0.000000
0.671594 0.721771 0.000000
0.832553 0.699639 0.000000
0.932745 0.698448 0.000000
0.996925 0.698960 0.000000
1.000000 0.699818 0.000000
1.000000 0.701403 0.000000
1.000000 0.700887 0.000000
0.000000 0.870253 0.000000
0.000000 0.870596 0.000000
0.000000 0.870867 0.000000
0.000000 0.865449 0.000000
0.024339 0.840692 0.000000
0.132384 0.839260 0.000000
0.263627 0.836102 0.000000
0.416557 0.828104 0.000000
0.519643 0.834947 0.000000
0.624042 0.835602 0.000000
0.773170 0.816674 0.000000
0.914354 0.796414 0.000000
0.992114 0.793498 0.000000
1.000000 0.791461 0.000000
1.000000 0.789703 0.000000
1.000000 0.789007 0.000000
0.000000 0.966641 0.000000
0.000000 0.966922 0.000000
0.000000 0.967124 0.000000
0.000000 0.962063 0.000000
0.037204 0.936993 0.000000
0.151085 0.933540 0.000000
0.273209 0.930118 0.000000
0.423710 0.919845 0.000000
0.549899 0.914594 0.000000
0.622756 0.922675 0.000000
0.728727 0.917400 0.000000
0.863132 0.898079 0.000000
0.980668 0.878847 0.000000
1.000000 0.872936 0.000000
1.000000 0.869708 0.000000
1.000000 0.869054 0.000000
0.000000 1.000000 0.000000
0.000000 1.000000 0.000049
0.000000 1.000000 0.000085
0.000000 1.000000 0.000019
0.053592 0.997356 0.000000
0.170061 0.996505 0.000000
0.283140 0.995825 0.000000
0.425705 0.992084 0.000000
0.566423 0.984084 0.000000
0.642625 0.987397 0.000000
0.716355 0.988591 0.000000
0.817635 0.982706 0.000000
0.938709 0.966893 0.000000
0.999357 0.946958 0.000000
1.000000 0.940791 0.000000
1.000000 0.940102 0.000000
0.000000 1.000000 0.000000
0.000000 1.000000 0.000000
0.000000 1.000000 0.000000
0.000000 1.000000 0.000001
0.063714 1.000000 0.000000
0.184413 1.000000 0.000000
0.288275 1.000000 0.000000
0.423442 1.000000 0.000000
0.565605 1.000000 0.000000
0.661993 1.000000 0.000000
0.720865 1.000000 0.000000
0.797844 1.000000 0.000000
0.891490 1.000000 0.000000
0.989808 0.999607 0.000000
1.000000 0.994977 0.000000
1.000000 0.994635 0.000000
0.000000 1.000000 0.000000
0.000000 1.000000 0.000000
0.000000 1.000000 0.000000
0.000000 1.000000 0.000000
0.067043 1.000000 0.000000
0.191058 1.000000 0.000000
0.288288 1.000000 0.000000
0.416735 1.000000 0.000000
0.556122 1.000000 0.000000
0.667553 1.000000 0.000000
0.735552 1.000000 0.000000
0.791330 1.000000 0.000000
0.867189 1.000000 0.000000
0.956840 1.000000 0.000000
1.000000 1.000000 0.000000
1.000000 1.000000 0.000000
0.000000 1.000000 0.000000
0.000000 1.000000 0.000002
0.000000 1.000000 0.000053
0.000000 1.000000 0.000085
0.065709 1.000000 0.000017
0.190805 1.000000 0.000000
0.286357 1.000000 0.000000
0.412669 1.000000 0.000000
0.551234 1.000000 0.000000
0.665248 1.000000 0.000000
0.738041 1.000000 0.000000
0.789865 1.000000 0.000000
0.860911 1.000000 0.000000
0.945946 1.000000 0.000000
1.000000 1.000000 0.000000
1.000000 1.000000 0.000000
0.000000 0.000000 0.000000
0.000000 0.000000 0.000000
0.000000 0.000000 0.000002
0.027071 0.000000 0.000032
0.192535 0.000000 0.000041
0.376294 0.000000 0.000012
0.564227 0.000000 0.000000
0.714853 0.000000 0.000000
0.846153 0.000000 0.000000
0.961099 0.000000 0.000000
1.000000 0.000000 0.000000
1.000000 0.000000 0.000000
1.000000 0.000000 0.000000
1.000000 0.000000 0.000000
1.000000 0.000000 0.000000
1.000000 0.000000 0.000000
0.000000 0.000000 0.000000
0.000000 0.000000 0.000000
0.000000 0.000000 0.000000
0.021818 0.000000 0.000000
0.186835 0.000000 0.000000
0.369838 0.000000 0.000000
0.561058 0.000000 0.000000
0.712440 0.000000 0.000000
0.844134 0.000000 0.000000
0.959399 0.000000 0.000000
1.000000 0.000000 0.000000
1.000000 0.000000 0.000000
1.000000 0.000000 0.000000
1.000000 0.000000 0.000000
1.000000 0.000000 0.000000
1.000000 0.000000 0.000000
0.000000 0.000000 0.000000
0.000000 0.000000 0.000000
0.000000 0.000000 0.000000
0.015386 0.000000 0.000028
0.179253 0.000000 0.000400
0.359464 0.000000 0.000017
0.552158 0.000000 0.000000
0.707248 0.000000 0.000000
0.839520 0.000000 0.000000
0.954175 0.000000 0.000000
1.000000 0.000000 0.000000
1.000000 0.000000 0.000000
1.000000 0.000000 0.000000
1.000000 0.000000 0.000000
1.000000 0.000000 0.000000
1.000000 0.000000 0.000000
0.000000 0.026696 0.000000
0.000000 0.026830 0.000000
0.000000 0.026418 0.000000
0.004729 0.020924 0.000003
0.141267 0.014498 0.000130
0.309901 0.009707 0.000203
0.509244 0.006084 0.000010
0.671012 0.003552 0.000000
0.799065 0.002209 0.000000
0.908527 0.001559 0.000000
0.994243 0.001376 0.000000
1.000000 0.001486 0.000000
1.000000 0.001950 0.000000
1.000000 0.002641 0.000000
1.000000 0.003190 0.000000
1.000000 0.003204 0.000000
0.000000 0.150230 0.000000
0.000000 0.150556 0.000000
0.000000 0.150341 0.000000
0.000000 0.142375 0.000000
0.077884 0.132682 0.000000
0.239640 0.116263 0.000000
0.403259 0.105791 0.000000
0.571465 0.091758 0.000000
0.714594 0.076930 0.000000
0.833289 0.069436 0.000000
0.937135 0.068695 0.000000
0.999440 0.071959 0.000000
1.000000 0.077380 0.000000
1.000000 0.084027 0.000000
1.000000 0.088619 0.000000
1.000000 0.088554 0.000000
0.000000 0.268997 0.000000
0.000000 0.269365 0.000000
0.000000 0.269314 0.000000
0.000000 0.261145 0.000000
0.057850 0.244061 0.000058
0.178932 0.243315 0.000115
0.377168 0.219914 0.000022
0.536669 0.212501 0.000000
0.658335 0.211402 0.000000
0.772242 0.209753 0.000000
0.882692 0.208887 0.000000
0.978880 0.209498 0.000000
1.000000 0.211982 0.000000
1.000000 0.216434 0.000000
1.000000 0.220004 0.000000
1.000000 0.219873 0.000000
0.000000 0.391202 0.000000
0.000000 0.391504 0.000000
0.000000 0.391605 0.000000
0.000000 0.384681 0.000000
0.035351 0.365430 0.000001
0.153050 0.366614 0.000012
0.295015 0.365336 0.000018
0.518490 0.338574 0.000007
0.663941 0.331075 0.000000
0.768724 0.335383 0.000000
0.855597 0.345644 0.000000
0.941841 0.353777 0.000000
0.998519 0.359434 0.000000
1.000000 0.362830 0.000000
1.000000 0.364406 0.000000
1.000000 0.364057 0.000000
0.000000 0.526426 0.000000
0.000000 0.526872 0.000000
0.000000 0.527032 0.000000
0.000000 0.521397 0.000000
0.022477 0.500357 0.000000
0.141710 0.500345 0.000000
0.260212 0.507644 0.000000
0.434693 0.498238 0.000000
0.637085 0.469932 0.000000
0.767308 0.462145 0.000000
0.874495 0.463601 0.000000
0.956552 0.472592 0.000000
0.999079 0.485199 0.000000
1.000000 0.496216 0.000000
1.000000 0.502054 0.000000
1.000000 0.501572 0.000000
0.000000 0.654937 0.000000
0.000000 0.655304 0.000000
0.000000 0.655522 0.000000
0.000000 0.650769 0.000000
0.019941 0.628634 0.000000
0.128303 0.629127 0.000048
0.269201 0.625613 0.000085
0.381968 0.635230 0.000013
0.560904 0.620034 0.000000
0.740177 0.593726 0.000000
0.855246 0.590529 0.000000
0.953543 0.591644 0.000000
1.000000 0.596138 0.000000
1.000000 0.603913 0.000000
1.000000 0.611607 0.000000
1.000000 0.611230 0.000000
0.000000 0.765765 0.000000
0.000000 0.766221 0.000000
0.000000 0.766468 0.000000
0.000000 0.761477 0.000000
0.019041 0.738137 0.000000
0.123153 0.737589 0.000000
0.262122 0.733800 0.000001
0.397586 0.733625 0.000005
0.509813 0.740753 0.000004
0.672666 0.722591 0.000000
0.833583 0.700511 0.000000
0.933885 0.699196 0.000000
0.997147 0.699630 0.000000
1.000000 0.700522 0.000000
1.000000 0.702052 0.000000
1.000000 0.701534 0.000000
0.000000 0.871503 0.000000
0.000000 0.871876 0.000000
0.000000 0.872205 0.000000
0.000000 0.866964 0.000000
0.023752 0.842181 0.000000
0.131891 0.840616 0.000000
0.263116 0.837469 0.000000
0.416553 0.829229 0.000000
0.520745 0.835748 0.000000
0.624758 0.836433 0.000000
0.774336 0.817283 0.000000
0.915387 0.797038 0.000000
0.992566 0.794059 0.000000
1.000000 0.791983 0.000000
1.000000 0.790195 0.000000
1.000000 0.789505 0.000000
0.000000 0.967492 0.000000
0.000000 0.967856 0.000000
0.000000 0.968123 0.000000
0.000000 0.963193 0.000000
0.036590 0.938306 0.000000
0.150673 0.934657 0.000000
0.272725 0.931289 0.000000
0.423226 0.920933 0.000000
0.550577 0.915171 0.000000
0.623673 0.923193 0.000000
0.729513 0.917972 0.000000
0.864026 0.898510 0.000000
0.981129 0.879321 0.000000
1.000000 0.873343 0.000000
1.000000 0.870090 0.000000
1.000000 0.869420 0.000000
0.000000 1.000000 0.000000
0.000000 1.000000 0.000000
0.000000 1.000000 0.000000
0.000000 1.000000 0.000000
0.053138 0.997668 0.000000
0.169894 0.996941 0.000000
0.282609 0.996344 0.000000
0.425110 0.992681 0.000000
0.566427 0.984748 0.000000
0.643549 0.987778 0.000000
0.717001 0.988965 0.000000
0.818167 0.983161 0.000000
0.939441 0.967273 0.000000
0.999438 0.947271 0.000000
1.000000 0.941124 0.000000
1.000000 0.940427 0.000000
0.000000 1.000000 0.000000
0.000000 1.000000 0.000001
0.000000 1.000000 0.000023
0.000000 1.000000 0.000033
0.063080 1.000000 0.000014
0.184041 1.000000 0.000000
0.287701 1.000000 0.000000
0.422602 1.000000 0.000000
0.565033 1.000000 0.000000
0.662560 1.000000 0.000000
0.721706 1.000000 0.000000
0.798366 1.000000 0.000000
0.892011 1.000000 0.000000
0.989998 0.999457 0.000000
1.000000 0.995000 0.000000
1.000000 0.994662 0.000000
0.000000 1.000000 0.000000
0.000000 1.000000 0.000000
0.000000 1.000000 0.000000
0.000000 1.000000 0.000002
0.066444 1.000000 0.000005
0.190669 1.000000 0.000001
0.287705 1.000000 0.000000
0.415950 1.000000 0.000000
0.555436 1.000000 0.000000
0.667530 1.000000 0.000000
0.736461 1.000000 0.000000
0.791906 1.000000 0.000000
0.867616 1.000000 0.000000
0.957202 1.000000 0.000000
1.000000 1.000000 0.000000
1.000000 1.000000 0.000000
0.000000 1.000000 0.000000
0.000000 1.000000 0.000000
0.000000 1.000000 0.000000
0.000000 1.000000 0.000000
0.065192 1.000000 0.000000
0.190345 1.000000 0.000000
0.285819 1.000000 0.000000
0.411982 1.000000 0.000000
0.550595 1.000000 0.000000
0.665035 1.000000 0.000000
0.738716 1.000000 0.000000
0.790503 1.000000 0.000000
0.861418 1.000000 0.000000
0.946525 1.000000 0.000000
1.000000 1.000000 0.000000
1.000000 1.000000 0.000000
0.000000 0.000000 0.018326
0.000000 0.000000 0.018713
0.000000 0.000000 0.018173
0.025249 0.000000 0.016564
0.193793 0.000000 0.014845
0.381605 0.000000 0.012502
0.574712 0.000000 0.007603
0.729039 0.000000 0.003257
0.863913 0.000000 0.000014
0.977373 0.000000 0.000000
1.000000 0.000000 0.000000
1.000000 0.000000 0.000000
1.000000 0.000000 0.000000
1.000000 0.000000 0.000000
1.000000 0.000000 0.000000
1.000000 0.000000 0.000000
0.000000 0.000000 0.017455
0.000000 0.000000 0.018257
0.000000 0.000000 0.018251
0.020082 0.000000 0.016443
0.188711 0.000000 0.014338
0.376425 0.000000 0.012248
0.572249 0.000000 0.007515
0.727085 0.000000 0.003245
0.862299 0.000000 0.000027
0.975872 0.000000 0.000000
1.000000 0.000000 0.000000
1.000000 0.000000 0.000000
1.000000 0.000000 0.000000
1.000000 0.000000 0.000000
1.000000 0.000000 0.000000
1.000000 0.000000 0.000000
0.000000 0.000000 0.014985
0.000000 0.000000 0.015810
0.000000 0.000000 0.016745
0.015619 0.000000 0.016704
0.184818 0.000000 0.014565
0.370299 0.000000 0.011441
0.566622 0.000000 0.006911
0.724173 0.000000 0.002804
0.858384 0.000000 0.000031
0.971441 0.000000 0.000000
1.000000 0.000000 0.000000
1.000000 0.000000 0.000000
1.000000 0.000000 0.000000
1.000000 0.000000 0.000000
1.000000 0.000000 0.000000
1.000000 0.000000 0.000000
0.000000 0.026037 0.007935
0.000000 0.025979 0.008200
0.000000 0.025497 0.008601
0.005185 0.020206 0.009527
0.148790 0.012813 0.008115
0.318916 0.008716 0.005813
0.520572 0.005516 0.003377
0.680104 0.003717 0.001041
0.808205 0.002330 0.000004
0.917765 0.001578 0.000000
0.993796 0.001312 0.000000
1.000000 0.001425 0.000000
1.000000 0.001875 0.000000
1.000000 0.002581 0.000000
1.000000 0.003133 0.000000
1.000000 0.003170 0.000000
0.000000 0.148959 0.003632
0.000000 0.149308 0.003597
0.000000 0.149577 0.003505
0.000000 0.142961 0.002459
0.082251 0.129412 0.000678
0.239704 0.114356 0.001082
0.410004 0.102470 0.000809
0.581205 0.086155 0.000032
0.717818 0.073603 0.000000
0.830436 0.069218 0.000000
0.932253 0.069783 0.000000
0.997842 0.073531 0.000000
1.000000 0.078864 0.000000
1.000000 0.085092 0.000000
1.000000 0.089415 0.000000
1.000000 0.089560 0.000000
0.000000 0.267567 0.000384
0.000000 0.268078 0.000364
0.000000 0.268507 0.000336
0.000000 0.261353 0.000122
0.056349 0.243275 0.000000
0.183557 0.240550 0.000000
0.375217 0.219783 0.000090
0.533991 0.214461 0.000043
0.666524 0.208468 0.000001
0.787626 0.202742 0.000000
0.898251 0.201493 0.000000
0.987315 0.203858 0.000000
1.000000 0.208921 0.000000
1.000000 0.215367 0.000000
1.000000 0.219607 0.000000
1.000000 0.219484 0.000000
0.000000 0.390254 0.000000
0.000000 0.390928 0.000000
0.000000 0.391415 0.000000
0.000000 0.385097 0.000000
0.033210 0.365799 0.000000
0.157881 0.364273 0.000000
0.300768 0.362874 0.000000
0.518693 0.338561 0.000001
0.658782 0.334156 0.000013
0.760455 0.339470 0.000267
0.855092 0.346197 0.000888
0.947844 0.350060 0.000630
0.999324 0.352193 0.000012
1.000000 0.353008 0.000000
1.000000 0.353673 0.000000
1.000000 0.353333 0.000000
0.000000 0.526265 0.000000
0.000000 0.526818 0.000000
0.000000 0.527369 0.000000
0.000000 0.521999 0.000000
0.022157 0.500770 0.000000
0.139922 0.500716 0.000000
0.271571 0.502700 0.000023
