lut/2a23a94f-d459-45df-8d03-fa69373d20f3.cube
TITLE "Rich Nature Enhancer"
LUT_3D_SIZE 6
0.000000 0.000000 0.000000
0.023217 0.000000 0.000000
0.559314 0.000000 0.000000
0.956176 0.000000 0.000000
1.000000 0.000000 0.000000
1.000000 0.000000 0.000000
0.000000 0.025282 0.000000
0.004327 0.019271 0.000000
0.499166 0.006126 0.000000
0.904146 0.001492 0.000000
1.000000 0.001795 0.000000
1.000000 0.002951 0.000000
0.000000 0.388651 0.000000
0.000000 0.380631 0.000000
0.292793 0.363204 0.000000
0.765642 0.333753 0.000000
0.997702 0.358150 0.000000
1.000000 0.363064 0.000000
0.000000 0.763559 0.000000
0.000000 0.758585 0.000000
0.263381 0.731280 0.000000
0.671068 0.721114 0.000000
0.996730 0.698491 0.000000
1.000000 0.700586 0.000000
0.000000 1.000000 0.000000
0.000000 1.000000 0.000000
0.283904 0.995450 0.000000
0.642447 0.986966 0.000000
0.938358 0.966441 0.000000
1.000000 0.939713 0.000000
0.000000 1.000000 0.000000
0.000000 1.000000 0.000000
0.286999 1.000000 0.000000
0.665547 1.000000 0.000000
0.860774 1.000000 0.000000
1.000000 1.000000 0.000000
0.000000 0.000000 0.018326
0.025249 0.000000 0.016564
0.574712 0.000000 0.007603
0.977373 0.000000 0.000000
1.000000 0.000000 0.000000
1.000000 0.000000 0.000000
0.000000 0.026037 0.007935
0.005185 0.020206 0.009527
0.520572 0.005516 0.003377
0.917765 0.001578 0.000000
1.000000 0.001875 0.000000
1.000000 0.003170 0.000000
0.000000 0.390254 0.000000
0.000000 0.385097 0.000000
0.300768 0.362874 0.000000
0.760455 0.339470 0.000267
0.999324 0.352193 0.000012
1.000000 0.353333 0.000000
0.000000 0.765407 0.000000
0.000000 0.761339 0.000000
0.259932 0.733391 0.000000
0.677446 0.719133 0.000000
0.996819 0.697781 0.000000
1.000000 0.701446 0.000000
0.000000 1.000000 0.000000
0.000000 0.999998 0.000000
0.279005 0.996608 0.000000
0.653810 0.982282 0.000000
0.940992 0.962118 0.000000
1.000000 0.936664 0.000000
0.000000 1.000000 0.000000
0.000000 1.000000 0.000000
0.281423 1.000000 0.000002
0.661723 1.000000 0.000000
0.864489 1.000000 0.000000
1.000000 1.000000 0.000000
0.000000 0.000000 0.527443
0.016420 0.000000 0.521370
0.550934 0.000000 0.461604
0.962476 0.000000 0.419515
1.000000 0.000000 0.396686
1.000000 0.000000 0.390947
0.000000 0.019764 0.477429
0.004273 0.014722 0.482782
0.510154 0.003765 0.435185
0.925478 0.000000 0.378182
1.000000 0.000000 0.363357
1.000000 0.000000 0.362919
0.000000 0.377440 0.308203
0.000000 0.371391 0.304561
0.316875 0.341152 0.286017
0.773297 0.317073 0.259966
1.000000 0.329891 0.273686
1.000000 0.339475 0.283301
0.000000 0.754823 0.250219
0.000000 0.750938 0.244080
0.242365 0.723188 0.227058
0.687011 0.696386 0.186363
0.987695 0.697020 0.265634
1.000000 0.711139 0.311297
0.000000 1.000000 0.290960
0.000000 0.999632 0.282390
0.260798 0.988445 0.255676
0.659662 0.954305 0.224292
0.937260 0.932758 0.187045
1.000000 0.915527 0.205972
0.000000 1.000000 0.311054
0.000000 1.000000 0.300871
0.263985 1.000000 0.268216
0.632518 1.000000 0.237933
0.876328 1.000000 0.116385
1.000000 1.000000 0.175912
0.000000 0.000000 0.960350
0.012525 0.000000 0.963398
0.533333 0.000000 0.929074
0.945441 0.000000 0.902197
1.000000 0.000000 0.893309
1.000000 0.000000 0.892100
0.000000 0.013793 0.934226
0.001872 0.010328 0.937212
0.477992 0.002756 0.900928
0.906983 0.000000 0.868591
1.000000 0.000000 0.862760
1.000000 0.000000 0.862968
0.000000 0.364323 0.787482
0.000000 0.357060 0.785161
0.305676 0.331845 0.757586
0.774508 0.303498 0.730162
1.000000 0.311429 0.725911
1.000000 0.319547 0.725874
0.000000 0.744206 0.719586
0.000000 0.739104 0.714612
0.236209 0.711693 0.682083
0.688344 0.679709 0.658082
0.984552 0.672870 0.640679
1.000000 0.673563 0.638345
0.000000 0.999062 0.731581
0.000000 0.998547 0.720465
0.246806 0.980698 0.660171
0.635614 0.944672 0.606087
0.933093 0.916285 0.557017
1.000000 0.909626 0.578590
0.000000 1.000000 0.729295
0.000000 1.000000 0.714878
0.250696 1.000000 0.641029
0.612626 1.000000 0.589851
0.896364 1.000000 0.523282
1.000000 1.000000 0.520602
0.000000 0.000000 1.000000
0.008506 0.000000 1.000000
0.522933 0.000000 1.000000
0.936650 0.000000 1.000000
1.000000 0.000000 1.000000
1.000000 0.000000 1.000000
0.000000 0.012115 1.000000
0.000000 0.009348 1.000000
0.462829 0.002813 1.000000
0.897702 0.000000 1.000000
1.000000 0.000000 1.000000
1.000000 0.000000 1.000000
0.000000 0.362078 1.000000
0.000000 0.355295 1.000000
0.304511 0.333559 1.000000
0.765152 0.306853 1.000000
1.000000 0.312155 1.000000
1.000000 0.319080 1.000000
0.000000 0.742032 1.000000
0.000000 0.736090 1.000000
0.242012 0.707503 0.995899
0.681287 0.676636 0.984945
0.985119 0.663112 0.975464
1.000000 0.659905 0.968067
0.000000 0.998352 1.000000
0.000000 0.997514 1.000000
0.241881 0.972520 0.987271
0.624716 0.933681 0.948427
0.924005 0.901838 0.921023
1.000000 0.891251 0.902943
0.000000 1.000000 1.000000
0.000000 1.000000 1.000000
0.241863 1.000000 0.968318
0.595583 1.000000 0.922916
0.886774 1.000000 0.881285
1.000000 1.000000 0.860163
0.000000 0.000000 1.000000
0.005286 0.000000 1.000000
0.513373 0.000000 1.000000
0.930603 0.000000 1.000000
1.000000 0.000000 1.000000
1.000000 0.000000 1.000000
0.000000 0.010678 1.000000
0.000000 0.008652 1.000000
0.454913 0.002979 1.000000
0.892490 0.000000 1.000000
1.000000 0.000000 1.000000
1.000000 0.000000 1.000000
0.000000 0.361727 1.000000
0.000000 0.355409 1.000000
0.305366 0.336053 1.000000
0.760900 0.310464 1.000000
1.000000 0.315155 1.000000
1.000000 0.321460 1.000000
0.000000 0.741756 1.000000
0.000000 0.735251 1.000000
0.246806 0.706566 1.000000
0.678788 0.676627 1.000000
0.979073 0.662649 1.000000
1.000000 0.658057 1.000000
0.000000 0.998026 1.000000
0.000000 0.996554 1.000000
0.242516 0.967686 1.000000
0.623377 0.927977 1.000000
0.917443 0.897479 1.000000
1.000000 0.885613 1.000000
0.000000 1.000000 1.000000
0.000000 1.000000 1.000000
0.240298 1.000000 1.000000
0.591379 1.000000 1.000000
0.882672 1.000000 1.000000
1.000000 1.000000 1.000000
