lut/31766330-448a-4156-bb83-aec93bb146d2.cube
TITLE "Vibrant Golden Forest"
LUT_3D_SIZE 16
-0.105987 -0.090487 -0.068093
-0.058590 -0.089480 -0.067218
0.171178 -0.087240 -0.065725
0.358709 -0.083147 -0.059288
0.556151 -0.075673 -0.033387
0.706823 -0.065625 0.049309
0.809220 -0.054381 0.067950
0.880494 -0.041733 0.080988
1.077868 0.054567 0.100017
1.112622 0.061864 0.102877
1.157841 0.070120 0.108119
1.169618 0.072384 0.121520
1.165728 0.071685 0.140887
1.165246 0.063772 0.164902
1.164595 0.051319 0.190369
1.164913 0.021835 0.219741
-0.103155 -0.057075 -0.068042
-0.104394 -0.064778 -0.068125
0.164942 -0.090694 -0.067850
0.349667 -0.096898 -0.062985
0.549347 -0.089813 -0.043871
0.704193 -0.073278 0.037543
0.808379 -0.055513 0.062592
0.877506 -0.042445 0.079680
1.077397 0.054414 0.098746
1.112499 0.061812 0.102380
1.157034 0.069969 0.107554
1.169966 0.072409 0.120390
1.165855 0.072010 0.139728
1.164947 0.064248 0.163544
1.164651 0.052045 0.189200
1.164920 0.023301 0.219034
-0.100559 0.098888 -0.068015
-0.114555 0.097762 -0.068016
-0.113528 0.082745 -0.068063
0.306665 0.106100 -0.053564
0.548144 0.146418 0.006181
0.693413 -0.109793 -0.034917
0.799042 -0.106560 0.043485
0.866010 -0.077045 0.063324
1.074049 0.047910 0.091062
1.111644 0.061399 0.099262
1.153470 0.069197 0.103942
1.171173 0.072398 0.114459
1.166431 0.072250 0.132685
1.165353 0.067006 0.156213
1.164906 0.055737 0.182765
1.164546 0.031782 0.213417
-0.099784 0.208944 -0.068015
-0.102407 0.208072 -0.068015
-0.141807 0.201873 -0.068015
0.139532 0.181382 -0.068035
0.454124 0.237018 0.093562
0.667500 0.262901 0.102369
0.798300 0.268323 0.105381
0.857219 -0.089442 0.049921
1.061951 -0.119253 0.078434
1.107959 -0.075483 0.087546
1.144371 0.048292 0.095078
1.173550 0.070750 0.106298
1.167657 0.072041 0.119136
1.165532 0.071608 0.141189
1.164997 0.062271 0.168521
1.164915 0.044652 0.200385
-0.099782 0.343520 -0.068015
-0.099793 0.342732 -0.068015
-0.110294 0.338153 -0.068015
-0.181501 0.328011 -0.068015
0.291691 0.301949 0.113136
0.589419 0.361593 0.150601
0.756171 0.349697 0.149345
0.836187 0.349786 0.146854
1.061516 0.320083 0.140358
1.107314 0.178782 0.105673
1.138571 -0.106009 0.096595
1.171460 -0.096226 0.093476
1.168457 -0.036309 0.102904
1.167202 0.065372 0.118167
1.165644 0.070951 0.143746
1.164591 0.057785 0.178656
-0.099782 0.489489 -0.068015
-0.099782 0.489014 -0.068015
-0.099920 0.485625 -0.068015
-0.124884 0.478736 -0.068015
-0.230610 0.467055 -0.068015
0.452239 0.444935 0.136597
0.699593 0.469560 0.168248
0.805313 0.427345 0.189824
1.034320 0.402846 0.178049
1.093618 0.388832 0.177368
1.126336 0.341177 0.156855
1.204010 0.285399 0.150631
1.177886 0.081661 0.109660
1.165701 -0.129557 0.094599
1.165200 -0.085007 0.109020
1.164384 0.045110 0.143054
-0.099780 0.618643 -0.068015
-0.099780 0.618372 -0.068015
-0.099780 0.616299 -0.068015
-0.100143 0.612056 -0.068015
-0.154696 0.605383 -0.068015
-0.169005 0.594260 -0.068015
0.592347 0.576301 0.180402
0.779373 0.561971 0.145054
0.867706 0.500928 0.222908
1.077114 0.447379 0.207818
1.100287 0.427418 0.199374
1.197357 0.428477 0.211365
1.191523 0.396216 0.192144
1.195503 0.347311 0.176961
1.197395 0.250109 0.145670
1.162918 -0.164640 0.101347
-0.099779 0.725355 -0.068015
-0.099779 0.725187 -0.068015
-0.099779 0.723673 -0.068015
-0.099779 0.720958 -0.068015
-0.108657 0.716266 -0.068015
-0.196267 0.709842 -0.068015
0.234679 0.700225 -0.068014
0.696830 0.687400 0.223097
0.834483 0.643124 0.057360
1.046905 0.566094 0.262883
1.094627 0.490605 0.234029
1.167829 0.472854 0.233504
1.183019 0.476727 0.237430
1.181072 0.464566 0.229702
1.184980 0.438768 0.214530
1.192478 0.390888 0.198775
-0.099778 0.814690 -0.068014
-0.099778 0.814518 -0.068014
-0.099778 0.813604 -0.068014
-0.099778 0.811536 -0.068014
-0.099778 0.808488 -0.068014
-0.122634 0.803730 -0.068014
-0.242828 0.797516 -0.068014
0.431915 0.789674 -0.068014
0.762259 0.780171 0.312194
0.927176 0.708777 0.091097
1.083769 0.619275 0.273337
1.114336 0.534524 0.259358
1.182561 0.529871 0.266351
1.176538 0.510832 0.255671
1.177955 0.492600 0.245679
1.179464 0.477602 0.237010
-0.099775 0.889129 -0.068014
-0.099775 0.889024 -0.068014
-0.099775 0.888561 -0.068014
-0.099775 0.887355 -0.068014
-0.099775 0.885284 -0.068014
-0.099775 0.882525 -0.068014
-0.143670 0.878234 -0.068014
-0.285743 0.872443 -0.068014
0.540954 0.866261 -0.068014
0.806715 0.859351 0.335831
1.081959 0.765199 0.100606
1.104318 0.655274 0.262811
1.180819 0.616537 0.289557
1.175528 0.604683 0.289709
1.172753 0.584078 0.286359
1.173251 0.556103 0.277093
-0.099775 0.924637 -0.068014
-0.099775 0.924440 -0.068014
-0.099775 0.924418 -0.068014
-0.099775 0.923960 -0.068014
-0.099775 0.923480 -0.068014
-0.099775 0.922571 -0.068014
-0.099775 0.921515 -0.068014
-0.161286 0.919963 -0.068014
-0.320036 0.917884 -0.068014
0.609814 0.916665 -0.068014
0.839798 0.917779 0.324866
1.088968 0.828045 0.405083
1.158488 0.700152 0.229998
1.196472 0.693887 0.243005
1.186628 0.678009 0.258382
1.181456 0.655438 0.275113
-0.099773 0.939408 -0.068014
-0.099773 0.939347 -0.068014
-0.099773 0.939289 -0.068014
-0.099773 0.939182 -0.068014
-0.099773 0.938843 -0.068014
-0.099773 0.938444 -0.068014
-0.099773 0.937972 -0.068014
-0.099823 0.937280 -0.068014
-0.181636 0.936491 -0.068014
-0.288334 0.935488 -0.068015
0.664160 0.936149 -0.068014
0.911989 0.940112 0.383949
1.101548 0.865081 0.446449
1.216814 0.786525 -0.035822
1.208036 0.774212 0.078698
1.203171 0.753386 0.139912
-0.099773 0.933855 -0.068014
-0.099773 0.933880 -0.068014
-0.099773 0.933853 -0.068014
-0.099773 0.933855 -0.068014
-0.099773 0.933910 -0.068014
-0.099773 0.933880 -0.068014
-0.099773 0.934127 -0.068014
-0.099773 0.934569 -0.068014
-0.106941 0.934775 -0.068014
-0.205849 0.935280 -0.068015
-0.221939 0.935483 -0.068014
0.691201 0.938683 -0.068012
1.041118 0.940794 0.380224
1.135665 0.900799 0.467805
1.171481 0.894826 0.470848
1.162306 0.877611 0.461860
-0.099770 1.050470 -0.068014
-0.099770 1.050367 -0.068014
-0.099770 1.050539 -0.068014
-0.099770 1.049979 -0.068014
-0.099770 1.049559 -0.068014
-0.099770 1.048831 -0.068014
-0.099770 1.045712 -0.068014
-0.099770 1.041007 -0.068014
-0.099771 1.035192 -0.068014
-0.115900 1.028076 -0.068014
-0.234380 1.019446 -0.068014
0.251652 1.011604 -0.068012
0.710930 0.964432 -0.068012
1.047714 0.935461 0.396704
1.193084 0.931418 0.445396
1.174827 0.925736 0.454263
-0.099770 1.048818 -0.068014
-0.099770 1.048819 -0.068014
-0.099770 1.048830 -0.068014
-0.099770 1.048870 -0.068014
-0.099770 1.048936 -0.068014
-0.099770 1.049087 -0.068014
-0.099770 1.049423 -0.068014
-0.099770 1.049920 -0.068014
-0.099770 1.050566 -0.068014
-0.099770 1.051328 -0.068014
-0.132427 1.052236 -0.068014
-0.274302 1.054219 -0.068014
0.489593 1.057223 -0.068012
0.771390 1.058232 -0.068012
1.152327 1.056834 0.384004
1.209248 1.049246 0.387302
-0.101637 1.107364 -0.070948
-0.112688 1.107364 -0.070825
-0.144096 1.107363 -0.071245
-0.195720 1.107363 -0.072162
-0.255227 1.107362 -0.072959
-0.310770 1.107361 -0.073566
-0.358151 1.107360 -0.073996
-0.411769 1.107358 -0.074279
-0.466193 1.107356 -0.074512
-0.499675 1.107354 -0.074711
-0.515624 1.107352 -0.076051
-0.530995 1.107362 -0.080300
-0.581604 1.107408 -0.087609
0.395727 1.107182 -0.097004
0.758430 1.107754 -0.107343
1.218960 1.099977 0.396190
-0.103989 -0.468792 -0.022049
-0.065927 -0.467935 -0.074973
0.185195 -0.467722 -0.071132
0.384726 -0.467321 -0.052649
0.588149 -0.466626 -0.007048
0.741712 -0.465839 0.053232
0.848878 -0.465127 0.069302
0.928119 -0.464485 0.076416
1.132749 -0.462555 0.098231
1.175184 -0.462025 0.101706
1.221465 -0.461435 0.106078
1.234648 -0.461245 0.124580
1.228154 -0.461633 0.147215
1.215861 -0.462472 0.174700
1.193802 -0.462841 0.202343
1.169587 -0.462653 0.231598
-0.103156 -0.067308 -0.047507
-0.103432 -0.071623 -0.044126
0.159512 -0.093739 -0.051680
0.347489 -0.096932 0.015102
0.548037 -0.088465 0.051445
0.702530 -0.071743 0.070817
0.807507 -0.055091 0.081460
0.876390 -0.042357 0.087435
1.077044 0.054598 0.105061
1.112410 0.061992 0.107382
1.156262 0.070006 0.110807
1.169495 0.072500 0.125949
1.165728 0.070382 0.145625
1.164972 0.061667 0.169950
1.164913 0.048409 0.195041
1.164797 0.010746 0.223115
-0.100562 0.095971 -0.070056
-0.114257 0.094715 -0.070042
-0.112806 0.078357 -0.070444
0.307734 0.121177 -0.040896
0.540323 0.121352 0.030408
0.694399 -0.114184 0.035324
0.799029 -0.107083 0.059067
0.865005 -0.077796 0.076765
1.073586 0.047731 0.097690
1.111519 0.061577 0.102388
1.152825 0.069276 0.106870
1.170664 0.072487 0.119475
1.165842 0.072243 0.138872
1.164959 0.064591 0.162679
1.164678 0.052449 0.188570
1.164920 0.024363 0.218472
-0.099784 0.207037 -0.068027
-0.102404 0.206020 -0.068032
-0.141789 0.199636 -0.068198
0.139332 0.178885 -0.068766
0.454695 0.236774 0.092598
0.667769 0.262969 0.101451
0.799540 0.273900 0.112065
0.860327 -0.089150 0.061352
1.062739 -0.121842 0.081757
1.108115 -0.077535 0.091187
1.144754 0.049720 0.097951
1.173057 0.071291 0.109170
1.167218 0.072139 0.124596
1.165524 0.069837 0.147444
1.164703 0.059580 0.174785
1.164721 0.039895 0.206050
-0.099782 0.342079 -0.068015
-0.099793 0.341257 -0.068015
-0.110251 0.336621 -0.068015
-0.181409 0.326318 -0.068016
0.290882 0.300310 0.112052
0.589261 0.360170 0.150493
0.756110 0.348522 0.148451
0.835865 0.348241 0.145615
1.062604 0.334977 0.149040
1.107341 0.177284 0.111260
1.132904 -0.117397 0.098533
1.172531 -0.096746 0.095615
1.168062 -0.032720 0.105634
1.166790 0.066562 0.123594
1.165180 0.068964 0.150224
1.164803 0.054687 0.184761
-0.099782 0.488427 -0.068015
-0.099782 0.487874 -0.068015
-0.099920 0.484422 -0.068015
-0.124829 0.477912 -0.068015
-0.230506 0.465740 -0.068015
0.451721 0.443770 0.135367
0.699474 0.468617 0.168845
0.805300 0.426234 0.189241
1.034297 0.401919 0.177336
1.093794 0.387456 0.176374
1.127263 0.348626 0.161074
1.203766 0.289151 0.154027
1.175388 -0.019143 0.109841
1.165634 -0.128795 0.097001
1.164894 -0.081177 0.114191
1.164337 0.047184 0.149375
-0.099780 0.618009 -0.068015
-0.099780 0.617776 -0.068015
-0.099780 0.615622 -0.068015
-0.100142 0.611354 -0.068015
-0.154662 0.604617 -0.068015
-0.168855 0.593683 -0.068015
0.591972 0.575444 0.180596
0.779361 0.561330 0.146067
0.867723 0.500251 0.222685
1.077131 0.446903 0.207533
1.100274 0.426807 0.198908
1.197515 0.427555 0.210677
1.191620 0.399199 0.193833
1.194234 0.353963 0.181680
1.194891 0.220247 0.138751
1.162508 -0.163206 0.104226
-0.099779 0.724995 -0.068015
-0.099779 0.724769 -0.068015
-0.099779 0.723404 -0.068015
-0.099779 0.720645 -0.068015
-0.108657 0.716009 -0.068015
-0.196240 0.709275 -0.068015
0.234782 0.699662 -0.068014
0.696777 0.686952 0.222304
0.834418 0.642479 0.060070
1.046900 0.565572 0.262715
1.094665 0.490174 0.233835
1.167859 0.472603 0.233358
1.183072 0.476454 0.237207
1.181202 0.464118 0.229299
1.185220 0.439103 0.214384
1.192633 0.392520 0.201188
-0.099778 0.814269 -0.068014
-0.099778 0.814270 -0.068014
-0.099778 0.813125 -0.068014
-0.099778 0.811264 -0.068014
-0.099778 0.808207 -0.068014
-0.122636 0.803449 -0.068014
-0.242834 0.797284 -0.068014
0.432020 0.789501 -0.068014
0.762259 0.779706 0.311174
0.927405 0.708259 0.092848
1.083712 0.618866 0.273391
1.114370 0.534175 0.259198
1.182580 0.529657 0.266231
1.176575 0.510468 0.255471
1.177973 0.492395 0.245505
1.179472 0.477411 0.236719
-0.099775 0.888973 -0.068014
-0.099775 0.888833 -0.068014
-0.099775 0.888217 -0.068014
-0.099775 0.887034 -0.068014
-0.099775 0.885130 -0.068014
-0.099775 0.882034 -0.068014
-0.143683 0.877879 -0.068014
-0.285744 0.872308 -0.068014
0.540968 0.866021 -0.068014
0.806771 0.859166 0.336143
1.081827 0.764771 0.101909
1.104250 0.654956 0.262982
1.180781 0.616264 0.289605
1.175495 0.604356 0.289708
1.172748 0.583801 0.286297
1.173267 0.555721 0.276960
-0.099775 0.924501 -0.068014
-0.099775 0.924467 -0.068014
-0.099775 0.924333 -0.068014
-0.099775 0.924023 -0.068014
-0.099775 0.923357 -0.068014
-0.099775 0.922622 -0.068014
-0.099775 0.921487 -0.068014
-0.161281 0.919842 -0.068014
-0.320056 0.917837 -0.068014
0.609916 0.916410 -0.068014
0.839922 0.917675 0.325205
1.088960 0.827692 0.404509
1.158399 0.699902 0.230279
1.196416 0.693753 0.243226
1.186615 0.677803 0.258621
1.181447 0.655143 0.275264
-0.099773 0.939430 -0.068014
-0.099773 0.939254 -0.068014
-0.099773 0.939260 -0.068014
-0.099773 0.939084 -0.068014
-0.099773 0.938809 -0.068014
-0.099773 0.938391 -0.068014
-0.099773 0.937908 -0.068014
-0.099823 0.937329 -0.068014
-0.181656 0.936340 -0.068014
-0.288368 0.935513 -0.068015
0.664049 0.936094 -0.068014
0.913891 0.940188 0.382649
1.101456 0.864663 0.446121
1.216782 0.786172 -0.032710
1.207997 0.773896 0.079901
1.203109 0.753131 0.140692
-0.099773 0.933878 -0.068014
-0.099773 0.933845 -0.068014
-0.099773 0.933892 -0.068014
-0.099773 0.933862 -0.068014
-0.099773 0.933909 -0.068014
-0.099773 0.933908 -0.068014
-0.099773 0.934223 -0.068014
-0.099773 0.934512 -0.068014
-0.106941 0.934744 -0.068014
-0.205865 0.935209 -0.068015
-0.222247 0.935469 -0.068014
0.691353 0.938828 -0.068012
1.041247 0.940841 0.380007
1.135659 0.900798 0.467804
1.171454 0.894560 0.470730
1.162297 0.877453 0.461753
-0.099770 1.050361 -0.068014
-0.099770 1.050291 -0.068014
-0.099770 1.050454 -0.068014
-0.099770 1.049901 -0.068014
-0.099770 1.049475 -0.068014
-0.099770 1.048771 -0.068014
-0.099770 1.045384 -0.068014
-0.099770 1.040718 -0.068014
-0.099771 1.034895 -0.068014
-0.115907 1.027784 -0.068014
-0.234399 1.019515 -0.068014
0.251558 1.011319 -0.068012
0.710962 0.962848 -0.068012
1.047758 0.935592 0.396366
1.193019 0.931327 0.445628
1.174719 0.925596 0.454586
-0.099770 1.048827 -0.068014
-0.099770 1.048828 -0.068014
-0.099770 1.048839 -0.068014
-0.099770 1.048880 -0.068014
-0.099770 1.048946 -0.068014
-0.099770 1.049102 -0.068014
-0.099770 1.049450 -0.068014
-0.099770 1.049934 -0.068014
-0.099770 1.050599 -0.068014
-0.099770 1.051352 -0.068014
-0.132425 1.052252 -0.068014
-0.274297 1.054275 -0.068014
0.489621 1.057284 -0.068012
0.771407 1.058232 -0.068012
1.152328 1.056798 0.383990
1.209245 1.049219 0.387292
-0.101616 1.107364 -0.076986
-0.112585 1.107364 -0.077285
-0.143773 1.107363 -0.078861
-0.194980 1.107363 -0.082629
-0.254267 1.107361 -0.087415
-0.309810 1.107360 -0.090690
-0.356982 1.107358 -0.091152
-0.410558 1.107356 -0.089370
-0.465471 1.107354 -0.086591
-0.499107 1.107352 -0.084064
-0.514826 1.107350 -0.084297
-0.530193 1.107361 -0.089363
-0.581086 1.107409 -0.097674
0.396313 1.107185 -0.107044
0.758579 1.107758 -0.116444
1.219053 1.099978 0.394778
-0.103155 -0.468508 0.072357
0.010444 -0.468494 0.072369
0.193720 -0.468469 0.079758
0.385833 -0.468177 0.106052
0.587434 -0.467597 0.137085
0.741015 -0.466797 0.152461
0.848328 -0.465897 0.152532
0.924578 -0.465014 0.145175
1.131880 -0.462869 0.142704
1.174854 -0.462145 0.135109
1.218754 -0.461452 0.132547
1.232999 -0.461767 0.152822
1.227598 -0.462536 0.177188
1.216004 -0.463393 0.202093
1.193828 -0.463694 0.226843
1.169619 -0.463294 0.250474
-0.102800 -0.095621 0.064163
-0.109329 -0.096977 0.064184
0.157390 -0.096480 0.069054
0.344894 -0.093490 0.098130
0.547322 -0.085898 0.131171
0.701571 -0.075435 0.148308
0.806926 -0.063364 0.148462
0.872892 -0.050943 0.142801
1.075884 0.052459 0.141697
1.112051 0.062717 0.135293
1.154152 0.070348 0.132359
1.167813 0.069323 0.150331
1.164951 0.060861 0.171851
1.164953 0.048819 0.194416
1.164881 0.026155 0.217447
1.164782 -0.038669 0.239979
-0.100386 0.082751 0.053651
-0.113878 0.080350 0.053797
-0.107285 0.069474 0.054267
0.305293 0.041690 0.057770
0.525638 -0.100338 0.104982
0.686677 -0.114761 0.126945
0.798130 -0.098051 0.133960
0.862224 -0.067470 0.129197
1.072019 0.051876 0.131567
1.111069 0.062321 0.128128
1.150296 0.069570 0.125654
1.168472 0.071453 0.143443
1.164922 0.063800 0.164672
1.164708 0.052814 0.187941
1.164942 0.033908 0.211792
1.164896 -0.033801 0.235485
-0.099784 0.198931 -0.049328
-0.102470 0.197910 -0.048886
-0.141061 0.191656 -0.043160
0.138086 0.172335 0.022778
0.457445 0.244425 0.113804
0.671510 0.275115 0.125119
0.793444 0.177247 0.090966
0.851867 -0.128981 0.106798
1.062273 -0.116419 0.108240
1.107691 -0.063610 0.111441
1.142608 0.058944 0.112575
1.171032 0.072257 0.129140
1.165376 0.069133 0.149687
1.164782 0.059958 0.173941
1.164815 0.045575 0.199146
1.164739 -0.017558 0.226284
-0.099782 0.335679 -0.070204
-0.099793 0.334919 -0.070327
-0.110078 0.330198 -0.070865
-0.181167 0.319572 -0.071914
0.287268 0.292858 0.101480
0.589886 0.359113 0.150483
0.756002 0.365449 0.161309
0.836866 0.368665 0.166774
1.062804 0.317113 0.154542
1.110097 0.058095 0.104835
1.124507 -0.127784 0.101419
1.171812 -0.095505 0.106949
1.165738 0.024343 0.124766
1.165136 0.066787 0.149458
1.164573 0.058568 0.176973
1.164651 0.037756 0.208260
-0.099782 0.483885 -0.068044
-0.099782 0.483449 -0.068050
-0.099915 0.480103 -0.068055
-0.124590 0.473097 -0.068081
-0.230161 0.460894 -0.068261
0.449525 0.438376 0.131496
0.698919 0.463807 0.170933
0.805342 0.425397 0.187765
1.033818 0.409616 0.181022
1.093334 0.397132 0.186050
1.130735 0.363525 0.180977
1.199064 0.284531 0.157940
1.169476 -0.134496 0.112256
1.163921 -0.128810 0.111425
1.163914 -0.073661 0.140095
1.164229 0.043395 0.176616
-0.099780 0.615360 -0.068015
-0.099780 0.614923 -0.068015
-0.099780 0.612906 -0.068015
-0.100140 0.608421 -0.068015
-0.154460 0.601543 -0.068015
-0.168450 0.590548 -0.068015
0.591113 0.572108 0.183108
0.778939 0.558336 0.150067
0.867685 0.496877 0.221339
1.077203 0.444428 0.205530
1.100368 0.424946 0.196754
1.197694 0.429889 0.212311
1.191886 0.408668 0.208560
1.190438 0.379921 0.200099
1.176973 0.101226 0.131330
1.161102 -0.164629 0.124305
-0.099779 0.723225 -0.068015
-0.099779 0.722851 -0.068015
-0.099779 0.721619 -0.068015
-0.099779 0.718480 -0.068015
-0.108652 0.713802 -0.068015
-0.196161 0.707191 -0.068015
0.235092 0.697635 -0.068014
0.696463 0.684682 0.219099
0.834278 0.640335 0.067687
1.046903 0.563331 0.261973
1.094849 0.488117 0.232670
1.168002 0.471358 0.232327
1.183242 0.474829 0.235460
1.181789 0.465338 0.228927
1.186570 0.442950 0.224433
1.191745 0.414589 0.219332
-0.099778 0.812942 -0.068014
-0.099778 0.812923 -0.068014
-0.099778 0.811994 -0.068014
-0.099778 0.810181 -0.068014
-0.099778 0.806775 -0.068014
-0.122641 0.802204 -0.068014
-0.242837 0.796084 -0.068014
0.432384 0.787955 -0.068014
0.762511 0.778415 0.308440
0.927929 0.706312 0.099708
1.083432 0.617215 0.273633
1.114455 0.532637 0.258474
1.182707 0.528109 0.265463
1.176656 0.508922 0.254438
1.178151 0.490763 0.243897
1.179608 0.475275 0.234326
-0.099775 0.888213 -0.068014
-0.099775 0.888207 -0.068014
-0.099775 0.887417 -0.068014
-0.099775 0.886301 -0.068014
-0.099775 0.884176 -0.068014
-0.099775 0.881174 -0.068014
-0.143717 0.876782 -0.068014
-0.285848 0.871412 -0.068014
0.541356 0.864929 -0.068014
0.807107 0.858121 0.337268
1.081641 0.763159 0.106100
1.104053 0.653670 0.263704
1.180622 0.615052 0.289737
1.175373 0.603163 0.289705
1.172723 0.582359 0.285950
1.173341 0.554170 0.276330
-0.099775 0.924203 -0.068014
-0.099775 0.924230 -0.068014
-0.099775 0.924037 -0.068014
-0.099775 0.923833 -0.068014
-0.099775 0.923156 -0.068014
-0.099775 0.922335 -0.068014
-0.099775 0.921236 -0.068014
-0.161351 0.919670 -0.068014
-0.320202 0.917496 -0.068014
0.610309 0.916228 -0.068014
0.840300 0.917150 0.326611
1.089083 0.826205 0.402277
1.158116 0.698743 0.231658
1.196096 0.692488 0.244579
1.186318 0.676653 0.259604
1.181183 0.654015 0.275904
-0.099773 0.939249 -0.068014
-0.099773 0.939271 -0.068014
-0.099773 0.939209 -0.068014
-0.099773 0.938989 -0.068014
-0.099773 0.938645 -0.068014
-0.099773 0.938377 -0.068014
-0.099773 0.937817 -0.068014
-0.099823 0.937214 -0.068014
-0.181755 0.936255 -0.068014
-0.288364 0.935238 -0.068015
0.664165 0.936025 -0.068014
0.917808 0.940400 0.378737
1.101194 0.863381 0.445248
1.216639 0.785176 -0.022413
1.207868 0.772934 0.083732
1.202983 0.751886 0.143453
-0.099773 0.933900 -0.068014
-0.099773 0.933877 -0.068014
-0.099773 0.933863 -0.068014
-0.099773 0.933863 -0.068014
-0.099773 0.933869 -0.068014
-0.099773 0.933881 -0.068014
-0.099773 0.934329 -0.068014
-0.099773 0.934594 -0.068014
-0.106966 0.934792 -0.068014
-0.205977 0.935223 -0.068015
-0.222781 0.935470 -0.068014
0.691393 0.938845 -0.068012
1.042153 0.941058 0.379597
1.135561 0.900335 0.467654
1.171438 0.893912 0.470485
1.162248 0.876459 0.461216
-0.099770 1.050376 -0.068014
-0.099770 1.050322 -0.068014
-0.099770 1.050079 -0.068014
-0.099770 1.049945 -0.068014
-0.099770 1.049127 -0.068014
-0.099770 1.048332 -0.068014
-0.099770 1.044688 -0.068014
-0.099770 1.039809 -0.068014
-0.099771 1.033996 -0.068014
-0.115940 1.026868 -0.068014
-0.234507 1.018568 -0.068014
0.251729 1.010905 -0.068012
0.711124 0.959154 -0.068012
1.047513 0.934909 0.398137
1.192922 0.931064 0.446214
1.174700 0.925376 0.454907
-0.099770 1.048826 -0.068014
-0.099770 1.048836 -0.068014
-0.099770 1.048858 -0.068014
-0.099770 1.048898 -0.068014
-0.099770 1.048977 -0.068014
-0.099770 1.049158 -0.068014
-0.099770 1.049529 -0.068014
-0.099770 1.050030 -0.068014
-0.099770 1.050681 -0.068014
-0.099770 1.051453 -0.068014
-0.132454 1.052345 -0.068014
-0.274340 1.054458 -0.068014
0.489720 1.057416 -0.068012
0.771464 1.058227 -0.068012
1.152336 1.056689 0.383940
1.209230 1.049105 0.387236
-0.102344 1.107364 -0.092861
-0.115353 1.107364 -0.093006
-0.146581 1.107363 -0.094579
-0.195633 1.107363 -0.099300
-0.253836 1.107361 -0.106252
-0.309288 1.107359 -0.112650
-0.356291 1.107358 -0.116390
-0.409731 1.107355 -0.116669
-0.464851 1.107352 -0.113521
-0.498535 1.107349 -0.108276
-0.513975 1.107347 -0.105780
-0.529366 1.107362 -0.109692
-0.580512 1.107417 -0.116858
0.397140 1.107200 -0.124135
0.758983 1.107777 -0.131051
1.219273 1.099990 0.392388
-0.102775 -0.468471 0.136980
0.063914 -0.468471 0.137243
0.219683 -0.468474 0.141064
0.385835 -0.468431 0.170383
0.587918 -0.468398 0.202543
0.741881 -0.468014 0.222683
0.849430 -0.467419 0.230787
0.924170 -0.466728 0.229385
1.132651 -0.464987 0.221036
1.176301 -0.464027 0.203528
1.217425 -0.463129 0.190197
1.232721 -0.463638 0.208757
1.227836 -0.464399 0.228215
1.216196 -0.465025 0.245986
1.193739 -0.465000 0.263321
1.169795 -0.464267 0.279892
-0.103856 -0.096306 0.126941
-0.109677 -0.095461 0.127161
0.188158 -0.093523 0.129003
0.345289 -0.090484 0.154893
0.547263 -0.087412 0.188751
0.702053 -0.083335 0.210719
0.807785 -0.078004 0.220056
0.872315 -0.071697 0.219380
1.076290 -0.036390 0.211800
1.113223 0.032308 0.195399
1.151994 0.053463 0.182318
1.167175 0.045335 0.200163
1.164903 0.025235 0.217974
1.164891 -0.032641 0.234509
1.164624 -0.047797 0.250539
1.164921 -0.057915 0.266642
-0.100569 0.063441 0.118925
-0.116287 0.059757 0.119192
-0.098081 -0.051002 0.119587
0.298552 -0.078238 0.141015
0.518424 -0.106878 0.181090
0.686256 -0.102282 0.206838
0.799702 -0.088881 0.217508
0.862418 -0.075641 0.215251
1.072298 -0.033821 0.205605
1.111905 0.036521 0.190273
1.147968 0.055908 0.175844
1.167815 0.049648 0.194078
1.164953 0.033407 0.212174
1.164660 -0.026509 0.230227
1.164696 -0.044568 0.246380
1.164955 -0.056310 0.263627
-0.099783 0.180702 0.107240
-0.102738 0.179701 0.107174
-0.139971 0.173069 0.106533
0.126939 0.161778 0.103218
0.459756 0.162664 0.113316
0.666344 0.111817 0.120456
0.786844 -0.115347 0.166438
0.849138 -0.129890 0.182898
1.061792 -0.103253 0.193385
1.108345 -0.049462 0.178267
1.139429 0.056659 0.162488
1.168963 0.057758 0.180293
1.164778 0.044703 0.200288
1.164882 0.021444 0.219907
1.164777 -0.036547 0.237932
1.165005 -0.052177 0.257042
-0.099783 0.323059 0.105412
-0.099794 0.322303 0.105755
-0.109471 0.317324 0.107160
-0.179315 0.306975 0.110868
0.278181 0.284852 0.132391
0.592425 0.347096 0.171359
0.759827 0.366403 0.180336
0.839247 0.327416 0.162759
1.059053 0.214839 0.130159
1.101900 -0.130849 0.147757
1.122102 -0.130043 0.136453
1.168976 -0.078966 0.154560
1.163977 0.030450 0.177849
1.164686 0.042587 0.200824
1.164732 0.013199 0.222640
1.164735 -0.042826 0.244392
-0.099784 0.474885 -0.052791
-0.099784 0.474207 -0.052145
-0.099893 0.470917 -0.048435
-0.123536 0.463744 -0.038738
-0.230377 0.451331 -0.021582
0.443774 0.428600 0.142826
