lut/31766330-448a-4156-bb83-aec93bb146d2.cube
TITLE "Vibrant Golden Forest"
LUT_3D_SIZE 6
-0.105987 -0.090487 -0.068093
0.358709 -0.083147 -0.059288
0.809220 -0.054381 0.067950
1.112622 0.061864 0.102877
1.165728 0.071685 0.140887
1.164913 0.021835 0.219741
-0.099784 0.208944 -0.068015
0.139532 0.181382 -0.068035
0.798300 0.268323 0.105381
1.107959 -0.075483 0.087546
1.167657 0.072041 0.119136
1.164915 0.044652 0.200385
-0.099780 0.618643 -0.068015
-0.100143 0.612056 -0.068015
0.592347 0.576301 0.180402
1.077114 0.447379 0.207818
1.191523 0.396216 0.192144
1.162918 -0.164640 0.101347
-0.099775 0.889129 -0.068014
-0.099775 0.887355 -0.068014
-0.143670 0.878234 -0.068014
0.806715 0.859351 0.335831
1.180819 0.616537 0.289557
1.173251 0.556103 0.277093
-0.099773 0.933855 -0.068014
-0.099773 0.933855 -0.068014
-0.099773 0.934127 -0.068014
-0.205849 0.935280 -0.068015
1.041118 0.940794 0.380224
1.162306 0.877611 0.461860
-0.101637 1.107364 -0.070948
-0.195720 1.107363 -0.072162
-0.358151 1.107360 -0.073996
-0.499675 1.107354 -0.074711
-0.581604 1.107408 -0.087609
1.218960 1.099977 0.396190
-0.102775 -0.468471 0.136980
0.385835 -0.468431 0.170383
0.849430 -0.467419 0.230787
1.176301 -0.464027 0.203528
1.227836 -0.464399 0.228215
1.169795 -0.464267 0.279892
-0.099783 0.180702 0.107240
0.126939 0.161778 0.103218
0.786844 -0.115347 0.166438
1.108345 -0.049462 0.178267
1.164778 0.044703 0.200288
1.165005 -0.052177 0.257042
-0.099780 0.609674 -0.071262
-0.100028 0.602767 -0.072007
0.588723 0.564866 0.192329
1.074954 0.470176 0.223383
1.190050 0.436907 0.237947
1.159040 -0.178595 0.179911
-0.099775 0.886659 -0.068014
-0.099775 0.884604 -0.068014
-0.143802 0.875025 -0.068014
0.807925 0.855868 0.339714
1.180340 0.612603 0.289980
1.173598 0.548269 0.272842
-0.099773 0.933874 -0.068014
-0.099773 0.933842 -0.068014
-0.099773 0.934348 -0.068014
-0.206184 0.935275 -0.068015
1.043783 0.941499 0.378564
1.162242 0.874375 0.459947
-0.103490 1.107364 -0.121186
-0.199505 1.107363 -0.124828
-0.355801 1.107357 -0.141519
-0.498130 1.107348 -0.134472
-0.580000 1.107426 -0.138086
1.219380 1.100003 0.389054
-0.086801 -0.468471 0.446068
0.488242 -0.468471 0.449060
0.849150 -0.468259 0.457138
1.179368 -0.468004 0.383960
1.227193 -0.467840 0.377255
1.168036 -0.465607 0.401030
-0.099784 -0.124484 0.404677
0.266977 -0.133684 0.407579
0.781211 -0.105340 0.431018
1.112060 -0.083222 0.361098
1.164613 -0.080822 0.350473
1.164152 -0.080700 0.373736
-0.099783 0.564740 0.362227
-0.100103 0.556060 0.362238
0.570494 0.519070 0.388938
1.076272 0.463049 0.342667
1.176111 0.190299 0.267033
1.162717 -0.142403 0.349352
-0.099784 0.874408 0.214643
-0.099784 0.871974 0.218996
-0.134120 0.861415 0.238491
0.809173 0.840926 0.382255
1.185296 0.655688 0.365990
1.177035 0.642015 0.415982
-0.099773 0.934502 -0.068014
-0.099773 0.934445 -0.068014
-0.099773 0.934989 -0.068014
-0.207478 0.935573 -0.069104
1.053679 0.944634 0.370654
1.162377 0.860940 0.448867
-0.107881 1.107364 -0.242871
-0.222816 1.107364 -0.243656
-0.358017 1.107358 -0.243960
-0.497400 1.107344 -0.209532
-0.578838 1.107572 -0.202325
1.220054 1.100093 0.369934
0.046753 -0.468471 0.723482
0.486046 -0.468471 0.724492
0.848929 -0.468472 0.718301
1.179099 -0.467969 0.601596
1.224682 -0.467781 0.557680
1.165865 -0.465607 0.578662
-0.099761 -0.087270 0.678737
0.283759 -0.086542 0.679645
0.786310 -0.086490 0.676902
1.111666 -0.081719 0.573080
1.162075 -0.080085 0.521474
1.161968 -0.080063 0.541069
-0.099783 0.487679 0.656109
-0.100454 0.479546 0.657132
0.566088 0.378768 0.661679
1.088091 0.262715 0.571311
1.161281 -0.179735 0.496968
1.161810 -0.088078 0.518062
-0.099783 0.846010 0.576513
-0.099784 0.843181 0.578927
-0.134652 0.830955 0.589386
0.821871 0.801428 0.645517
1.179543 0.781682 0.626228
1.164004 0.675903 0.592901
-0.099783 0.935451 0.368527
-0.099783 0.935472 0.370603
-0.099783 0.935675 0.379554
-0.213020 0.940954 0.396086
1.072325 0.941450 0.621122
1.168491 0.894172 0.651588
-0.110977 1.107328 -0.325292
-0.213349 1.107340 -0.323918
-0.349962 1.107341 -0.317802
-0.498474 1.107508 -0.270758
-0.584899 1.108066 -0.224547
1.221120 1.104726 0.413387
0.093864 -0.468765 0.846631
0.421262 -0.468767 0.846720
0.761749 -0.468773 0.847058
1.172729 -0.468810 0.830746
1.237528 -0.468482 0.800808
1.182019 -0.467723 0.808149
-0.099761 -0.086487 0.809059
0.251357 -0.086487 0.809215
0.696806 -0.086487 0.809883
1.101469 -0.086737 0.791675
1.174262 -0.083454 0.762496
1.179528 -0.084432 0.780521
-0.099790 0.165834 0.804992
-0.101067 0.138102 0.805245
0.521207 -0.147663 0.806160
1.031477 -0.144080 0.785364
1.169000 -0.088670 0.741638
1.173315 -0.083253 0.759238
-0.099784 0.679437 0.792899
-0.099784 0.675619 0.793502
-0.135622 0.657805 0.794519
0.809475 0.744524 0.796963
1.190922 0.690578 0.744162
1.180650 0.537889 0.735258
-0.099783 0.942732 0.694336
-0.099783 0.942853 0.697075
-0.099783 0.942949 0.708801
-0.213625 0.941947 0.731759
1.089603 0.937279 0.817897
1.169934 0.934859 0.816018
-0.112283 1.108198 0.465948
-0.193151 1.108250 0.466917
-0.315121 1.108376 0.471183
-0.473873 1.108748 0.479107
-0.621797 1.110937 0.476026
1.210707 1.110536 0.751947
0.133599 -0.468925 0.905553
0.408827 -0.468925 0.905405
0.735387 -0.468929 0.905007
1.151686 -0.468935 0.890629
1.246000 -0.468924 0.887317
1.184603 -0.468625 0.882863
-0.099763 -0.086487 0.889104
0.253095 -0.086487 0.889104
0.668934 -0.086487 0.889104
1.075892 -0.086487 0.873684
1.184014 -0.086486 0.872432
1.184014 -0.086486 0.872432
-0.099735 -0.088823 0.889104
-0.101311 -0.086563 0.889104
0.497903 -0.086487 0.889104
0.849573 -0.086487 0.889118
1.184547 -0.086486 0.872396
1.184014 -0.086486 0.872432
-0.099783 0.525227 0.889104
-0.099783 0.521108 0.889104
-0.135994 0.502509 0.889104
0.754032 0.593285 0.889104
1.203988 0.417360 0.873329
1.186126 -0.240760 0.872256
-0.099783 0.857708 0.889224
-0.099783 0.855041 0.889178
-0.099783 0.844127 0.889182
-0.214897 0.818543 0.889151
1.093550 0.928061 0.896677
1.195505 0.902014 0.892779
-0.099783 1.051068 0.838810
-0.099783 1.051222 0.839336
-0.099783 1.052194 0.842247
-0.099783 1.054692 0.848148
-0.415804 1.057646 0.858613
1.211219 1.064504 0.909404
