lut/3714f921-07b6-48c4-8f0a-26c5acae539b.cube
TITLE "Faded Vintage Film"
LUT_3D_SIZE 9
-0.00086821 0.00407325 0.00536946
0.00366563 0.00280695 0.00285351
0.09118543 -0.00390439 -0.00353728
0.24821690 -0.01778803 -0.01629511
0.43660393 -0.03495821 -0.03306780
0.62515652 -0.05288606 -0.04985948
0.77666807 -0.06906068 -0.06488819
0.89681113 -0.08342797 -0.07890949
0.99012411 -0.09509967 -0.09111716
-0.01559235 0.05748700 0.08911102
-0.00824635 0.06150552 0.07405620
0.09656407 0.05748202 0.05810878
0.26771972 0.04110258 0.03124772
0.46604079 0.02222133 0.00029309
0.64684141 0.00515647 -0.02707831
0.78999990 -0.00976193 -0.05133469
0.90365547 -0.02172569 -0.07272466
0.99305874 -0.03046035 -0.09067468
-0.04172415 0.14090775 0.21851544
-0.02762722 0.14385752 0.20613505
0.08143170 0.15523064 0.16689602
0.26633605 0.14395320 0.12796015
0.46849069 0.12902147 0.08102503
0.64287037 0.11008625 0.03345914
0.78242874 0.09527306 -0.00702409
0.89555717 0.08565611 -0.03979677
0.98546565 0.08041976 -0.06534451
-0.07235672 0.24524899 0.37162045
-0.05696744 0.24987949 0.36625001
0.04648767 0.25773752 0.32202941
0.22769170 0.26606295 0.26732954
0.46795666 0.25605398 0.19526412
0.62817043 0.24558766 0.13969721
0.76463479 0.22797176 0.08143435
0.87862045 0.22001944 0.03812510
0.97299457 0.22030449 0.00769182
-0.09420791 0.37577456 0.53882951
-0.08355968 0.38358620 0.54170537
0.01897922 0.38668084 0.49669456
0.20443656 0.39310196 0.43805602
0.40900829 0.40505764 0.38633338
0.63278854 0.39865652 0.29183969
0.76739740 0.38532224 0.22759564
0.87347555 0.38351935 0.18498555
0.96319687 0.39139834 0.15741961
-0.09587657 0.50949138 0.68020445
-0.09175281 0.52121383 0.69019854
0.00351830 0.52798384 0.65875018
0.19343768 0.53612721 0.60407364
0.39633110 0.54261571 0.55312586
0.58288759 0.55557847 0.51651585
0.75140065 0.54879498 0.45016575
0.87440282 0.54329944 0.40684062
0.95638704 0.54954368 0.38874930
-0.08469024 0.62461007 0.78588879
-0.08378892 0.63567358 0.79591131
-0.00401288 0.64575100 0.77602696
0.19262061 0.65585184 0.72576350
0.39415267 0.66586983 0.68757451
0.57047713 0.67214459 0.65009099
0.71061599 0.67654401 0.62125182
0.83418727 0.67514205 0.58645993
0.93295598 0.67331409 0.56160480
-0.08559033 0.71937090 0.86071217
-0.08615104 0.72792852 0.86739272
-0.01696219 0.74416989 0.86047578
0.18602183 0.75086522 0.82306594
0.38757592 0.76642162 0.79124665
0.56790125 0.77446461 0.75942230
0.70032024 0.77185750 0.73228765
0.80537707 0.77254790 0.71266890
0.88689899 0.77121484 0.69698030
-0.08721597 0.78508884 0.90851706
-0.08658237 0.79632896 0.91824549
-0.02476710 0.81715697 0.92562246
0.17788395 0.82858294 0.89406222
0.37915429 0.84465367 0.87057054
0.55834448 0.85303682 0.84724265
0.69120055 0.85043895 0.82359511
0.79145908 0.84528160 0.80279756
0.86672568 0.84333879 0.78970474
-0.01434347 0.05316969 0.08224782
-0.00759651 0.05666647 0.06677780
0.08061717 0.05832040 0.05975510
0.24125506 0.05059232 0.04161380
0.43603966 0.03740029 0.01356607
0.62456709 0.02199373 -0.01607213
0.77506351 0.00743967 -0.04332400
0.89471072 -0.00532340 -0.06780206
0.98795694 -0.01510412 -0.08808385
-0.01762916 0.06460088 0.10042837
-0.00971894 0.06970359 0.08793478
0.09542015 0.06855672 0.06999736
0.26734835 0.05591747 0.04420940
0.46727088 0.03882150 0.01144433
0.64739496 0.02200644 -0.01896310
0.79012179 0.00709923 -0.04591417
0.90397233 -0.00518475 -0.06946429
0.99327207 -0.01419975 -0.08902722
-0.04197796 0.14171232 0.21973138
-0.02787081 0.14477685 0.20758255
0.08428229 0.15580821 0.16665755
0.26107156 0.14607872 0.13101643
0.46729347 0.13017166 0.08221396
0.64339656 0.11069147 0.03374028
0.78327686 0.09571971 -0.00702003
0.89687645 0.08607177 -0.03995793
0.98687661 0.08074085 -0.06562465
-0.07251877 0.24588254 0.37250385
-0.05715370 0.25053203 0.36719930
0.04895832 0.25817648 0.32168797
0.22838134 0.26656309 0.26776057
0.44893444 0.26196951 0.20619670
0.62743402 0.24696782 0.14114383
0.76530743 0.22855704 0.08165059
0.87971592 0.22062485 0.03821222
0.97423339 0.22074880 0.00759250
-0.09427340 0.37658194 0.53975278
-0.08368026 0.38446313 0.54275680
0.02024906 0.38738734 0.49703932
0.20656662 0.39342493 0.43773505
0.40992489 0.40581068 0.38698792
0.62874174 0.40131611 0.29643676
0.75702393 0.39377213 0.24066341
0.87279111 0.38564745 0.18748324
0.96402371 0.39235002 0.15810233
-0.09583619 0.51031828 0.68099958
-0.09167549 0.52203465 0.69099438
0.00418197 0.52878922 0.65936601
0.19447306 0.53684080 0.60450339
0.39730740 0.54337275 0.55375683
0.58357680 0.55627203 0.51712614
0.75404131 0.54868805 0.44920161
0.86952651 0.54694229 0.41311935
0.95058107 0.55539185 0.39883408
-0.08462831 0.62544978 0.78661323
-0.08373339 0.63644665 0.79657167
-0.00392020 0.64652276 0.77665275
0.19322327 0.65655303 0.72627068
0.39482951 0.66654360 0.68810892
0.57106006 0.67285061 0.65070808
0.71126789 0.67719537 0.62182742
0.83838743 0.67477310 0.58495909
0.93275678 0.67399883 0.56256104
-0.08564837 0.72017455 0.86128652
-0.08620254 0.72862464 0.86788201
-0.01780212 0.74491417 0.86131644
0.18549183 0.75161546 0.82389843
0.38747013 0.76711226 0.79194999
0.56799364 0.77522486 0.76022398
0.70065588 0.77255797 0.73301119
0.80581874 0.77321285 0.71337092
0.88783342 0.77158207 0.69729704
-0.08721597 0.78508884 0.90851706
-0.08658237 0.79632896 0.91824549
-0.02558774 0.81714195 0.92575884
0.17679173 0.82849008 0.89419645
0.37822044 0.84458679 0.87068653
0.55789548 0.85321951 0.84752268
0.69118947 0.85054392 0.82372040
0.79166436 0.84563285 0.80320007
0.86685139 0.84367949 0.79011762
-0.03503671 0.11999790 0.18668014
-0.02151622 0.12135324 0.17071790
0.06515194 0.14176612 0.15376993
0.23128638 0.14247179 0.13203110
0.43748999 0.13573165 0.09189221
0.62270403 0.11971397 0.04409881
0.76941162 0.10554947 0.00129120
0.88707650 0.09566186 -0.03367622
0.98001325 0.08940618 -0.06090970
-0.04151324 0.14023861 0.21750456
-0.02755381 0.14361390 0.20575331
0.07612125 0.15757653 0.17218116
0.25420260 0.15311137 0.13931233
0.46446979 0.14125712 0.09188169
0.64173001 0.12236173 0.04181993
0.78169620 0.10706407 -0.00100249
0.89481944 0.09717517 -0.03514077
0.98481292 0.09119178 -0.06164438
-0.04310040 0.14526694 0.22510247
-0.02957688 0.15136100 0.21797067
0.08197975 0.16268399 0.17727445
0.25685793 0.15563543 0.14139119
0.46439114 0.14201848 0.09252653
0.64277130 0.12212946 0.04142667
0.78259641 0.10676074 -0.00138736
0.89646083 0.09685467 -0.03568837
0.98703003 0.09108181 -0.06228993
-0.07266952 0.24647108 0.37332529
-0.05733011 0.25114983 0.36809808
0.05043397 0.25878590 0.32195243
0.23129119 0.26682335 0.26709509
0.44177973 0.26459733 0.21100542
0.62700695 0.24800640 0.14219140
0.76565021 0.22928545 0.08209470
0.88037038 0.22117393 0.03837960
0.97521579 0.22117943 0.00756470
-0.09432874 0.37726173 0.54053080
-0.08377112 0.38512391 0.54354864
0.02205220 0.38783664 0.49690431
0.20946310 0.39351681 0.43687454
0.41156000 0.40609634 0.38683867
0.61521393 0.40751347 0.30871490
0.75414288 0.39687333 0.24524148
0.87345427 0.38645259 0.18807134
0.96460205 0.39315435 0.15872906
-0.09580447 0.51096678 0.68162292
-0.09161387 0.52268773 0.69162738
0.00482199 0.52945131 0.65983880
0.19585794 0.53728056 0.60452151
0.39863002 0.54386377 0.55399865
0.58427513 0.55679566 0.51753563
0.75255424 0.54988313 0.45119658
0.86007804 0.55302107 0.42377475
0.94540173 0.55931801 0.40602890
-0.08458172 0.62609506 0.78716487
-0.08368687 0.63708657 0.79712170
-0.00368845 0.64713705 0.77709824
0.19397716 0.65702933 0.72652465
0.39565527 0.66714418 0.68852657
0.57167864 0.67334771 0.65109491
0.71173596 0.67774665 0.62233871
0.84214950 0.67424214 0.58333319
0.93235850 0.67536831 0.56447345
-0.08569653 0.72083771 0.86176050
-0.08624707 0.72922593 0.86830431
-0.01840062 0.74559528 0.86204255
0.18533233 0.75215667 0.82444870
0.38767156 0.76767075 0.79245043
0.56825542 0.77573460 0.76072377
0.70098144 0.77307945 0.73353517
0.80615950 0.77371693 0.71390194
0.88923293 0.77171844 0.69725186
-0.08721598 0.78508890 0.90851718
-0.08658237 0.79632896 0.91824549
-0.02650503 0.81712502 0.92591256
0.17561162 0.82838964 0.89434183
0.37729406 0.84452057 0.87080115
0.55743533 0.85321176 0.84759283
0.69109040 0.85054922 0.82374066
0.79182166 0.84562743 0.80317062
0.86702490 0.84375381 0.79018807
-0.06193295 0.20697482 0.31694445
-0.04483844 0.20596276 0.30133769
0.03941253 0.22806092 0.28465724
0.20465726 0.24883814 0.25222239
0.41950509 0.25462067 0.20698853
0.61236250 0.24470460 0.14393768
0.75601357 0.22832659 0.08464666
0.87274194 0.22013523 0.04002222
0.96899980 0.21907333 0.00817376
-0.06967843 0.23477124 0.35695574
-0.05405051 0.23906970 0.35043472
0.04620193 0.25201634 0.31442231
0.22340560 0.26416805 0.26627994
0.44382662 0.26536885 0.21119970
0.62788904 0.25037357 0.14397874
0.76570690 0.23188426 0.08410874
0.87951297 0.22312932 0.04003554
0.97368789 0.22206223 0.00862246
-0.07133310 0.24124539 0.36603507
-0.05672992 0.24904697 0.36503914
0.04909567 0.25735912 0.32053372
0.22550374 0.26490450 0.26653710
0.44152188 0.26489916 0.21139231
0.62830806 0.25003141 0.14354432
0.76650858 0.23148458 0.08351094
0.88094008 0.22302666 0.03947959
0.97599846 0.22225398 0.00802046
-0.07281124 0.24702476 0.37409776
-0.05749021 0.25171036 0.36891371
0.04999601 0.25958097 0.32318980
0.23171528 0.26797450 0.26849306
0.44139168 0.26604855 0.21261495
0.62513399 0.25000998 0.14454956
0.76579618 0.23026049 0.08280511
0.88074583 0.22184666 0.03872129
0.97586155 0.22167832 0.00768744
-0.09437623 0.37784714 0.54120070
-0.08386307 0.38578996 0.54434699
0.02290922 0.38848495 0.49735826
0.21242602 0.39381859 0.43624797
0.41823387 0.40537143 0.38359749
0.60616910 0.41172889 0.31715700
0.75406963 0.39780167 0.24629174
0.87390161 0.38719365 0.18867578
0.96486419 0.39392236 0.15944622
-0.09577978 0.51147431 0.68211079
-0.09156262 0.52325314 0.69217551
0.00545193 0.53007227 0.66027212
0.19861875 0.53738868 0.60373747
0.40150377 0.54389340 0.55331737
0.58568698 0.55691850 0.51727223
0.74475813 0.55302173 0.45771790
0.85351688 0.55741578 0.43122691
0.94487286 0.56041086 0.40771571
-0.08454611 0.62658703 0.78758579
-0.08364891 0.63760567 0.79756892
-0.00329650 0.64772576 0.77746898
0.19479634 0.65750837 0.72676408
0.39672601 0.66758919 0.68871546
0.57255715 0.67375118 0.65132236
0.71228981 0.67816222 0.62267637
0.84342927 0.67430174 0.58308607
0.93130326 0.67790604 0.56798309
-0.08573741 0.72140193 0.86216444
-0.08628809 0.72978073 0.86869442
-0.01855045 0.74609441 0.86250114
0.18558404 0.75260359 0.82481635
0.38819909 0.76816571 0.79281068
0.56889695 0.77612633 0.76102597
0.70139092 0.77347839 0.73390555
0.80644232 0.77407354 0.71426946
0.89129525 0.77153111 0.69669628
-0.08721597 0.78508884 0.90851706
-0.08658237 0.79632896 0.91824549
-0.02722748 0.81711149 0.92603356
0.17517304 0.82835090 0.89439726
0.37690133 0.84449273 0.87084985
0.55729443 0.85320938 0.84761435
0.69113553 0.85054690 0.82373148
0.79197884 0.84562171 0.80314106
0.86719757 0.84375292 0.79016399
-0.08673581 0.31460088 0.46441606
-0.07152209 0.31189907 0.45188835
0.01671197 0.33611110 0.43611681
0.18796137 0.36028394 0.40307540
0.39175263 0.38198644 0.36305892
0.59807938 0.39288995 0.29816455
0.74768817 0.38191128 0.23115978
0.86739767 0.37133387 0.17446184
0.96721661 0.37397173 0.13708344
-0.09194306 0.35243872 0.51121986
-0.07982565 0.35822833 0.51104283
0.02423497 0.37114540 0.47614712
0.20662940 0.38204557 0.42376614
0.41429377 0.39742407 0.37463325
0.61209303 0.40170529 0.30311912
0.75639069 0.38677815 0.23319922
0.87413055 0.37535623 0.17608088
0.97139585 0.37868711 0.14040986
-0.09295409 0.36089644 0.52145034
-0.08201014 0.37198925 0.52776718
0.02606284 0.37650055 0.48186746
0.20844711 0.38124299 0.42215040
0.41312209 0.39492878 0.37179545
0.61237746 0.40109745 0.30230245
0.75708050 0.38636130 0.23248959
0.87558436 0.37542331 0.17555858
0.97365034 0.37954262 0.14040504
-0.09280885 0.35968813 0.51998806
-0.08189223 0.37107137 0.52666461
0.02692498 0.37628567 0.48128986
0.21191373 0.37977633 0.41914812
0.41199011 0.39257503 0.36912823
0.60805255 0.39921769 0.30172038
0.75597739 0.38491341 0.23132074
0.87501073 0.37383944 0.17410637
0.97386730 0.37782842 0.13847539
-0.09441734 0.37835377 0.54177982
-0.08394013 0.38634452 0.54501247
0.02222789 0.38939735 0.49870107
0.21354216 0.39465979 0.43689910
0.41268629 0.40752339 0.38826716
0.60417801 0.41325513 0.31980360
0.75269711 0.39933231 0.24851170
0.87415272 0.38791072 0.18933085
0.96489084 0.39478117 0.16035788
-0.09575991 0.51188213 0.68250358
-0.09152447 0.52372569 0.69263303
0.00578198 0.53067005 0.66078663
0.20086086 0.53767604 0.60331219
0.40460849 0.54414254 0.55282032
0.59251440 0.55564797 0.51312923
0.73324966 0.55773950 0.46728504
0.85289949 0.55836397 0.43262500
0.94503587 0.56100667 0.40847594
-0.08451755 0.62698388 0.78792524
-0.08362407 0.63794696 0.79786259
-0.00289776 0.64819652 0.77773714
0.19577834 0.65790182 0.72689646
0.39915103 0.66782290 0.68832254
0.57430440 0.67368674 0.65086067
0.71342814 0.67828453 0.62254006
0.84076506 0.67547178 0.58524030
0.92220145 0.68160552 0.57474983
-0.08576846 0.72183019 0.86247045
-0.08631726 0.73017573 0.86897135
-0.01845548 0.74652278 0.86284882
0.18624519 0.75298238 0.82502627
0.38903180 0.76854807 0.79298788
0.56929809 0.77643174 0.76127982
0.70178300 0.77376056 0.73414785
0.80676299 0.77444905 0.71465182
0.89396632 0.77102470 0.69564611
-0.08721597 0.78508884 0.90851706
-0.08658237 0.79632896 0.91824549
-0.02763731 0.81710428 0.92610216
0.17433298 0.82827705 0.89450359
0.37687182 0.84449059 0.87085295
0.55768692 0.85321593 0.84755445
0.69161195 0.85052210 0.82363415
0.79225826 0.84561151 0.80308884
0.86737829 0.84375238 0.79013890
-0.09715757 0.43871984 0.60866660
-0.08915071 0.43790615 0.60335863
0.00282146 0.46556047 0.59199131
0.18249783 0.49300233 0.56076276
0.38509232 0.51109827 0.51940894
0.58047163 0.53087389 0.48569870
0.73563504 0.53385472 0.43483257
0.85136783 0.53270304 0.39957315
0.94540924 0.53383517 0.37037581
-0.09701597 0.47908691 0.65018356
-0.09152330 0.48858538 0.65731215
0.01136282 0.50516313 0.63181144
0.20079686 0.51764727 0.58163345
0.40540394 0.52698255 0.53267801
0.59250927 0.53928590 0.49200165
0.74167365 0.53907186 0.44026598
0.85680217 0.53690398 0.40350169
0.95012504 0.53806430 0.37472987
-0.09687418 0.48692015 0.65800136
-0.09134103 0.50172317 0.67058820
0.01229918 0.51148552 0.63834828
0.20244096 0.51769930 0.58114421
0.40551564 0.52557713 0.53101081
0.59315157 0.53873920 0.49103671
0.74258369 0.53891408 0.43977550
0.85807538 0.53726196 0.40360656
0.95248270 0.53918999 0.37549755
-0.09691354 0.48575023 0.65684170
-0.09129491 0.50066608 0.66952181
0.01192880 0.50998271 0.63684416
0.20329508 0.51437235 0.57725018
0.40198919 0.52104199 0.52659267
0.58896381 0.53519148 0.48803172
0.74174893 0.53723222 0.43769646
0.85769397 0.53589922 0.40189016
0.95205003 0.53801036 0.37396172
-0.09694422 0.48373893 0.65483177
-0.09120955 0.49871269 0.66755182
0.00988886 0.50825369 0.63564640
0.20466562 0.51463103 0.57707793
0.40520614 0.51939458 0.52387345
0.58961856 0.53350347 0.48556942
0.73971581 0.53512752 0.43537900
0.85632133 0.53379089 0.39946270
0.94936812 0.53584462 0.37182832
-0.09574249 0.51223981 0.68284696
-0.09149790 0.52405524 0.69295138
0.00614546 0.53121674 0.66123492
0.20100261 0.53844178 0.60407931
0.40752065 0.54465741 0.55267966
0.58781183 0.55762559 0.51748472
0.73372209 0.55830300 0.46786654
0.85190296 0.55937147 0.43421459
0.94509518 0.56165040 0.40933248
-0.08449516 0.62729347 0.78818959
-0.08360273 0.63823706 0.79811281
-0.00246207 0.64859754 0.77793384
0.19641332 0.65833586 0.72716480
0.40222231 0.66799623 0.68766999
0.57653338 0.67364228 0.65030956
0.71834922 0.67759156 0.62055123
0.83157647 0.67855042 0.59134775
0.91744250 0.68379313 0.57861710
-0.08582136 0.72256041 0.86299205
-0.08634232 0.73051327 0.86920899
-0.01803237 0.74690759 0.86308765
0.18666428 0.75336516 0.82529533
0.38995555 0.76891786 0.79313105
0.57097989 0.77652711 0.76106751
0.70559847 0.77328372 0.73289388
0.81037408 0.77415693 0.71359843
0.89585263 0.77069253 0.69493479
-0.08721597 0.78508884 0.90851706
-0.08658237 0.79632896 0.91824549
-0.02760259 0.81710529 0.92609650
0.17468381 0.82830817 0.89445919
0.37813136 0.84458035 0.87069738
0.55828744 0.85322601 0.84746283
0.69215173 0.85049438 0.82352406
0.79296404 0.84558600 0.80295670
0.86761951 0.84375131 0.79010540
-0.09246250 0.55515945 0.72339529
-0.09064905 0.55608076 0.72389251
-0.00049567 0.58566380 0.71888250
0.18687627 0.61208105 0.68432868
0.39142901 0.63086385 0.65120411
0.57113737 0.64374065 0.61945993
0.71515596 0.65053749 0.58881915
0.83391225 0.65263170 0.55798602
0.92695743 0.65515691 0.53908366
-0.08828984 0.59214413 0.75722963
-0.08690254 0.60307163 0.76738679
0.00842755 0.62041819 0.74917787
0.20479333 0.63378572 0.70010799
0.40803933 0.64467305 0.66146475
0.58168328 0.65087354 0.62461782
0.72153586 0.65474999 0.59206247
0.83867931 0.65628576 0.56137788
0.93064088 0.65907943 0.54335397
-0.08752252 0.59845579 0.76293099
-0.08566163 0.61370212 0.77682841
0.00899774 0.62525761 0.75342935
0.20661274 0.63511634 0.70095640
0.40915468 0.64453268 0.66103268
0.58264935 0.65059811 0.62408990
0.72275698 0.65476292 0.59172267
0.84014249 0.65689796 0.56179994
0.93274212 0.66032970 0.54450077
-0.08762171 0.59759802 0.76217991
-0.08575588 0.61284697 0.77605802
0.00838400 0.62410820 0.75256336
0.20595844 0.63295197 0.69894809
0.40681168 0.64038706 0.65725893
0.58082479 0.64770973 0.62139404
0.72267133 0.65330869 0.58998406
0.83998823 0.65591687 0.56059331
0.93243200 0.65964258 0.54367298
-0.08783265 0.59586769 0.76061380
-0.08594269 0.61124152 0.77462155
0.00653660 0.62244487 0.75160050
0.20555003 0.63102186 0.69712621
0.40689307 0.63772243 0.65442133
0.57818520 0.64398801 0.61799049
0.72156763 0.65003997 0.58636624
0.83939523 0.65409482 0.55842608
0.93018454 0.65802950 0.54208827
-0.08808456 0.59381574 0.75874895
-0.08619020 0.60914302 0.77275741
0.00410307 0.62022287 0.75030291
0.20206463 0.63011122 0.69730681
0.40821663 0.63834590 0.65473646
0.57928729 0.64360070 0.61729056
0.72068083 0.64912063 0.58552021
0.83626598 0.65249860 0.55720514
0.92749739 0.65617210 0.54028475
-0.08446620 0.62769455 0.78853232
-0.08358892 0.63842762 0.79827625
-0.00191220 0.64901829 0.77810895
0.19693799 0.65874964 0.72744131
0.40355778 0.66847885 0.68782353
0.57921225 0.67366809 0.64972180
0.72086877 0.67731142 0.61948270
0.83139032 0.67940611 0.59246784
0.91668141 0.68435019 0.57950491
-0.08587538 0.72329879 0.86351657
-0.08636466 0.73081601 0.86942136
-0.01724965 0.74724495 0.86319345
0.18724295 0.75368977 0.82547396
0.39093378 0.76924199 0.79321623
0.57298511 0.77648461 0.76064610
0.70679343 0.77316779 0.73254204
0.81218499 0.77395451 0.71300375
0.89478147 0.77122635 0.69577330
-0.08721597 0.78508884 0.90851706
-0.08658237 0.79632896 0.91824549
-0.02699130 0.81711632 0.92599392
0.17480050 0.82831830 0.89444441
0.37862071 0.84461552 0.87063688
0.55924416 0.85324192 0.84731680
0.69311810 0.85044426 0.82332683
0.79437888 0.84553504 0.80269188
0.86810142 0.84374934 0.79003841
-0.08278134 0.65461022 0.81138551
-0.08270901 0.65444046 0.81167239
-0.00707459 0.68611091 0.81068206
0.18936674 0.70957023 0.78174520
0.39209855 0.73197961 0.75615412
0.57306713 0.74362814 0.72557229
0.70686740 0.74415487 0.69959068
0.81344432 0.74504805 0.67794782
0.89944130 0.74430829 0.66053879
-0.08324759 0.68530536 0.83564645
-0.08354390 0.69398773 0.84288532
-0.00103897 0.71712774 0.83433908
0.20399785 0.72757304 0.79708844
0.40685368 0.74388540 0.76435447
0.58232540 0.74970001 0.73028553
0.71274871 0.74794888 0.70269889
0.81796300 0.74823183 0.68084890
0.90297484 0.74766791 0.66427588
-0.08343894 0.69006848 0.83928770
-0.08419333 0.70226389 0.84893823
-0.00050625 0.72092563 0.83745122
0.20551489 0.72856301 0.79778814
0.40811858 0.74403447 0.76419234
0.58367407 0.74975693 0.73008537
0.71428943 0.74836624 0.70284820
0.81955147 0.74912471 0.68160570
0.90498561 0.74903852 0.66567940
-0.08342222 0.68965513 0.83897161
-0.08415999 0.70183921 0.84862763
-0.00126543 0.72012794 0.83696347
0.20461456 0.72766244 0.79704636
0.40694910 0.74269879 0.76315671
0.58267552 0.74854130 0.72896761
0.71419829 0.74739909 0.70175749
0.81950265 0.74842215 0.68076521
0.90476823 0.74872631 0.66531801
-0.08337170 0.68840009 0.83801246
-0.08406403 0.70061690 0.84773332
-0.00314363 0.71873391 0.83623594
0.20269249 0.72624993 0.79600191
0.40536022 0.73930824 0.76017714
0.58084303 0.74414098 0.72456628
0.71402913 0.74433559 0.69826519
0.81895274 0.74683785 0.67894912
0.90262419 0.74750471 0.66412812
-0.08331050 0.68687558 0.83684683
-0.08393516 0.69897592 0.84653348
-0.00554867 0.71685624 0.83522797
0.19958895 0.72456056 0.79495257
0.40495563 0.73775023 0.75872558
0.57962835 0.74179298 0.72226286
0.71091938 0.74127209 0.69541168
0.81594247 0.74433821 0.67655444
0.89959615 0.74570823 0.66231370
-0.08324262 0.68518299 0.83555263
-0.08378942 0.69711876 0.84517539
-0.00910586 0.71462250 0.83421218
0.19535176 0.72243094 0.79369289
0.40083158 0.73701805 0.75900865
0.58008146 0.74311489 0.72360420
0.71142387 0.74285829 0.69711971
0.81618166 0.74395782 0.67603797
0.89662033 0.74488264 0.66176635
-0.08588541 0.72343522 0.86361229
-0.08637743 0.73098665 0.86954153
-0.01604366 0.74750805 0.86312741
0.18742478 0.75401998 0.82574636
0.39114645 0.76959544 0.79351252
0.57454503 0.77663177 0.76050842
0.70831090 0.77318734 0.73228252
0.81298161 0.77393186 0.71282101
0.88926810 0.77326137 0.69918525
-0.08721597 0.78508884 0.90851706
-0.08658237 0.79632896 0.91824549
-0.02584531 0.81713772 0.92580187
0.17542867 0.82837331 0.89436495
0.37916887 0.84465450 0.87056875
0.55979073 0.85325134 0.84723336
0.69438165 0.85037893 0.82306904
0.79552114 0.84549379 0.80247825
0.86869591 0.84374660 0.78995579
-0.08682709 0.73807162 0.87395918
-0.08672112 0.73790205 0.87457472
-0.01593462 0.77031392 0.88329083
0.18470086 0.79032123 0.85905433
0.38887307 0.81312376 0.83705479
0.56962764 0.82450926 0.81359196
0.70107281 0.82201731 0.78926259
0.80066377 0.81848973 0.76883161
0.87888831 0.81669849 0.75493097
-0.08756420 0.76188397 0.89106542
-0.08758075 0.77178186 0.89893484
-0.00910897 0.79376972 0.90237784
0.19725096 0.80574244 0.87007189
0.40160230 0.82241625 0.84371740
0.57797915 0.82941949 0.81751782
0.70649916 0.82518315 0.79207456
0.80496788 0.82127494 0.77150166
0.88217872 0.81942534 0.75798804
-0.08758578 0.76406240 0.89265591
-0.08737723 0.77747613 0.90336066
-0.00843026 0.79682231 0.90493721
0.19883613 0.80705571 0.87089878
0.40322074 0.82305485 0.84403938
0.57945615 0.83007389 0.81798917
0.70834512 0.82603347 0.79276472
0.80686504 0.82250333 0.77270561
0.88424087 0.82089752 0.75960475
-0.08757158 0.76263118 0.89161104
-0.08742456 0.77625817 0.90240866
-0.00918378 0.79656643 0.90486312
0.19792931 0.80646569 0.87056899
0.40242118 0.82235444 0.84349829
0.57923919 0.82938910 0.81727028
0.70839459 0.82547444 0.79211229
0.80696964 0.82221669 0.77233595
0.88418776 0.82093322 0.75965625
-0.08755320 0.76078403 0.89026225
-0.08748691 0.77465928 0.90115827
-0.01107735 0.79561257 0.90440100
0.19578089 0.80516207 0.86987239
0.40023643 0.82090557 0.84248120
0.57813257 0.82755119 0.81543088
0.70892537 0.82382226 0.79012382
0.80661058 0.82113600 0.77106345
0.88227296 0.82005727 0.75877523
-0.08753509 0.75894576 0.88891983
-0.08755592 0.77288258 0.89976996
-0.01345135 0.79423690 0.90363044
0.19265953 0.80347705 0.86904526
0.39760143 0.81903869 0.84113598
0.57583904 0.82455897 0.81254041
0.70521671 0.82039416 0.78675473
0.80368173 0.81835508 0.76816773
0.87965590 0.81793642 0.75640446
-0.08751609 0.75701022 0.88750637
-0.08757346 0.77111793 0.89845330
-0.01697155 0.79236543 0.90265518
0.18852530 0.80150360 0.86818016
0.39368281 0.81741643 0.84028530
0.57513547 0.82379580 0.81182438
0.70606810 0.81831384 0.78422242
0.80313259 0.81647581 0.76597828
0.87671375 0.81627578 0.75463492
-0.08750445 0.75583071 0.88664556
-0.08755723 0.76960415 0.89735496
-0.01934017 0.79029822 0.90130246
0.18369108 0.79914927 0.86712754
0.38795182 0.81531215 0.83942199
0.57098430 0.82338285 0.81210846
0.70509708 0.81982833 0.78612125
0.80523157 0.81797683 0.76745141
0.87615156 0.81685036 0.75541234
-0.08721597 0.78508884 0.90851706
-0.08658237 0.79632896 0.91824549
-0.02414118 0.81716847 0.92551875
0.17611963 0.82843316 0.89427900
0.37914661 0.84465283 0.87057155
0.55990040 0.85325325 0.84721655
0.69599122 0.85029531 0.82274055
0.79695189 0.84503943 0.80171603
0.86942017 0.84340984 0.78943396
