lut/3714f921-07b6-48c4-8f0a-26c5acae539b.cube
TITLE "Faded Vintage Film"
LUT_3D_SIZE 5
-0.00086821 0.00407325 0.00536946
0.09118543 -0.00390439 -0.00353728
0.43660393 -0.03495821 -0.03306780
0.77666807 -0.06906068 -0.06488819
0.99012411 -0.09509967 -0.09111716
-0.04172415 0.14090775 0.21851544
0.08143170 0.15523064 0.16689602
0.46849069 0.12902147 0.08102503
0.78242874 0.09527306 -0.00702409
0.98546565 0.08041976 -0.06534451
-0.09420791 0.37577456 0.53882951
0.01897922 0.38668084 0.49669456
0.40900829 0.40505764 0.38633338
0.76739740 0.38532224 0.22759564
0.96319687 0.39139834 0.15741961
-0.08469024 0.62461007 0.78588879
-0.00401288 0.64575100 0.77602696
0.39415267 0.66586983 0.68757451
0.71061599 0.67654401 0.62125182
0.93295598 0.67331409 0.56160480
-0.08721597 0.78508884 0.90851706
-0.02476710 0.81715697 0.92562246
0.37915429 0.84465367 0.87057054
0.69120055 0.85043895 0.82359511
0.86672568 0.84333879 0.78970474
-0.03503671 0.11999790 0.18668014
0.06515194 0.14176612 0.15376993
0.43748999 0.13573165 0.09189221
0.76941162 0.10554947 0.00129120
0.98001325 0.08940618 -0.06090970
-0.04310040 0.14526694 0.22510247
0.08197975 0.16268399 0.17727445
0.46439114 0.14201848 0.09252653
0.78259641 0.10676074 -0.00138736
0.98703003 0.09108181 -0.06228993
-0.09432874 0.37726173 0.54053080
0.02205220 0.38783664 0.49690431
0.41156000 0.40609634 0.38683867
0.75414288 0.39687333 0.24524148
0.96460205 0.39315435 0.15872906
-0.08458172 0.62609506 0.78716487
-0.00368845 0.64713705 0.77709824
0.39565527 0.66714418 0.68852657
0.71173596 0.67774665 0.62233871
0.93235850 0.67536831 0.56447345
-0.08721598 0.78508890 0.90851718
-0.02650503 0.81712502 0.92591256
0.37729406 0.84452057 0.87080115
0.69109040 0.85054922 0.82374066
0.86702490 0.84375381 0.79018807
-0.08673581 0.31460088 0.46441606
0.01671197 0.33611110 0.43611681
0.39175263 0.38198644 0.36305892
0.74768817 0.38191128 0.23115978
0.96721661 0.37397173 0.13708344
-0.09295409 0.36089644 0.52145034
0.02606284 0.37650055 0.48186746
0.41312209 0.39492878 0.37179545
0.75708050 0.38636130 0.23248959
0.97365034 0.37954262 0.14040504
-0.09441734 0.37835377 0.54177982
0.02222789 0.38939735 0.49870107
0.41268629 0.40752339 0.38826716
0.75269711 0.39933231 0.24851170
0.96489084 0.39478117 0.16035788
-0.08451755 0.62698388 0.78792524
-0.00289776 0.64819652 0.77773714
0.39915103 0.66782290 0.68832254
0.71342814 0.67828453 0.62254006
0.92220145 0.68160552 0.57474983
-0.08721597 0.78508884 0.90851706
-0.02763731 0.81710428 0.92610216
0.37687182 0.84449059 0.87085295
0.69161195 0.85052210 0.82363415
0.86737829 0.84375238 0.79013890
-0.09246250 0.55515945 0.72339529
-0.00049567 0.58566380 0.71888250
0.39142901 0.63086385 0.65120411
0.71515596 0.65053749 0.58881915
0.92695743 0.65515691 0.53908366
-0.08752252 0.59845579 0.76293099
0.00899774 0.62525761 0.75342935
0.40915468 0.64453268 0.66103268
0.72275698 0.65476292 0.59172267
0.93274212 0.66032970 0.54450077
-0.08783265 0.59586769 0.76061380
0.00653660 0.62244487 0.75160050
0.40689307 0.63772243 0.65442133
0.72156763 0.65003997 0.58636624
0.93018454 0.65802950 0.54208827
-0.08446620 0.62769455 0.78853232
-0.00191220 0.64901829 0.77810895
0.40355778 0.66847885 0.68782353
0.72086877 0.67731142 0.61948270
0.91668141 0.68435019 0.57950491
-0.08721597 0.78508884 0.90851706
-0.02699130 0.81711632 0.92599392
0.37862071 0.84461552 0.87063688
0.69311810 0.85044426 0.82332683
0.86810142 0.84374934 0.79003841
-0.08682709 0.73807162 0.87395918
-0.01593462 0.77031392 0.88329083
0.38887307 0.81312376 0.83705479
0.70107281 0.82201731 0.78926259
0.87888831 0.81669849 0.75493097
-0.08758578 0.76406240 0.89265591
-0.00843026 0.79682231 0.90493721
0.40322074 0.82305485 0.84403938
0.70834512 0.82603347 0.79276472
0.88424087 0.82089752 0.75960475
-0.08755320 0.76078403 0.89026225
-0.01107735 0.79561257 0.90440100
0.40023643 0.82090557 0.84248120
0.70892537 0.82382226 0.79012382
0.88227296 0.82005727 0.75877523
-0.08751609 0.75701022 0.88750637
-0.01697155 0.79236543 0.90265518
0.39368281 0.81741643 0.84028530
0.70606810 0.81831384 0.78422242
0.87671375 0.81627578 0.75463492
-0.08721597 0.78508884 0.90851706
-0.02414118 0.81716847 0.92551875
0.37914661 0.84465283 0.87057155
0.69599122 0.85029531 0.82274055
0.86942017 0.84340984 0.78943396
