lut/3714f921-07b6-48c4-8f0a-26c5acae539b.cube
TITLE "Faded Vintage Film"
LUT_3D_SIZE 33
-0.00086821 0.00407325 0.00536946
-0.00088269 0.00450913 0.00464351
-0.00020035 0.00434699 0.00430511
0.00105658 0.00391783 0.00391038
0.00366563 0.00280695 0.00285351
0.00952644 0.00236446 0.00241126
0.02782561 0.00103422 0.00105056
0.05811789 -0.00128149 -0.00114028
0.09118543 -0.00390439 -0.00353728
0.12712555 -0.00699846 -0.00630634
0.16579063 -0.01046840 -0.00941614
0.20627004 -0.01406946 -0.01273165
0.24821690 -0.01778803 -0.01629511
0.29236439 -0.02179672 -0.02019238
0.33894145 -0.02608646 -0.02439494
0.38729990 -0.03044595 -0.02868226
0.43660393 -0.03495821 -0.03306780
0.48653510 -0.03953090 -0.03744495
0.53584194 -0.04414601 -0.04177080
0.58221245 -0.04860337 -0.04590719
0.62515652 -0.05288606 -0.04985948
0.66586667 -0.05706012 -0.05373031
0.70473820 -0.06115026 -0.05750257
0.74173331 -0.06517213 -0.06123622
0.77666807 -0.06906068 -0.06488819
0.80961144 -0.07285453 -0.06847931
0.84055525 -0.07656956 -0.07205796
0.86958301 -0.08011495 -0.07553826
0.89681113 -0.08342797 -0.07890949
0.92232645 -0.08656090 -0.08210441
0.94635487 -0.08958211 -0.08526109
0.96889538 -0.09241053 -0.08825769
0.99012411 -0.09509967 -0.09111716
-0.00298893 0.01232719 0.01716034
-0.00286160 0.01252688 0.01614350
-0.00232786 0.01333030 0.01316429
-0.00076257 0.01186287 0.01174717
0.00245998 0.00825913 0.00825166
0.00954137 0.00692216 0.00702408
0.03134311 0.00513552 0.00514482
0.06218230 0.00257165 0.00265636
0.09575583 -0.00053010 -0.00028019
0.13232160 -0.00423539 -0.00373152
0.17163464 -0.00832562 -0.00753264
0.21261299 -0.01250800 -0.01148638
0.25503525 -0.01677912 -0.01561969
0.29983741 -0.02141616 -0.02010767
0.34688383 -0.02643296 -0.02484965
0.39539924 -0.03104126 -0.02931191
0.44501647 -0.03565497 -0.03375933
0.49494570 -0.04036282 -0.03820276
0.54410750 -0.04505458 -0.04255121
0.58982712 -0.04955096 -0.04668831
0.63227427 -0.05386800 -0.05062516
0.67267132 -0.05808041 -0.05448508
0.71124345 -0.06222802 -0.05825101
0.74783915 -0.06625483 -0.06197352
0.78240162 -0.07006977 -0.06561102
0.81493151 -0.07376792 -0.06915079
0.84542483 -0.07734916 -0.07263687
0.87412179 -0.08084092 -0.07609466
0.90096104 -0.08411496 -0.07944176
0.92609090 -0.08721834 -0.08258513
0.94975328 -0.09019761 -0.08570585
0.97198600 -0.09299996 -0.08867582
0.99286836 -0.09563679 -0.09147563
-0.00691774 0.02720414 0.03933388
-0.00675549 0.02771232 0.03885886
-0.00576223 0.02890412 0.03577079
-0.00490557 0.03003143 0.03108421
-0.00187786 0.02688063 0.02661763
0.00626155 0.02511683 0.02506867
0.03101214 0.02285491 0.02299392
0.06249786 0.02033777 0.02043091
0.09715856 0.01733982 0.01718267
0.13486272 0.01372579 0.01317954
0.17526627 0.00958028 0.00847262
0.21726857 0.00530081 0.00344171
0.26085967 0.00087931 -0.00184899
0.30681133 -0.00385769 -0.00749015
0.35483238 -0.00883184 -0.01327171
0.40429688 -0.01391041 -0.01905817
0.45436227 -0.01886019 -0.02461460
0.50472444 -0.02373435 -0.03002917
0.55355054 -0.02855066 -0.03529777
0.59813696 -0.03306257 -0.04020375
0.63966924 -0.03726955 -0.04480883
0.67953700 -0.04144365 -0.04939231
0.71740371 -0.04553302 -0.05386560
0.75328827 -0.04950159 -0.05827701
0.78717488 -0.05321810 -0.06257108
0.81907064 -0.05676565 -0.06676426
0.84892648 -0.06016659 -0.07083458
0.87708855 -0.06338722 -0.07487512
0.90338302 -0.06630941 -0.07867963
0.92803520 -0.06898813 -0.08227850
0.95132452 -0.07158379 -0.08583947
0.97313106 -0.07387140 -0.08918051
0.99377984 -0.07604364 -0.09245534
-0.01100711 0.04191891 0.06318420
-0.01089782 0.04278159 0.06342451
-0.00943483 0.04425956 0.06046698
-0.00773730 0.04570377 0.05561150
-0.00600762 0.04548972 0.04773525
0.00265707 0.04463710 0.04480903
0.02997226 0.04190043 0.04282574
0.06187338 0.03952400 0.04023963
0.09735335 0.03667610 0.03657804
0.13600616 0.03315254 0.03184502
0.17737997 0.02904976 0.02617980
0.22050875 0.02471052 0.02006683
0.26504374 0.02017567 0.01368797
0.31193268 0.01539134 0.00698871
0.36092836 0.01047343 0.00014883
0.41101012 0.00566436 -0.00652208
0.46121311 0.00086809 -0.01307006
0.51146507 -0.00379742 -0.01942811
0.55947536 -0.00842507 -0.02558200
0.60327512 -0.01274697 -0.03133107
0.64431328 -0.01690562 -0.03682466
0.68353325 -0.02095895 -0.04223527
0.72075230 -0.02493839 -0.04755040
0.75613928 -0.02879647 -0.05278962
0.78951561 -0.03247424 -0.05787950
0.82102931 -0.03595952 -0.06282543
0.85050511 -0.03918164 -0.06753523
0.87816530 -0.04220258 -0.07216063
0.90417904 -0.04496596 -0.07659333
0.92851245 -0.04751861 -0.08077440
0.95151329 -0.04987630 -0.08477258
0.97321630 -0.05204566 -0.08859478
0.99373186 -0.05408232 -0.09228728
-0.01559235 0.05748700 0.08911102
-0.01560476 0.05860173 0.09013917
-0.01366452 0.06006915 0.08754860
-0.01107947 0.06163029 0.08247019
-0.00824635 0.06150552 0.07405620
-0.00116767 0.06483802 0.06675961
0.02826601 0.06271680 0.06419027
0.06093494 0.06005698 0.06234362
0.09656407 0.05748202 0.05810878
0.13580024 0.05414197 0.05260687
0.17797878 0.05011553 0.04604429
0.22210075 0.04568930 0.03881955
0.26771972 0.04110258 0.03124772
0.31555504 0.03636348 0.02343744
0.36519420 0.03152854 0.01553643
0.41553435 0.02678957 0.00778459
0.46604079 0.02222133 0.00029309
0.51584363 0.01761984 -0.00713538
0.56315589 0.01332561 -0.01409520
0.60624743 0.00919430 -0.02068868
0.64684141 0.00515647 -0.02707831
0.68546319 0.00123620 -0.03332410
0.72216219 -0.00256414 -0.03945735
0.75705868 -0.00629095 -0.04549414
0.78999990 -0.00976193 -0.05133469
0.82107759 -0.01310105 -0.05699175
0.85032523 -0.01621816 -0.06243741
0.87778229 -0.01910043 -0.06768050
0.90365547 -0.02172569 -0.07272466
0.92793143 -0.02416860 -0.07757312
0.95083827 -0.02642602 -0.08211675
0.97254699 -0.02853525 -0.08651957
0.99305874 -0.03046035 -0.09067468
-0.02094621 0.07558623 0.11762691
-0.02123309 0.07702522 0.11957912
-0.01904807 0.07847797 0.11752875
-0.01551524 0.07981632 0.11209518
-0.01138935 0.07928319 0.10286934
-0.00463912 0.08253210 0.09527966
0.02453496 0.08560227 0.08763783
0.05888657 0.08272781 0.08569945
0.09539115 0.07979959 0.08203264
0.13507845 0.07673303 0.07574758
0.17792152 0.07294761 0.06827649
0.22434458 0.06836094 0.05958056
0.27139497 0.06374733 0.05078680
0.31869948 0.05935935 0.04226806
0.36827219 0.05484121 0.03356524
0.41892499 0.05028296 0.02482742
0.46920246 0.04568240 0.01615228
0.51854044 0.04117471 0.00766934
0.56496215 0.03678335 -0.00048565
0.60738075 0.03274778 -0.00805778
0.64740008 0.02879290 -0.01540952
0.68554103 0.02496396 -0.02259506
0.72188222 0.02125354 -0.02964227
0.75640553 0.01765427 -0.03652124
0.78915787 0.01426600 -0.04319122
0.82001638 0.01108990 -0.04957875
0.84916973 0.00812377 -0.05571214
0.87673312 0.00529508 -0.06173194
0.90252721 0.00274284 -0.06742749
0.92681605 0.00040476 -0.07285375
0.94971740 -0.00168192 -0.07797693
0.97135502 -0.00357886 -0.08280329
0.99191213 -0.00533960 -0.08743519
-0.02716075 0.09556237 0.14889379
-0.02766102 0.09722652 0.15135378
-0.02558071 0.09885660 0.15043481
-0.02126016 0.09997746 0.14475587
-0.01580032 0.09875752 0.13455281
-0.00902295 0.10187846 0.12676758
0.01991367 0.10543735 0.11809812
0.05522196 0.10754119 0.11088844
0.09260483 0.10431904 0.10774103
0.13359721 0.10080736 0.10120918
0.17740349 0.09730438 0.09276149
0.22464931 0.09309754 0.08320209
0.27330124 0.08856983 0.07319433
0.32022437 0.08468792 0.06414475
0.36985230 0.08033079 0.05444669
0.42040819 0.07581548 0.04454513
0.47051471 0.07123866 0.03471396
0.51936841 0.06669398 0.02500935
0.56516969 0.06234058 0.01575785
0.60702604 0.05819911 0.00701253
0.64668614 0.05417473 -0.00147938
0.68443906 0.05031087 -0.00976748
0.72056633 0.04651383 -0.01790823
0.75492060 0.04290649 -0.02581087
0.78755778 0.03950084 -0.03345582
0.81832540 0.03649113 -0.04057734
0.84745693 0.03369711 -0.04740646
0.87494844 0.03112898 -0.05399338
0.90072137 0.02885568 -0.06025366
0.92504704 0.02671712 -0.06618514
0.94797033 0.02475613 -0.07191768
0.96970147 0.02304018 -0.07723792
0.99025077 0.02143263 -0.08234257
-0.03424207 0.11755949 0.18293402
-0.03481432 0.11933638 0.18556677
-0.03264951 0.12109932 0.18517886
-0.02784828 0.12232208 0.18024997
-0.02142550 0.12037403 0.16937378
-0.01297052 0.12289215 0.16083583
0.01361730 0.12649572 0.15173344
0.04979597 0.12971987 0.14224851
0.08783048 0.13082609 0.13471562
0.12935044 0.12686706 0.12937604
0.17527072 0.12292284 0.11978663
0.22103441 0.11980664 0.11029299
0.26748013 0.11656216 0.10064232
0.31738672 0.11255091 0.08987120
0.36847413 0.10821689 0.07871681
0.41972795 0.10375653 0.06755664
0.47010660 0.09908796 0.05640156
0.51888824 0.09436562 0.04528759
0.56421351 0.08965442 0.03449316
0.60561556 0.08534081 0.02445043
0.64499688 0.08120167 0.01469591
0.68267578 0.07716517 0.00515188
0.71864855 0.07340037 -0.00402887
0.75287890 0.06995213 -0.01281282
0.78540099 0.06666979 -0.02129342
0.81615973 0.06366908 -0.02935306
0.84523571 0.06102113 -0.03697205
0.87267721 0.05852698 -0.04427704
0.89848554 0.05638027 -0.05123096
0.92274529 0.05445909 -0.05773274
0.94567287 0.05278446 -0.06390191
0.96750778 0.05131162 -0.06967051
0.98808777 0.05001414 -0.07513788
-0.04172415 0.14090775 0.21851544
-0.04229717 0.14274122 0.22120556
-0.04012813 0.14470832 0.22137173
-0.03509026 0.14616866 0.21749087
-0.02762722 0.14385752 0.20613505
-0.01778848 0.14552277 0.19683002
0.00663807 0.14909938 0.18725672
0.04248969 0.15219906 0.17735653
0.08143170 0.15523064 0.16689602
0.12229517 0.15516044 0.15893678
0.16985063 0.15005612 0.14994691
0.22063296 0.14592481 0.13739419
0.26633605 0.14395320 0.12796015
0.31513056 0.14122705 0.11731348
0.36599645 0.13778120 0.10573874
0.41768312 0.13374457 0.09359465
0.46849069 0.12902147 0.08102503
0.51730138 0.12399352 0.06828238
0.56253809 0.11917731 0.05613583
0.60370791 0.11449075 0.04460260
0.64287037 0.11008625 0.03345914
0.68030059 0.10585332 0.02264569
0.71603262 0.10193519 0.01227261
0.75003570 0.09849321 0.00242242
0.78242874 0.09527306 -0.00702409
0.81314069 0.09236165 -0.01598237
0.84220982 0.08985274 -0.02439912
0.86970383 0.08751559 -0.03238676
0.89555717 0.08565611 -0.03979677
0.91982478 0.08409942 -0.04669494
0.94284075 0.08264511 -0.05333487
0.96478534 0.08142208 -0.05954725
0.98546565 0.08041976 -0.06534451
-0.04936856 0.16529039 0.25526235
-0.04992555 0.16712636 0.25795910
-0.04787229 0.16936998 0.25878307
-0.04285169 0.17119490 0.25591874
-0.03442617 0.16858426 0.24448997
-0.02353058 0.16949973 0.23476450
-0.00042362 0.17297301 0.22452450
0.03428132 0.17597589 0.21416815
0.07326540 0.17875913 0.20310676
0.11512686 0.18139793 0.19144076
0.15811913 0.18018828 0.18309999
0.21227802 0.17445680 0.16969307
0.26648593 0.17101061 0.15561645
0.31503418 0.16949509 0.14492154
0.36361885 0.16787496 0.13425642
0.41453981 0.16495131 0.12191072
0.46544877 0.16073303 0.10836383
0.51467240 0.15577991 0.09429056
0.56007278 0.15066251 0.08060785
0.60096282 0.14572257 0.06768674
0.63982254 0.14084801 0.05504371
0.67709875 0.13640521 0.04288086
0.71260893 0.13239273 0.03128329
0.74653393 0.12871015 0.02019705
0.77877522 0.12543629 0.00972349
0.80943239 0.12266320 -0.00002779
0.83842230 0.12027949 -0.00914822
0.86587930 0.11816569 -0.01776555
0.89189053 0.11661001 -0.02567806
0.91631353 0.11522747 -0.03313695
0.93949819 0.11414882 -0.04007697
0.96160650 0.11334024 -0.04655429
0.98243588 0.11268172 -0.05266707
-0.05709532 0.19065636 0.29292557
-0.05763746 0.19244871 0.29554558
-0.05578472 0.19494081 0.29708010
-0.05095926 0.19724987 0.29559800
-0.04165335 0.19434971 0.28399366
-0.02998948 0.19479509 0.27413452
-0.00765809 0.19812994 0.26349109
0.02587332 0.20100771 0.25272620
0.06447345 0.20367086 0.24120095
0.10689346 0.20600650 0.22873154
0.15037413 0.20825063 0.21598601
0.19646546 0.20615970 0.20684168
0.25531650 0.20107134 0.19021319
0.31412131 0.19813816 0.17426099
0.36581284 0.19688217 0.16182451
0.41365686 0.19589315 0.15055785
0.46233994 0.19332397 0.13760561
0.51107937 0.18912539 0.12298887
0.55646229 0.18416990 0.10816818
0.59732115 0.17902307 0.09392087
0.63613522 0.17387225 0.07983718
0.67328781 0.16904567 0.06623828
0.70860052 0.16470064 0.05330624
0.74233681 0.16082528 0.04105490
0.77435410 0.15741687 0.02959234
0.80491841 0.15465644 0.01895883
0.83395123 0.15244628 0.00915575
0.86148322 0.15061019 0.00001653
0.88765949 0.14936370 -0.00828761
0.91233599 0.14821970 -0.01620976
0.93569148 0.14746988 -0.02344101
0.95799339 0.14713743 -0.03008781
0.97904658 0.14684547 -0.03643463
-0.06483289 0.21714529 0.33161509
-0.06536306 0.21900381 0.33427691
-0.06377540 0.22172262 0.33639312
-0.05937150 0.22451028 0.33633661
-0.04923348 0.22133228 0.32453990
-0.03697666 0.22144085 0.31473631
-0.01511222 0.22454520 0.30389231
0.01729783 0.22737163 0.29282141
0.05550402 0.22992285 0.28079736
0.09845726 0.23208508 0.26770315
0.14221482 0.23409973 0.25442722
0.18760577 0.23636098 0.24125890
0.23781164 0.23377874 0.23054101
0.30033991 0.22971503 0.21124047
0.36306542 0.22726548 0.19319050
0.41707948 0.22576340 0.17858613
0.46458828 0.22456442 0.16572535
0.50946254 0.22251534 0.15257087
0.55281210 0.21885614 0.13823479
0.59311408 0.21416594 0.12337402
0.63187093 0.20896415 0.10815516
0.66881841 0.20391496 0.09331613
0.70408702 0.19920488 0.07905763
0.73753059 0.19507843 0.06571490
0.76947176 0.19145589 0.05318794
0.80008709 0.18867864 0.04177858
0.82911360 0.18657316 0.03129968
0.85677201 0.18475448 0.02147637
0.88315338 0.18375887 0.01275963
0.90794390 0.18292959 0.00453457
0.93160820 0.18255760 -0.00300741
0.95422393 0.18254113 -0.00994890
0.97584009 0.18274975 -0.01643255
-0.07235672 0.24524899 0.37162045
-0.07283634 0.24712330 0.37423202
-0.07160397 0.25017926 0.37708196
-0.06780058 0.25351363 0.37832040
-0.05696744 0.24987949 0.36625001
-0.04410871 0.24963818 0.35654303
-0.02242952 0.25260150 0.34573114
0.00858167 0.25532001 0.33453912
0.04648767 0.25773752 0.32202941
0.09004387 0.25972712 0.30826893
0.13434540 0.26159319 0.29443285
0.17989199 0.26351193 0.28071895
0.22769170 0.26606295 0.26732954
0.28153712 0.26345798 0.25469702
0.34735098 0.26051989 0.23295930
0.41217384 0.25820127 0.21266650
0.46795666 0.25605398 0.19526412
0.51430577 0.25429592 0.18075001
0.55382568 0.25265598 0.16801496
0.59098262 0.24972807 0.15447693
0.62817043 0.24558766 0.13969721
0.66450959 0.24087776 0.12437584
0.69948608 0.23615058 0.10926760
0.73278761 0.23163080 0.09477425
0.76463479 0.22797176 0.08143435
0.79524326 0.22498989 0.06912749
0.82430625 0.22271356 0.05782053
0.85190868 0.22103113 0.04751052
0.87862045 0.22001944 0.03812510
0.90363955 0.21944202 0.02948934
0.92784142 0.21940006 0.02165000
0.95102668 0.21980536 0.01442626
0.97299457 0.22030449 0.00769182
-0.07934679 0.27519050 0.41279981
-0.07977216 0.27710962 0.41536543
-0.07894797 0.28055078 0.41891578
-0.07587200 0.28450376 0.42167601
-0.06458174 0.28040892 0.40928379
-0.05109927 0.27970734 0.39950210
-0.02914047 0.28238809 0.38866603
0.00041977 0.28495583 0.37737435
0.03773558 0.28719598 0.36464888
0.08176526 0.28906476 0.35030127
0.12649475 0.29084018 0.33604002
0.17220907 0.29260603 0.32197395
0.21945807 0.29451230 0.30797133
0.26881367 0.29752555 0.29493618
0.32438248 0.29543552 0.28023177
0.39337438 0.29322299 0.25599664
0.45994091 0.29120785 0.23348831
0.51485395 0.28855935 0.21406043
0.55846429 0.28609955 0.19827035
0.59517878 0.28418496 0.18495877
0.62917811 0.28191188 0.17190209
0.66284043 0.27886271 0.15808621
0.69626123 0.27492800 0.14344929
0.72876179 0.27076772 0.12878776
0.76039273 0.26690972 0.11468675
0.79074961 0.26373270 0.10157936
0.81990302 0.26109579 0.08932517
0.84762913 0.25937280 0.07834590
0.87455750 0.25840974 0.06834988
0.89999056 0.25790313 0.05913747
0.92491609 0.25798520 0.05070318
0.94868290 0.25871053 0.04314656
0.97088265 0.25963911 0.03626218
-0.08554900 0.30707410 0.45487344
-0.08586267 0.30906650 0.45740554
-0.08543445 0.31288531 0.46158612
-0.08333772 0.31767723 0.46593341
-0.07172796 0.31298622 0.45333278
-0.05774201 0.31169122 0.44327629
-0.03454989 0.31397688 0.43231335
-0.00673213 0.31638438 0.42114344
0.03000120 0.31852785 0.40828595
0.07426593 0.32041696 0.39370027
0.11941422 0.32184064 0.37882403
0.16562760 0.32349989 0.36432886
0.21293080 0.32517472 0.35003203
0.26169655 0.32734132 0.33617246
0.31271547 0.33089897 0.32356086
0.37038276 0.32970655 0.30661756
0.44090122 0.32834482 0.28061444
0.50597888 0.32625398 0.25646186
0.55677658 0.32340378 0.23644368
0.59887964 0.32023755 0.21918419
0.63495427 0.31763506 0.20445143
0.66702926 0.31567603 0.19156013
0.69766766 0.31355047 0.17888959
0.72776628 0.31068084 0.16562831
0.75790548 0.30746222 0.15212639
0.78757221 0.30435839 0.13875419
0.81654251 0.30168703 0.12594382
0.84451425 0.29968774 0.11407077
0.87184596 0.29865727 0.10329904
0.89774024 0.29831311 0.09353432
0.92319906 0.29867974 0.08463404
0.94764733 0.29949993 0.07642435
0.97028393 0.30064192 0.06911274
-0.09057388 0.34091368 0.49728137
-0.09080376 0.34284762 0.49960133
-0.09090661 0.34709507 0.50445426
-0.08995866 0.35272712 0.51039517
-0.07795122 0.34750891 0.49768111
-0.06377657 0.34571674 0.48757374
-0.03946127 0.34744877 0.47641650
-0.01228608 0.34961376 0.46522468
0.02367225 0.35183820 0.45260277
0.06839275 0.35357407 0.43762058
0.11386904 0.35513735 0.42280164
0.16042529 0.35654178 0.40800411
0.20778641 0.35808513 0.39352068
0.25614670 0.35958114 0.37897739
0.30629978 0.36196586 0.36523426
0.35962161 0.36662832 0.35372210
0.41832358 0.36652246 0.33478278
0.48669922 0.36592436 0.30838045
0.54714984 0.36362740 0.28370076
0.59596097 0.36049601 0.26264960
0.63684535 0.35665223 0.24398759
0.67238510 0.35329333 0.22789140
0.70372027 0.35082325 0.21422921
0.73220682 0.34898856 0.20211969
0.76003969 0.34723005 0.19028187
0.78797513 0.34527192 0.17828304
0.81587398 0.34333107 0.16610493
0.84355283 0.34168896 0.15415081
0.87110764 0.34068179 0.14272030
0.89751768 0.34056973 0.13243300
0.92331165 0.34105533 0.12286326
0.94807470 0.34230787 0.11445064
0.97052073 0.34391382 0.10716049
-0.09420791 0.37577456 0.53882951
-0.09437224 0.37777179 0.54107648
-0.09474157 0.38229924 0.54624313
-0.09529716 0.38915485 0.55417138
-0.08355968 0.38358620 0.54170537
-0.06936636 0.38140982 0.53169566
-0.04430151 0.38276163 0.52052093
-0.01712957 0.38462281 0.50947654
0.01897922 0.38668084 0.49669456
0.06400332 0.38872284 0.48218802
0.11024472 0.39039546 0.46739635
0.15712586 0.39193201 0.45283225
0.20443656 0.39310196 0.43805602
0.25234106 0.39404768 0.42284206
0.30170050 0.39538741 0.40807655
0.35444397 0.39930525 0.39623415
0.40900829 0.40505764 0.38633338
0.46621594 0.40559897 0.36558631
0.52806288 0.40522704 0.34006745
0.58527130 0.40247631 0.31438708
0.63278854 0.39865652 0.29183969
0.67267841 0.39429763 0.27214032
0.70781875 0.39029175 0.25488386
0.73920894 0.38720641 0.24006784
0.76739740 0.38532224 0.22759564
0.79429775 0.38443518 0.21656741
0.82076383 0.38401157 0.20599303
0.84697104 0.38348690 0.19532253
0.87347555 0.38351935 0.18498555
0.89762425 0.38486236 0.17681152
0.92275393 0.38586363 0.16776998
0.94383264 0.38849929 0.16213347
0.96319687 0.39139834 0.15741961
-0.09638150 0.41048026 0.57798737
-0.09647925 0.41249549 0.58011174
-0.09668397 0.41694543 0.58494806
-0.09694853 0.42362440 0.59236711
-0.08786017 0.41968021 0.58326346
-0.07460148 0.41759652 0.57425141
-0.04998530 0.41885713 0.56353331
-0.02296231 0.42069590 0.55281037
0.01373065 0.42282343 0.54043627
0.05937709 0.42487794 0.52612936
0.10646806 0.42702436 0.51205611
0.15404108 0.42886576 0.49789238
0.20141833 0.42967770 0.48274639
0.24901044 0.43000031 0.46689016
0.29827297 0.43097889 0.45173755
0.35054231 0.43409276 0.43945435
0.40471116 0.43901533 0.42937589
0.45859674 0.44480401 0.42032969
0.51068074 0.44526470 0.39932719
0.56619573 0.44463304 0.37492633
0.62109619 0.44142950 0.34804681
0.66840112 0.43696058 0.32361063
0.70809031 0.43230459 0.30273682
0.74352342 0.42820305 0.28462449
0.77514392 0.42495924 0.26918355
0.80387974 0.42299640 0.25647953
0.82981217 0.42302510 0.24756648
0.85321563 0.42410502 0.24086475
0.87653488 0.42586663 0.23518372
0.89804024 0.42802143 0.22994737
0.91480887 0.43239635 0.22900452
0.93548107 0.43513361 0.22426298
0.95241809 0.43806472 0.22104779
-0.09723655 0.44433323 0.61450881
-0.09727006 0.44631609 0.61652273
-0.09733670 0.45069787 0.62104917
-0.09733189 0.45726413 0.62792170
-0.09033301 0.45452315 0.62146127
-0.07858450 0.45319942 0.61420327
-0.05478974 0.45445600 0.60406119
-0.02853961 0.45645249 0.59410179
0.00857757 0.45884874 0.58236325
0.05496900 0.46151924 0.56897128
0.10225596 0.46376389 0.55531615
0.14990246 0.46543080 0.54111022
0.19749123 0.46639737 0.52601999
0.24526520 0.46661553 0.50998169
0.29455119 0.46725559 0.49464178
0.34689978 0.46985048 0.48218521
0.40066534 0.47390634 0.47192720
0.45357820 0.47868136 0.46277505
0.50419754 0.48390171 0.45430511
0.55126643 0.48377794 0.43490165
0.60274822 0.48251981 0.41237122
0.65573341 0.47889471 0.38680226
0.70355695 0.47425079 0.36317661
0.74367273 0.46972445 0.34370846
0.77611631 0.46708390 0.33014894
0.80879968 0.46398690 0.31576681
0.82937241 0.46501148 0.31140608
0.85183275 0.46600410 0.30555442
0.87199819 0.46793014 0.30157557
0.89234197 0.47067130 0.29804310
0.91167742 0.47329989 0.29451242
0.93189114 0.47622186 0.29068330
0.94974142 0.47861975 0.28690308
-0.09704105 0.47747171 0.64856923
-0.09700022 0.47929657 0.65048963
-0.09692323 0.48343843 0.65472955
-0.09670667 0.48968321 0.66103309
-0.09153076 0.48847276 0.65719801
-0.08119460 0.48778760 0.65151525
-0.05812765 0.48920855 0.64217865
-0.03228695 0.49142241 0.63303459
0.00543778 0.49413365 0.62193775
0.05229058 0.49699944 0.60914868
0.09972847 0.49931693 0.59567714
0.14719848 0.50091684 0.58148158
0.19471276 0.50191057 0.56650156
0.24266241 0.50255758 0.55109847
0.29209384 0.50329471 0.53601265
0.34432060 0.50539243 0.52363139
0.39737725 0.50881535 0.51365161
0.44919866 0.51276469 0.50443465
0.49820375 0.51673496 0.49543697
0.54505473 0.52088630 0.48662814
0.58896291 0.52018881 0.46850544
0.63655329 0.51867384 0.44796911
0.68611747 0.51556611 0.42593238
0.73016900 0.51218265 0.40685055
0.76475888 0.50976384 0.39445525
0.79621029 0.50736463 0.38202521
0.82413989 0.50591302 0.37178582
0.85001397 0.50551069 0.36328086
0.87324345 0.50585783 0.35643134
0.89533228 0.50767618 0.35128140
0.91559368 0.50991577 0.34732562
0.93589920 0.51297867 0.34402558
0.95362002 0.51522583 0.34051698
-0.09587657 0.50949138 0.68020445
-0.09577636 0.51124942 0.68198919
-0.09556358 0.51520360 0.68592507
-0.09519041 0.52106470 0.69168973
-0.09175281 0.52121383 0.69019854
-0.08260485 0.52123982 0.68614411
-0.06007199 0.52270579 0.67763567
-0.03482376 0.52510834 0.66944003
0.00351830 0.52798384 0.65875018
0.05065294 0.53092200 0.64627975
0.09818752 0.53327501 0.63285130
0.14567396 0.53489953 0.61865127
0.19343768 0.53612721 0.60407364
0.24204077 0.53709882 0.58913618
0.29190561 0.53800827 0.57473236
0.34410128 0.53981304 0.56279516
0.39633110 0.54261571 0.55312586
0.44664615 0.54584080 0.54394990
0.49420407 0.54907489 0.53481281
0.53928477 0.55223578 0.52550060
0.58288759 0.55557847 0.51651585
0.62359244 0.55474830 0.50021958
0.66687083 0.55344629 0.48277283
0.70985842 0.55152363 0.46668211
0.75140065 0.54879498 0.45016575
0.78801030 0.54627556 0.43605620
0.82002914 0.54451865 0.42447406
0.84856009 0.54355884 0.41483799
0.87440282 0.54329944 0.40684062
0.89830321 0.54400206 0.40040162
0.92023820 0.54545730 0.39542213
0.94036245 0.54776645 0.39181143
0.95638704 0.54954368 0.38874930
-0.09377494 0.54029775 0.70955449
-0.09363814 0.54201275 0.71119702
-0.09329578 0.54582477 0.71483988
-0.09280401 0.55140758 0.72012722
-0.09101204 0.55279338 0.72082263
-0.08303014 0.55342948 0.71808058
-0.06113935 0.55495226 0.71049458
-0.03676821 0.55705899 0.70270026
0.00205855 0.55999035 0.69242471
0.04924991 0.56286561 0.67993915
0.09700309 0.56520456 0.66655988
0.14493184 0.56702137 0.65259957
0.19320229 0.56863624 0.63841891
0.24226619 0.56979692 0.62388951
0.29290655 0.57100612 0.61048698
0.34501097 0.57267267 0.59943855
0.39615509 0.57516456 0.59001327
0.44522107 0.57783973 0.58059710
0.49156144 0.58044434 0.57131505
0.53540134 0.58287311 0.56190854
