lut/57360081-9de5-4e49-a416-e7c392a32aa0.cube
TITLE "Faded Golden Wash"
LUT_3D_SIZE 9
0.028275 0.0293736 0.0355993
0.0439307 0.0336004 0.0378882
0.218326 0.0524453 0.00077821
0.43035 0.00607309 0
0.596017 0 0
0.669581 0 0
0.694011 0 0
0.697108 0 0
0.698512 0 0
0.0242466 0.0433204 0.0375525
0.0279088 0.0422217 0.0377508
0.152483 0.0483711 0.022858
0.370108 0.0417487 0
0.56051 0 0
0.653742 0 0
0.683619 0 0
0.683619 0 0
0.684565 0 0
0 0.105928 0.0539406
0 0.0974899 0.0523384
0.0978103 0.111238 0.0475166
0.381155 0.148363 0
0.619058 0.150698 0
0.728893 0.127001 0
0.758694 0.119188 0
0.75378 0.0998245 0
0.741695 0.035172 0
0 0.248844 0.0457313
0 0.232395 0.0516365
0 0.233539 0.0469215
0.370565 0.336919 0
0.674769 0.383413 0
0.828779 0.381003 0
0.874968 0.372183 0
0.881331 0.36791 0
0.86598 0.336461 0
0 0.379904 0
0 0.366674 0
0 0.354162 0
0.161563 0.488121 0
0.662074 0.61178 0
0.897581 0.651804 0
0.975677 0.643198 0
0.990829 0.63505 0
0.976226 0.597848 0
0 0.434836 0
0 0.431144 0
0 0.425879 0
0 0.449317 0
0.487953 0.688777 0
0.858412 0.788952 0
1 0.809293 0
1 0.793698 0
1 0.773953 0
0 0.45623 0
0 0.4551 0
0 0.452369 0
0 0.45156 0
0 0.545632 0
0.669169 0.779324 0
0.972869 0.859709 0
1 0.85655 0
1 0.850416 0
0 0.480781 0
0 0.480613 0
0 0.477272 0
0 0.47483 0
0 0.476905 0
0 0.605539 0
0.783078 0.825086 0
1 0.877775 0
1 0.87277 0
0 0.489479 0
0 0.489479 0
0 0.489479 0
0 0.489479 0
0 0.489479 0
0 0.489479 0
0.00886549 0.633433 0
0.888487 0.855177 0
1 0.877623 0
0.0271763 0.0300908 0.0577401
0.0430457 0.0351568 0.0630808
0.22829 0.049073 0.0487831
0.444083 0 0.00505074
0.610758 0 0.00602731
0.68188 0 0.00526436
0.698222 0 0.0127108
0.698573 0 0.0288548
0.699275 0 0.0510262
0.0242313 0.0420539 0.0369116
0.0327916 0.0416571 0.0376135
0.160006 0.049073 0.02121
0.380148 0.00869764 0
0.570626 0 0
0.664942 0 0
0.696925 0 0
0.698329 0 0
0.698299 0 0.010071
0 0.101137 0.0532845
0 0.0931868 0.0512398
0.102693 0.106996 0.0466163
0.377752 0.141039 0
0.610376 0.139422 0
0.718379 0.10837 0
0.747036 0.0903792 0
0.751736 0.0156405 0
0.743832 0 0
0 0.241062 0.0489509
0 0.223896 0.0532235
0 0.226963 0.0476234
0.378485 0.320653 0
0.6701 0.361028 0
0.816526 0.354299 0
0.861128 0.342611 0
0.865782 0.336065 0
0.849607 0.30248 0
0 0.373709 0
0 0.360128 0
0 0.345235 0
0.27393 0.494667 0
0.685588 0.596277 0
0.894652 0.624826 0
0.965148 0.612589 0
0.979065 0.604974 0
0.964019 0.567178 0
0 0.432593 0
0 0.428779 0
0 0.422629 0
0 0.503685 0
0.578561 0.706081 0
0.887556 0.783551 0
1 0.795789 0
1 0.779904 0
1 0.760113 0
0 0.454963 0
0 0.45388 0
0 0.451026 0
0 0.449744 0
0.233097 0.647547 0
0.765499 0.804929 0
0.99173 0.86041 0
1 0.853147 0
1 0.846235 0
0 0.478798 0
0 0.478767 0
0 0.475715 0
0 0.473335 0
0 0.475288 0
0.4318 0.71725 0
0.868376 0.847929 0
1 0.87599 0
1 0.872038 0
0 0.489479 0
0 0.489479 0
0 0.489479 0
0 0.489479 0
0 0.489479 0
0 0.489479 0
0.502815 0.743175 0
0.955612 0.871611 0
1 0.877043 0
0 0 0.275273
0 0 0.250385
0.190402 0 0.258717
0.442771 0 0.280858
0.628901 0 0.305669
0.706508 0 0.319615
0.723613 0 0.322759
0.722988 0 0.317693
0.721309 0 0.303105
0 0.0372931 0.150759
4.57771e-05 0.0326238 0.145678
0.142733 0.0319524 0.160708
0.382239 0 0.182086
0.585138 0 0.208759
0.682292 0 0.224842
0.714443 0 0.233356
0.713985 0 0.22884
0.7131 0 0.219974
0 0.108721 0.0823835
0 0.0999619 0.0770123
0.135134 0.118547 0.0817731
0.393713 0.130907 0.0756085
0.603204 0.0673381 0.0501106
0.716396 0 0.0615396
0.750042 4.57771e-05 0.0875563
0.748898 0 0.104921
0.737484 0 0.109758
0 0.234363 0.0512703
0 0.217609 0.0545205
0.00320439 0.228931 0.0293584
0.393515 0.307744 0
0.653178 0.338979 0
0.814694 0.340963 0
0.863111 0.331502 0
0.870008 0.325032 0
0.854612 0.289601 0
0 0.367727 0
0 0.353445 0
0 0.34493 0
0.304616 0.48954 0
0.678111 0.579187 0
0.88394 0.606317 0
0.956481 0.59443 0
0.971679 0.587213 0
0.957702 0.551293 0
0 0.430304 0
0 0.426505 0
0 0.41973 0
0 0.507622 0
0.574517 0.699641 0
0.880262 0.776089 0
0.99968 0.789288 0
1 0.773266 0
1 0.75256 0
0 0.453666 0
0 0.452613 0
0 0.449973 0
0 0.448569 0
0.267781 0.65388 0
0.767132 0.803983 0
0.990936 0.858671 0
1 0.851102 0
1 0.84416 0
0 0.476982 0
0 0.47718 0
0 0.474434 0
0 0.472053 0
0 0.473838 0
0.469337 0.729259 0
0.878431 0.85005 0
1 0.875517 0
1 0.87155 0
0 0.489479 0
0 0.489479 0
0 0.489479 0
0 0.489479 0
0 0.489479 0
0 0.489479 0
0.564172 0.762539 0
0.967239 0.87454 0
1 0.876921 0
0 0 0.432609
0 0 0.422705
0 0 0.419806
0.370275 0 0.487984
0.63032 0 0.529854
0.732036 0 0.547036
0.757443 0 0.554376
0.756298 0 0.548669
0.752911 0 0.533364
0 0 0.38497
0 0 0.377325
0 0 0.365286
0.326711 0 0.429694
0.58497 0 0.473869
0.71014 0 0.497169
0.747372 0 0.506493
0.746944 0 0.499397
0.745327 0 0.48574
0 0.120302 0.267063
0 0.110384 0.256077
0.0509651 0.123491 0.275013
0.362951 0.1355 0.32932
0.598505 0.0578317 0.369116
0.731807 0 0.403571
0.771588 0 0.419547
0.770764 0 0.418494
0.754849 0 0.398093
0 0.284276 0.207462
0 0.266987 0.192981
0.00030518 0.276448 0.186816
0.404517 0.326757 0.201495
0.615869 0.350881 0.2477
0.769619 0.34641 0.27248
0.841947 0.302464 0.277226
0.850309 0.298528 0.301732
0.836118 0.258686 0.301518
0 0.393957 0.102739
0 0.389105 0.0906996
0 0.399344 0.0504005
0.371695 0.521859 1.5259e-05
0.700328 0.588159 1.5259e-05
0.882048 0.602625 0
0.946105 0.584482 3.0518e-05
0.95227 0.569131 0.0244144
0.936675 0.530785 0.0732433
0 0.429648 0
0 0.425391 0
0 0.417777 0
0.0246128 0.557946 0
0.623957 0.705943 0
0.890089 0.769024 0
0.999023 0.779522 0
1 0.781033 0
1 0.762264 0
0 0.452918 0
0 0.451881 0
0 0.449149 0
0 0.447532 0
0.373861 0.682414 0
0.790967 0.809186 0
0.993713 0.857069 0
1 0.848386 0
1 0.841413 0
0 0.475456 0
0 0.475853 0
0 0.473045 0
0 0.470817 0
0 0.481926 0
0.506203 0.741024 0
0.888533 0.852186 0
1 0.875135 0
1 0.871061 0
0 0.489479 0
0 0.489479 0
0 0.489479 0
0 0.489479 0
0 0.489479 0
0 0.489479 0
0.583215 0.768277 0
0.969451 0.87509 0
1 0.876936 0
0 0 0.532799
0 0 0.511742
0 0 0.491859
0.0747387 0 0.52163
0.569406 0 0.609567
0.750225 0 0.634867
0.786313 0 0.645014
0.783825 0 0.639796
0.777447 0 0.626947
0 0 0.513924
0 0 0.507027
0 0 0.479469
0.0639963 0 0.495781
0.518746 0 0.578073
0.718456 0 0.608454
0.769741 0 0.61854
0.773068 0 0.617029
0.771084 0 0.611856
0 0.0353704 0.487282
0 0.00967422 0.473793
0 0 0.47042
0.225803 0.112764 0.542641
0.548898 0.0454108 0.593362
0.737972 0 0.618341
0.794736 0 0.624262
0.798535 0 0.619455
0.783688 0 0.59324
0 0.32488 0.490089
0 0.296254 0.465446
0 0.290898 0.463584
0.311711 0.351431 0.506142
0.618143 0.366049 0.549981
0.788144 0.345495 0.576806
0.84683 0.318898 0.592416
0.859617 0.315007 0.605295
0.846143 0.26746 0.592645
0 0.462211 0.394965
0 0.460014 0.382223
0 0.465095 0.362051
0.294255 0.555047 0.374121
0.658915 0.610574 0.415
0.817182 0.63534 0.487022
0.907134 0.635645 0.523735
0.941543 0.599283 0.522133
0.933059 0.565606 0.53547
0 0.481392 0.233127
0 0.48835 0.2318
0 0.495781 0.208148
0.0779126 0.618387 0.170275
0.619776 0.723522 0.130022
0.861479 0.772015 0.176226
0.971496 0.78645 0.262898
0.997421 0.78407 0.330037
0.99585 0.77145 0.377386
0 0.453223 0
0 0.451942 0
0 0.449149 0
0 0.513115 0
0.476997 0.715068 0
0.825879 0.830091 0
0.995453 0.863523 0
1 0.850217 0
1 0.839261 0.00529488
0 0.475364 0
0 0.475624 0
0 0.472969 0
0 0.470558 0
0 0.567422 0
0.601358 0.76997 0
0.918074 0.859022 0
1 0.874434 0
1 0.870359 0
0 0.489479 0
0 0.489479 0
0 0.489479 0
0 0.489479 0
0 0.489479 0
0 0.571923 0
0.666117 0.792721 0
0.985962 0.879255 0
1 0.876799 0
0 0 0.558694
0 0 0.555978
0 0 0.546777
0 0 0.518868
0.227222 0 0.580163
0.713176 0 0.656962
0.798199 0 0.673945
0.803769 0 0.677531
0.825147 0.142428 0.712963
0 0 0.562844
0 0 0.560281
0 0 0.553964
0 0 0.544213
0.224918 0 0.579705
0.68545 0 0.652888
0.792691 0 0.671305
0.803769 0 0.677531
0.803769 0 0.677531
0 0.110552 0.590417
0 0.0554665 0.57615
0 0.00686656 0.566079
0 0.0129854 0.565469
0.337835 0.210193 0.664073
0.699657 0.1729 0.700603
0.802899 0.0712902 0.701259
0.816083 0.0263218 0.698848
0.809812 0.000106813 0.682963
0 0.332982 0.661891
0 0.29662 0.641764
0 0.259342 0.62121
0 0.297047 0.655741
0.463615 0.372244 0.709834
0.743481 0.364721 0.734447
0.847715 0.332631 0.737316
0.871015 0.335027 0.740642
0.858564 0.285451 0.72665
0 0.503349 0.664286
0 0.481895 0.64622
0 0.460609 0.625422
0 0.560769 0.668528
0.543297 0.628809 0.705364
0.802304 0.645121 0.732982
0.91133 0.623301 0.745495
0.937682 0.611322 0.754864
0.932799 0.580163 0.753368
0 0.54934 0.55581
0 0.548363 0.548409
0 0.55819 0.52987
0 0.672068 0.549981
0.539193 0.772732 0.585275
0.819226 0.821836 0.628214
0.93077 0.838346 0.694347
0.977646 0.840009 0.721538
0.984512 0.806668 0.70811
0 0.520912 0.33254
0 0.523461 0.349874
0 0.51693 0.330144
0 0.609064 0.339773
0.427955 0.758541 0.359976
0.772976 0.839368 0.407172
0.945693 0.875853 0.461051
1 0.887587 0.518532
1 0.886564 0.560632
0 0.476219 0
0 0.476448 0
0 0.473701 0
0 0.47126 0
0.0153506 0.633448 0.000228885
0.632731 0.780438 0.00730907
0.889479 0.843183 0.0835126
0.998306 0.869078 0.207919
1 0.873549 0.302708
0 0.489479 0
0 0.489479 0
0 0.489479 0
0 0.489479 0
0 0.489479 0
0.107195 0.645228 0
0.738643 0.81384 0
0.993332 0.880629 0
1 0.876677 0
0 0.0443732 0.57557
0 0.0257115 0.572091
0 0 0.566278
0 0 0.563272
0 0 0.559838
0.358221 0.158099 0.650446
0.783658 0 0.69012
0.813733 0.0347906 0.699397
0.8636 0.307744 0.753887
0 0.0620279 0.578866
0 0.0383307 0.574441
0 0 0.567254
0 0 0.564034
0 0 0.560693
0.326848 0.161959 0.646983
0.771176 1.5259e-05 0.689998
0.809415 0 0.69099
0.833646 0.185321 0.722194
0 0.203189 0.629602
0 0.175708 0.619074
0 0.148714 0.608545
0 0.134463 0.602564
0 0.122316 0.597452
0.410803 0.271672 0.697643
0.788235 0.223743 0.725673
0.839048 0.218921 0.729671
0.830808 0.171099 0.719127
0 0.376349 0.702052
0 0.347646 0.69044
0 0.31928 0.678492
0 0.303944 0.672419
0 0.322118 0.690379
0.558099 0.4495 0.767391
0.835752 0.431632 0.78378
0.890822 0.423758 0.785046
0.888365 0.402106 0.779293
0 0.516426 0.745464
0 0.494759 0.738125
0 0.471168 0.729412
0 0.450919 0.720592
0.0289769 0.585168 0.776226
0.664714 0.64802 0.816037
0.88159 0.64184 0.827115
0.937224 0.626368 0.827314
0.938476 0.605478 0.82324
0 0.576013 0.744198
0 0.570932 0.738949
0 0.562356 0.729091
0 0.609033 0.753613
0.209888 0.759243 0.788373
0.716823 0.827344 0.824277
0.91429 0.842527 0.838651
0.974502 0.829602 0.842817
0.980346 0.814191 0.843137
0 0.582498 0.660594
0 0.581186 0.663417
0 0.576959 0.64625
0 0.648615 0.670848
0.199573 0.796506 0.70396
0.703929 0.877104 0.745861
0.91107 0.912383 0.776486
0.979706 0.92285 0.814618
0.998154 0.924269 0.827008
0 0.555611 0.41828
0 0.56318 0.456031
0 0.560479 0.451911
0 0.557656 0.44715
0.00106813 0.723247 0.499382
0.598688 0.837125 0.549416
0.86183 0.895094 0.598489
0.980133 0.920485 0.64715
1 0.926284 0.68397
0 0.489479 0
0 0.489479 0
0 0.489479 0
0 0.489479 0
0 0.508019 0.160662
0.272145 0.704631 0.205814
0.727291 0.820966 0.266743
0.947143 0.87509 0.337057
1 0.891569 0.413169
0 0.0903029 0.58703
0 0.0952468 0.58851
0 0.121569 0.597131
0 0.114672 0.594308
0 0.0956436 0.588632
0 0.0708782 0.581231
0.531746 0.235172 0.698161
0.850248 0.306218 0.753735
0.90071 0.44947 0.791547
0 0.136263 0.603311
0 0.131456 0.601297
0 0.123964 0.598138
0 0.108721 0.592523
0 0.0893111 0.586725
0 0.0640421 0.579232
0.478813 0.233463 0.691356
0.823407 0.201007 0.724926
0.878096 0.361669 0.768856
0 0.258976 0.654185
0 0.237995 0.645151
0 0.214542 0.634577
0 0.196933 0.627207
0 0.18056 0.620935
0 0.158114 0.612329
0.49546 0.301259 0.71693
0.831006 0.253788 0.738384
0.847852 0.248432 0.737301
0 0.401358 0.710994
0 0.372869 0.700816
0 0.343221 0.688563
0 0.325216 0.680858
0 0.317525 0.677806
0 0.308919 0.674388
0.617487 0.463172 0.775845
0.875669 0.433661 0.787015
0.895232 0.428473 0.786114
0 0.525795 0.751659
0 0.507469 0.747951
0 0.483131 0.73753
0 0.466194 0.731304
0 0.459297 0.729397
0 0.54551 0.777096
0.727428 0.664591 0.828367
0.92372 0.645563 0.834821
0.9449 0.636591 0.833707
0 0.581674 0.770718
0 0.57583 0.767422
0 0.568322 0.764508
0 0.560418 0.761715
0 0.558358 0.761547
0.224384 0.764035 0.824414
0.803189 0.835584 0.860319
0.957137 0.832181 0.866239
0.981247 0.823194 0.865766
0 0.598062 0.768917
0 0.595712 0.767269
0 0.594217 0.765408
0 0.593042 0.764752
0 0.710903 0.814206
0.461509 0.8477 0.842115
0.831617 0.909133 0.867613
0.968612 0.923476 0.875349
0.995895 0.920516 0.875731
0 0.612833 0.730007
0 0.612314 0.737911
0 0.609339 0.733822
0 0.605829 0.728283
0 0.737057 0.780484
0.453803 0.855039 0.807248
0.80061 0.91751 0.836484
0.957992 0.942916 0.851835
0.996796 0.948806 0.863752
0 0.581521 0.507317
0 0.591272 0.555001
0 0.593652 0.565393
0 0.592889 0.561761
0 0.609903 0.58735
0.139452 0.789975 0.644907
0.695399 0.881758 0.69752
0.920226 0.925536 0.734447
0.994202 0.940444 0.766522
0 0.0700847 0.580987
0 0.0750439 0.582467
0 0.103182 0.590875
0 0.13611 0.60325
0 0.181155 0.621164
0 0.220447 0.637232
0 0.25536 0.652705
0.327947 0.452094 0.751003
0.91162 0.563531 0.81828
0 0.124559 0.598398
0 0.119615 0.596307
0 0.130419 0.600855
0 0.154482 0.610941
0 0.195315 0.626581
0 0.175494 0.618997
0 0.181567 0.621317
0.479057 0.395941 0.745129
0.896376 0.484154 0.800351
0 0.299641 0.67071
0 0.284901 0.66479
0 0.273747 0.660227
0 0.266361 0.657206
0 0.252735 0.651637
0 0.235126 0.643854
0 0.209308 0.632212
0.617456 0.340276 0.741405
0.874464 0.383383 0.77438
0 0.43682 0.722759
0 0.414984 0.715724
0 0.386236 0.705592
0 0.366629 0.698558
0 0.356329 0.694163
0 0.345022 0.689326
0 0.32604 0.681208
0.701747 0.479835 0.786618
0.893675 0.44686 0.791119
0 0.534173 0.753628
0 0.517815 0.750042
0 0.497017 0.743725
0 0.47953 0.735927
0 0.472129 0.732937
0 0.466957 0.731502
0 0.458335 0.729137
0.798093 0.668025 0.832685
0.939269 0.642466 0.834791
0 0.582803 0.771359
0 0.57702 0.768093
0 0.569787 0.765057
0 0.562539 0.762432
0 0.55819 0.760967
0 0.555703 0.760128
0 0.722179 0.81857
0.86656 0.83154 0.862455
0.97377 0.821225 0.865309
0 0.60116 0.77525
0 0.598795 0.77409
0 0.596613 0.773342
0 0.594186 0.772824
0 0.592859 0.772763
0 0.616114 0.784741
0.459663 0.846433 0.847196
0.902358 0.914702 0.875471
0.988876 0.917372 0.878614
0 0.625193 0.786114
0 0.62298 0.785367
0 0.62034 0.784543
0 0.617563 0.783444
0 0.616312 0.783062
0 0.764782 0.832822
0.605615 0.886702 0.860685
0.905165 0.938033 0.879805
0.989609 0.948577 0.88336
0 0.62327 0.764263
0 0.625101 0.772213
0 0.62536 0.773175
0 0.625055 0.772
0 0.625635 0.774243
0 0.771908 0.821958
0.568963 0.880827 0.847684
0.874327 0.935149 0.869307
0.981521 0.951553 0.877028
