lut/57360081-9de5-4e49-a416-e7c392a32aa0.cube
TITLE "Faded Golden Wash"
LUT_3D_SIZE 5
0.028275 0.0293736 0.0355993
0.218326 0.0524453 0.00077821
0.596017 0 0
0.694011 0 0
0.698512 0 0
0 0.105928 0.0539406
0.0978103 0.111238 0.0475166
0.619058 0.150698 0
0.758694 0.119188 0
0.741695 0.035172 0
0 0.379904 0
0 0.354162 0
0.662074 0.61178 0
0.975677 0.643198 0
0.976226 0.597848 0
0 0.45623 0
0 0.452369 0
0 0.545632 0
0.972869 0.859709 0
1 0.850416 0
0 0.489479 0
0 0.489479 0
0 0.489479 0
0.00886549 0.633433 0
1 0.877623 0
0 0 0.275273
0.190402 0 0.258717
0.628901 0 0.305669
0.723613 0 0.322759
0.721309 0 0.303105
0 0.108721 0.0823835
0.135134 0.118547 0.0817731
0.603204 0.0673381 0.0501106
0.750042 4.57771e-05 0.0875563
0.737484 0 0.109758
0 0.367727 0
0 0.34493 0
0.678111 0.579187 0
0.956481 0.59443 0
0.957702 0.551293 0
0 0.453666 0
0 0.449973 0
0.267781 0.65388 0
0.990936 0.858671 0
1 0.84416 0
0 0.489479 0
0 0.489479 0
0 0.489479 0
0.564172 0.762539 0
1 0.876921 0
0 0 0.532799
0 0 0.491859
0.569406 0 0.609567
0.786313 0 0.645014
0.777447 0 0.626947
0 0.0353704 0.487282
0 0 0.47042
0.548898 0.0454108 0.593362
0.794736 0 0.624262
0.783688 0 0.59324
0 0.462211 0.394965
0 0.465095 0.362051
0.658915 0.610574 0.415
0.907134 0.635645 0.523735
0.933059 0.565606 0.53547
0 0.453223 0
0 0.449149 0
0.476997 0.715068 0
0.995453 0.863523 0
1 0.839261 0.00529488
0 0.489479 0
0 0.489479 0
0 0.489479 0
0.666117 0.792721 0
1 0.876799 0
0 0.0443732 0.57557
0 0 0.566278
0 0 0.559838
0.783658 0 0.69012
0.8636 0.307744 0.753887
0 0.203189 0.629602
0 0.148714 0.608545
0 0.122316 0.597452
0.788235 0.223743 0.725673
0.830808 0.171099 0.719127
0 0.516426 0.745464
0 0.471168 0.729412
0.0289769 0.585168 0.776226
0.88159 0.64184 0.827115
0.938476 0.605478 0.82324
0 0.582498 0.660594
0 0.576959 0.64625
0.199573 0.796506 0.70396
0.91107 0.912383 0.776486
0.998154 0.924269 0.827008
0 0.489479 0
0 0.489479 0
0 0.508019 0.160662
0.727291 0.820966 0.266743
1 0.891569 0.413169
0 0.0700847 0.580987
0 0.103182 0.590875
0 0.181155 0.621164
0 0.25536 0.652705
0.91162 0.563531 0.81828
0 0.299641 0.67071
0 0.273747 0.660227
0 0.252735 0.651637
0 0.209308 0.632212
0.874464 0.383383 0.77438
0 0.534173 0.753628
0 0.497017 0.743725
0 0.472129 0.732937
0 0.458335 0.729137
0.939269 0.642466 0.834791
0 0.60116 0.77525
0 0.596613 0.773342
0 0.592859 0.772763
0.459663 0.846433 0.847196
0.988876 0.917372 0.878614
0 0.62327 0.764263
0 0.62536 0.773175
0 0.625635 0.774243
0.568963 0.880827 0.847684
0.981521 0.951553 0.877028
