lut/57360081-9de5-4e49-a416-e7c392a32aa0.cube
TITLE "Faded Golden Wash"
LUT_3D_SIZE 33
0.028275 0.0293736 0.0355993
0.028275 0.0293736 0.0355993
0.028275 0.0293736 0.0355993
0.0338598 0.0308843 0.0381933
0.0439307 0.0336004 0.0378882
0.076524 0.039704 0.0357824
0.116152 0.0459907 0.0319066
0.172366 0.0502022 0.018616
0.218326 0.0524453 0.00077821
0.269886 0.0525063 0
0.32723 0.0484474 0
0.382147 0.0394446 0
0.43035 0.00607309 0
0.479393 0 0
0.526024 0 0
0.564874 0 0
0.596017 0 0
0.621134 0 0
0.641443 0 0
0.656855 0 0
0.669581 0 0
0.682841 0 0
0.690898 0 0
0.693141 0 0
0.694011 0 0
0.694896 0 0
0.69575 0 0
0.696605 0 0
0.697108 0 0
0.697566 0 0
0.697963 0 0
0.698283 0 0
0.698512 0 0
0.028275 0.0293736 0.0355993
0.028275 0.0293736 0.0355993
0.028275 0.0293736 0.0355993
0.0315557 0.030457 0.0378576
0.0394293 0.0327764 0.0380865
0.0690623 0.037644 0.0359503
0.102846 0.0448005 0.0331426
0.159304 0.049073 0.023209
0.205997 0.0520638 0.00115969
0.257084 0.0529641 0
0.313909 0.0497749 0
0.369192 0.0419165 0
0.419104 0.0150149 0
0.467506 0.000671397 0
0.51577 0 0
0.556237 0 0
0.588647 0 0
0.615305 0 0
0.636439 0 0
0.652811 0 0
0.664942 0 0
0.674662 0 0
0.68368 0 0
0.6916 0 0
0.692729 0 0
0.693629 0 0
0.694438 0 0
0.695293 0 0
0.696101 0 0
0.696773 0 0
0.6972 0 0
0.697536 0 0
0.697841 0 0
0.028275 0.0293736 0.0355993
0.028275 0.0293736 0.0355993
0.028275 0.0293736 0.0355993
0.0294499 0.0299229 0.0364843
0.0386206 0.0315404 0.0361028
0.0579538 0.0350958 0.0355383
0.0882734 0.043183 0.0340734
0.142885 0.0476387 0.0285039
0.193301 0.0513924 0.00668345
0.24097 0.0533303 0.000106813
0.297642 0.0514076 0
0.354986 0.0446326 0
0.406561 0.024979 0
0.455222 0.0021973 0
0.503944 0 0
0.547707 0 0
0.580987 0 0
0.609216 0 0
0.631769 0 0
0.648753 0 0
0.661738 0 0
0.671397 0 0
0.678477 0 0
0.684611 0 0
0.687129 0 0
0.691737 0 0
0.692775 0 0
0.693599 0 0
0.694362 0 0
0.695171 0 0
0.695811 0 0
0.696437 0 0
0.696834 0 0
0.0264591 0.0353246 0.0352636
0.0265507 0.0347601 0.0351263
0.0266575 0.0340124 0.0349279
0.0281224 0.033402 0.0352026
0.034226 0.0332494 0.0358129
0.0447089 0.0333562 0.0347448
0.0762951 0.0395361 0.0343328
0.118669 0.0459449 0.0305791
0.175647 0.0503395 0.0142214
0.221927 0.0528878 0.000518807
0.276875 0.0524453 0
0.336034 0.0475624 0
0.390829 0.0374914 0
0.439384 0.00418097 0
0.489006 0 0
0.535241 0 0
0.572274 0 0
0.601267 0 0
0.625589 0 0
0.644251 0 0
0.657984 0 0
0.668986 0 0
0.676371 0 0
0.683192 0 0
0.683619 0 0
0.683619 0 0
0.684474 0 0
0.686961 0 0
0.691676 0 0
0.692729 0 0
0.693477 0 0
0.694072 0 0
0.694652 0 0
0.0242466 0.0433204 0.0375525
0.0242618 0.0429236 0.0373846
0.0242161 0.0425269 0.0372015
0.0242008 0.0419623 0.0368963
0.0279088 0.0422217 0.0377508
0.0389105 0.0436103 0.0378729
0.0683452 0.0461891 0.0369726
0.103059 0.0513161 0.0335546
0.152483 0.0483711 0.022858
0.201114 0.0521248 0.00213626
0.252842 0.0533303 0
0.312535 0.0499123 0
0.370108 0.0417487 0
0.421347 0.0132296 0
0.47155 0.000167849 0
0.520302 0 0
0.56051 0 0
0.592172 0 0
0.618067 0 0
0.638605 0 0
0.653742 0 0
0.665278 0 0
0.674052 0 0
0.680735 0 0
0.683619 0 0
0.683619 0 0
0.683619 0 0
0.683619 0 0
0.683619 0 0
0.683619 0 0
0.683619 0 0
0.683665 0 0
0.684565 0 0
0.0149233 0.0521706 0.040177
0.0165866 0.0508583 0.0398718
0.0180209 0.0497444 0.0395972
0.0191501 0.0487221 0.0393072
0.0247196 0.0482338 0.0394293
0.0353094 0.049012 0.0403449
0.0523537 0.0522927 0.040528
0.0919814 0.0583505 0.0380407
0.145708 0.0640574 0.0317388
0.209995 0.0674907 0.0065919
0.260182 0.0691539 4.57771e-05
0.317205 0.0653849 0
0.374472 0.057435 0
0.419867 0.0406195 0
0.452308 0.00256352 0
0.502876 0 0
0.547189 0 0
0.581079 0 0
0.60914 0 0
0.631769 0 0
0.648356 0 0
0.661326 0 0
0.671061 0 0
0.678172 0 0
0.683619 0 0
0.683619 0 0
0.683619 0 0
0.683619 0 0
0.683619 0 0
0.683619 0 0
0.683619 0 0
0.683619 0 0
0.683619 0 0
0.00175479 0.0670939 0.0440833
0.00207523 0.0659495 0.0437476
0.00242618 0.0647135 0.0433814
0.0027924 0.063386 0.0429999
0.00317388 0.0620584 0.0426032
0.014313 0.0616617 0.0428016
0.0382849 0.0642863 0.0433814
0.0809339 0.0695659 0.0417182
0.126436 0.0767681 0.0371557
0.197116 0.0807355 0.0170596
0.255665 0.0842298 0
0.316457 0.0865034 0
0.381811 0.0855116 0
0.442786 0.0815442 0
0.494209 0.0720989 0
0.54258 0.0493935 0
0.585687 0.00981155 0
0.619806 0 0
0.645136 0 0
0.663706 0 0
0.676738 0 0
0.684291 0 0
0.687221 0 0
0.675532 0 0
0.682185 0 0
0.683619 0 0
0.683619 0 0
0.683619 0 0
0.683619 0 0
0.683619 0 0
0.683619 0 0
0.683619 0 0
0.683619 0 0
0 0.0823682 0.0484169
0 0.0813153 0.048127
0 0.0801709 0.0478065
0 0.0789807 0.0474861
0 0.0776684 0.0471199
0 0.0770733 0.0472725
0.0197299 0.0785534 0.0470588
0.0611429 0.0845655 0.0464332
0.109392 0.0945144 0.0418555
0.18265 0.102541 0.030457
0.252094 0.110369 0.00268559
0.312032 0.116396 0
0.381079 0.119036 0
0.448264 0.119509 0
0.505714 0.117327 0
0.556741 0.110597 0
0.604562 0.100649 0
0.640848 0.086244 0
0.667613 0.066743 0
0.688579 0.0475929 0
0.703548 0.0314336 0
0.714076 0.0201267 0
0.721431 0.0106966 0
0.726421 0.0099794 0
0.729671 0.00842298 0
0.730861 0.00543221 0
0.728542 0.00161746 0
0.726329 0 0
0.724132 0 0
0.72166 0 0
0.718563 0 0
0.715114 0 0
0.711131 0 0
0 0.105928 0.0539406
0 0.103746 0.0537575
0 0.10135 0.0533303
0 0.099382 0.0528267
0 0.0974899 0.0523384
0 0.0955215 0.0518349
0 0.0959793 0.0523079
0.0192264 0.100771 0.0514992
0.0978103 0.111238 0.0475166
0.16524 0.123064 0.0353094
0.247593 0.133288 0.00521859
0.311254 0.141909 0
0.381155 0.148363 0
0.453605 0.152773 0
0.516823 0.155032 0
0.569986 0.154574 0
0.619058 0.150698 0
0.660945 0.145129 0
0.69073 0.13962 0
0.712596 0.133089 0
0.728893 0.127001 0
0.740719 0.124086 0
0.748745 0.12282 0
0.754742 0.119127 0
0.758694 0.119188 0
0.761807 0.119539 0
0.759197 0.11284 0
0.756558 0.106508 0
0.75378 0.0998245 0
0.751278 0.0871138 0
0.748592 0.0725414 0
0.745434 0.055436 0
0.741695 0.035172 0
0 0.138735 0.0564889
0 0.136339 0.0563363
0 0.133547 0.0561532
0 0.130678 0.0559701
0 0.127611 0.0557565
0 0.125231 0.0555734
0 0.124407 0.0558022
1.5259e-05 0.128557 0.0547189
0.0645304 0.138811 0.0491493
0.14342 0.153948 0.0360113
0.236606 0.16875 0.00462348
0.310384 0.182101 0
0.381506 0.190829 0
0.457389 0.198352 0
0.527001 0.203601 0
0.583352 0.205341 0
0.633326 0.203983 0
0.677928 0.200565 0
0.711498 0.195682 0
0.736049 0.190463 0
0.753887 0.185702 0
0.766934 0.181857 0
0.776654 0.180484 0
0.783322 0.179614 0
0.788342 0.180316 0
0.791989 0.182544 0
0.792325 0.180591 0
0.789319 0.174823 0
0.786831 0.170275 0
0.78381 0.164752 0
0.780499 0.158694 0
0.77763 0.15346 0
0.773617 0.146151 0
0 0.171862 0.0580301
0 0.169604 0.0579538
0 0.166155 0.0578317
0 0.162799 0.0577096
0 0.159945 0.0576181
0 0.156893 0.0575113
0 0.154742 0.057435
0 0.159045 0.056733
0.00932326 0.16936 0.0509651
0.114611 0.1879 0.0310063
0.220844 0.207904 0.000839246
0.307729 0.226505 1.5259e-05
0.380941 0.239719 0
0.460334 0.249989 0
0.534752 0.258045 0
0.596582 0.26331 0
0.648768 0.264591 0
0.696117 0.263539 0
0.73315 0.261295 0
0.759411 0.257282 0
0.778851 0.253193 0
0.793469 0.249027 0
0.803845 0.246708 0
0.811322 0.24593 0
0.817227 0.24593 0
0.820996 0.246769 0
0.824216 0.2477 0
0.821424 0.241413 0
0.818463 0.23473 0
0.815488 0.228046 0
0.812177 0.220584 0
0.808865 0.213779 0
0.805112 0.206256 0
0 0.208621 0.0560616
0 0.205417 0.0566567
0 0.202045 0.0569162
0 0.198077 0.0571145
0 0.194003 0.0573129
0 0.190692 0.0574807
0 0.187839 0.0576333
0 0.189456 0.0577707
0 0.200748 0.0524453
0.061677 0.219516 0.0189364
0.193118 0.246143 1.5259e-05
0.302678 0.270481 0
0.380514 0.286976 0
0.460456 0.300099 0
0.540764 0.310521 0
0.608392 0.317937 0
0.663844 0.322469 0
0.712413 0.322957 0
0.753185 0.32134 0
0.783123 0.319005 0
0.804059 0.315511 0
0.819959 0.311803 0
0.832303 0.30988 0
0.840131 0.308995 0
0.846204 0.309178 0
0.850507 0.310933 0
0.85417 0.313756 0
0.853178 0.309987 0
0.850538 0.304463 0
0.847257 0.297551 0
0.843778 0.290242 0
0.840314 0.282948 0
0.836271 0.274464 0
0 0.248844 0.0457313
0 0.245655 0.0470436
0 0.241443 0.0487831
0 0.236851 0.0506905
0 0.232395 0.0516365
0 0.227955 0.0524605
0 0.224506 0.0531014
0 0.222919 0.0534676
0 0.233539 0.0469215
3.0518e-05 0.254185 0.0124819
0.14345 0.285756 0
0.280797 0.315328 0
0.370565 0.336919 0
0.45507 0.353323 0
0.540566 0.366842 0
0.615854 0.377142 0
0.674769 0.383413 0
0.725902 0.38616 0
0.770459 0.385641 0
0.804669 0.384268 0
0.828779 0.381003 0
0.845716 0.376837 0
0.859068 0.373754 0
0.868635 0.372564 0
0.874968 0.372183 0
0.879835 0.37322 0
0.883345 0.375708 0
0.884413 0.374533 0
0.881331 0.36791 0
0.878141 0.361379 0
0.874952 0.354864 0
0.870909 0.346548 0
0.86598 0.336461 0
0 0.287739 0.018616
0 0.284871 0.0215
0 0.280781 0.0255894
0 0.27599 0.030396
0 0.27155 0.0348516
0 0.267109 0.0381781
0 0.26302 0.0398566
0 0.259953 0.0411231
0 0.265583 0.0347753
0 0.288975 0.00671397
0.0317693 0.324666 0
0.24033 0.360235 0
0.353262 0.38851 0
0.441016 0.408759 0
0.531914 0.425757 0
0.615641 0.440009 0
0.682048 0.450248 0
0.737102 0.455253 0
0.785626 0.456764 0
0.824109 0.456947 0
0.850752 0.453819 0
0.86978 0.448417 0
0.885374 0.445502 0
0.895552 0.442603 0
0.902159 0.440208 0
0.907805 0.440436 0
0.911009 0.440986 0
0.913741 0.441596 0
0.91136 0.435462 0
0.908171 0.427588 0
0.904158 0.418433 0
0.900328 0.409918 0
0.895338 0.398825 0
0 0.321386 0.00143435
0 0.318791 0.00205997
0 0.315221 0.00289921
0 0.31078 0.00395209
0 0.306355 0.00500496
0 0.302342 0.00596628
0 0.298787 0.00753796
0 0.29543 0.0109102
0 0.295232 0.0129091
0 0.316777 0.00299077
6.10361e-05 0.354513 1.5259e-05
0.152987 0.396963 0
0.326833 0.435401 0
0.422019 0.460334 0
0.516289 0.4813 0
0.609094 0.499306 0
0.684138 0.512963 0
0.744259 0.521981 0
0.79762 0.52723 0
0.841459 0.528923 0
0.872251 0.528054 0
0.893889 0.523934 0
0.909987 0.519249 0
0.922301 0.516167 0
0.929656 0.513451 0
0.93489 0.511528 0
0.938384 0.510811 0
0.940871 0.511254 0
0.939635 0.505669 0
0.936309 0.497276 0
0.932235 0.486976 0
0.927718 0.475776 0
0.92311 0.464424 0
0 0.3523 0
0 0.349706 0
0 0.346471 0
0 0.342214 0
0 0.33785 0
0 0.333577 0
0 0.329946 0
0 0.327016 0.000106813
0 0.324849 0.000610361
0 0.335485 0.000396735
0 0.373526 0
0.0187991 0.42179 0
0.272679 0.467948 0
0.394583 0.502281 0
0.49456 0.526879 0
0.592706 0.548424 0
0.679301 0.566705 0
0.745373 0.579583 0
0.802487 0.587884 0
0.85153 0.592264 0
0.88809 0.593927 0
0.913573 0.591318 0
0.931746 0.587381 0
0.94583 0.584573 0
0.955047 0.5823 0
0.960906 0.580697 0
0.964767 0.579217 0
0.966873 0.578592 0
0.967147 0.575021 0
0.963577 0.566064 0
0.959579 0.555993 0
0.955383 0.545449 0
0.950729 0.533715 0
0 0.379904 0
0 0.377935 0
0 0.37467 0
0 0.371008 0
0 0.366674 0
0 0.362722 0
0 0.359167 0
0 0.356176 0
0 0.354162 0
0 0.353246 0
0 0.385626 0
0 0.436408 0
0.161563 0.488121 0
0.352926 0.533944 0
0.462745 0.565377 0
0.56733 0.590829 0
0.662074 0.61178 0
0.738247 0.629007 0
0.800412 0.640452 0
0.855787 0.647974 0
0.897581 0.651804 0
0.927138 0.652094 0
0.948867 0.648997 0
0.965072 0.645792 0
0.975677 0.643198 0
0.982574 0.641291 0
0.987594 0.639307 0
0.989578 0.637385 0
0.990829 0.63505 0
0.987732 0.626841 0
0.984054 0.617578 0
0.980392 0.608316 0
0.976226 0.597848 0
0 0.400763 0
0 0.399649 0
0 0.397345 0
0 0.394171 0
0 0.390768 0
0 0.387427 0
0 0.384253 0
0 0.381796 0
0 0.37966 0
0 0.378607 0
0 0.391806 0
0 0.439582 0
0.0125887 0.499443 0
0.284001 0.553811 0
0.421363 0.594568 0
0.532967 0.625391 0
0.637049 0.650568 0
0.723095 0.671061 0
0.790875 0.686168 0
0.850843 0.696757 0
0.900298 0.703655 0
0.936522 0.70721 0
0.96083 0.70576 0
0.97911 0.702968 0
0.991852 0.700679 0
0.996551 0.697078 0
0.999695 0.692988 0
0.999588 0.688533 0
0.99913 0.683848 0
0.999268 0.677699 0
0.998947 0.670115 0
0.998611 0.661692 0
0.998032 0.652842 0
0 0.415732 0
0 0.414908 0
0 0.413565 0
0 0.411292 0
0 0.408728 0
0 0.406287 0
0 0.403906 0
0 0.401862 0
0 0.400351 0
0 0.39942 0
0 0.398932 0
0 0.434684 0
0 0.494453 0
0.142184 0.5561 0
0.364981 0.610178 0
0.487541 0.647364 0
0.599863 0.67744 0
0.697917 0.702266 0
0.774456 0.721172 0
0.8392 0.73492 0
0.895125 0.744717 0
0.937499 0.750805 0
0.967742 0.752972 0
0.988754 0.751781 0
0.998154 0.74815 0
1 0.743328 0
1 0.73785 0
1 0.732509 0
1 0.727932 0
1 0.722423 0
1 0.714504 0
1 0.706584 0
1 0.698344 0
0 0.426459 0
0 0.425879 0
0 0.424872 0
0 0.423453 0
0 0.421622 0
0 0.41976 0
0 0.417945 0
0 0.416342 0
0 0.415137 0
0 0.414343 0
0 0.413916 0
0 0.422156 0
0 0.47538 0
0.00540169 0.542351 0
0.267506 0.605493 0
0.429831 0.653758 0
0.550637 0.689403 0
0.660243 0.718959 0
0.748501 0.742336 0
0.819669 0.759655 0
0.88069 0.772076 0
0.932036 0.781399 0
0.96791 0.786755 0
0.992508 0.787854 0
1 0.783551 0
1 0.778119 0
1 0.773632 0
1 0.769543 0
1 0.765835 0
1 0.760922 0
1 0.754253 0
1 0.747341 0
1 0.740047 0
0 0.434836 0
0 0.434379 0
0 0.4336 0
0 0.432486 0
0 0.431144 0
0 0.429618 0
0 0.428229 0
0 0.426841 0
0 0.425879 0
0 0.425116 0
0 0.424704 0
0 0.424704 0
0 0.449317 0
0 0.512688 0
0.0694896 0.58294 0
0.353902 0.646143 0
0.487953 0.688777 0
0.608057 0.722988 0
0.711788 0.751659 0
0.793072 0.773892 0
0.858412 0.788952 0
0.915175 0.800137 0
0.960906 0.809064 0
0.991714 0.812802 0
1 0.809293 0
1 0.804013 0
1 0.800061 0
1 0.796323 0
1 0.793698 0
1 0.790173 0
1 0.785046 0
1 0.779644 0
1 0.773953 0
0 0.441871 0
0 0.441596 0
0 0.44097 0
0 0.440116 0
0 0.438972 0
0 0.437736 0
0 0.43653 0
0 0.435355 0
0 0.434409 0
0 0.433692 0
0 0.433326 0
0 0.433326 0
0 0.433463 0
0 0.47718 0
0 0.546899 0
0.185077 0.618418 0
0.410666 0.677089 0
0.540291 0.717388 0
0.659281 0.751278 0
0.754162 0.778164 0
0.827665 0.797879 0
0.892897 0.812375 0
0.946685 0.823194 0
0.984482 0.829999 0
0.999573 0.829282 0
1 0.824537 0
1 0.821027 0
1 0.81767 0
1 0.814649 0
1 0.812009 0
1 0.808576 0
1 0.804288 0
1 0.799863 0
0 0.447456 0
0 0.447288 0
0 0.44686 0
0 0.44625 0
0 0.445457 0
0 0.444495 0
0 0.443534 0
0 0.442618 0
0 0.441871 0
0 0.441169 0
0 0.440818 0
0 0.440787 0
0 0.44094 0
0 0.44126 0
0 0.501549 0
0.00341802 0.577234 0
0.288579 0.649393 0
0.454704 0.701732 0
0.587518 0.741955 0
0.701411 0.774746 0
0.789441 0.799985 0
0.862104 0.818479 0
0.923751 0.831861 0
0.971466 0.841825 0
0.999603 0.845899 0
1 0.841443 0
1 0.837949 0
1 0.835157 0
1 0.83238 0
1 0.830335 0
1 0.827695 0
1 0.824216 0
1 0.820325 0
0 0.451789 0
0 0.451698 0
0 0.451438 0
0 0.451026 0
0 0.450477 0
0 0.449805 0
0 0.449104 0
0 0.448341 0
0 0.447745 0
0 0.44712 0
0 0.446784 0
0 0.446784 0
0 0.446906 0
0 0.447242 0
0 0.452796 0
0 0.523507 0
0.0126802 0.603082 0
0.35169 0.675578 0
0.499474 0.723598 0
0.631373 0.762646 0
0.740856 0.794629 0
0.821088 0.817243 0
0.891676 0.834485 0
0.951598 0.847807 0
0.990143 0.855695 0
1 0.854566 0
1 0.85127 0
1 0.8486 0
1 0.846342 0
1 0.844556 0
1 0.842878 0
1 0.840253 0
1 0.837308 0
0 0.45623 0
0 0.456214 0
0 0.456001 0
0 0.455665 0
0 0.4551 0
0 0.454475 0
0 0.453758 0
0 0.45301 0
0 0.452369 0
0 0.451881 0
0 0.451591 0
0 0.45156 0
0 0.45156 0
0 0.451743 0
0 0.452003 0
0 0.469032 0
0 0.545632 0
0.103746 0.625483 0
0.394293 0.694545 0
0.540413 0.741283 0
0.669169 0.779324 0
0.768902 0.808621 0
0.850477 0.831037 0
0.91989 0.847532 0
0.972869 0.859709 0
1 0.864317 0
1 0.860899 0
1 0.858488 0
1 0.85655 0
1 0.855055 0
1 0.854002 0
1 0.852567 0
1 0.850416 0
0 0.461494 0
0 0.461494 0
0 0.461341 0
0 0.46099 0
0 0.460456 0
0 0.459663 0
0 0.458839 0
0 0.457923 0
0 0.457282 0
0 0.456718 0
0 0.456382 0
0 0.456153 0
0 0.456123 0
0 0.45626 0
0 0.456596 0
0 0.456931 0
0 0.482826 0
0 0.563317 0
0.197696 0.644709 0
0.43212 0.710857 0
0.572641 0.755245 0
0.698985 0.792523 0
0.797894 0.821607 0
0.876753 0.842374 0
0.944183 0.858228 0
0.989517 0.86862 0
1 0.868437 0
1 0.865629 0
1 0.863706 0
1 0.862272 0
1 0.861219 0
1 0.860456 0
1 0.859281 0
0 0.467491 0
0 0.467628 0
0 0.467536 0
0 0.467247 0
0 0.466682 0
0 0.465919 0
0 0.465064 0
0 0.46421 0
0 0.463371 0
0 0.462547 0
0 0.461906 0
0 0.461601 0
0 0.461494 0
0 0.461631 0
0 0.462135 0
0 0.462684 0
0 0.463218 0
0 0.495933 0
0 0.579217 0
0.260029 0.662013 0
0.461524 0.723812 0
0.60444 0.768322 0
0.729107 0.805066 0
0.823987 0.832593 0
0.903548 0.852735 0
0.965301 0.867536 0
0.998718 0.874708 0
1 0.871977 0
1 0.869688 0
1 0.868055 0
1 0.866789 0
1 0.866041 0
1 0.8654 0
0 0.474037 0
0 0.474235 0
0 0.474205 0
0 0.474037 0
0 0.473564 0
0 0.472969 0
0 0.472267 0
0 0.471229 0
0 0.470161 0
