lut/59e30f1b-7e1a-453f-928f-4439724e3013.cube
TITLE "Extreme Vibrant HDR"
LUT_3D_SIZE 6
0.003607 0.009502 0.005966
0.305592 0.011996 0.026260
0.583517 0.023906 0.032446
0.702567 0.041161 0.031056
0.779583 0.050109 0.033116
0.820633 0.047639 0.035349
0.035356 0.190083 0.015322
0.210266 0.200845 0.023588
0.414245 0.199970 0.037390
0.600385 0.194822 0.052568
0.720519 0.186653 0.052751
0.786326 0.183205 0.049919
0.130095 0.394458 0.040758
0.241005 0.407065 0.049596
0.406162 0.402401 0.061575
0.608819 0.383939 0.081643
0.734653 0.365643 0.092314
0.806769 0.333811 0.080867
0.204080 0.622142 0.079845
0.309858 0.610817 0.081540
0.396953 0.604760 0.088934
0.620809 0.591123 0.097659
0.791939 0.566174 0.113179
0.886753 0.544344 0.108870
0.244735 0.799398 0.091621
0.299655 0.791560 0.093199
0.433527 0.790765 0.098864
0.621891 0.769287 0.098135
0.809666 0.748400 0.106235
0.934745 0.727608 0.108582
0.294308 0.944690 0.104663
0.334827 0.951040 0.105586
0.456064 0.947879 0.101711
0.646138 0.932326 0.100318
0.817790 0.925065 0.119988
0.943982 0.895229 0.178092
0.008343 0.038843 0.262933
0.219957 0.012247 0.213464
0.500894 0.024419 0.185503
0.700624 0.031598 0.161754
0.796012 0.034202 0.153906
0.839020 0.033767 0.152537
0.024213 0.191395 0.188095
0.176702 0.184950 0.197659
0.440709 0.140841 0.131069
0.640996 0.128263 0.105987
0.777334 0.119441 0.092810
0.826227 0.131306 0.074936
0.075090 0.384672 0.170240
0.166186 0.392074 0.114170
0.389638 0.391705 0.114154
0.622491 0.372445 0.131336
0.758692 0.355496 0.130428
0.837295 0.324030 0.108152
0.112614 0.618973 0.114192
0.223216 0.609302 0.112089
0.378837 0.598848 0.111353
0.623442 0.588490 0.118685
0.796325 0.567695 0.136847
0.888963 0.538003 0.131163
0.197077 0.802728 0.112628
0.286914 0.792924 0.111446
0.420294 0.785445 0.116043
0.626077 0.772873 0.116930
0.809558 0.752871 0.120095
0.941300 0.731767 0.125545
0.222676 0.953799 0.121151
0.297414 0.957236 0.120277
0.428460 0.955904 0.115910
0.644737 0.936966 0.111336
0.822597 0.929224 0.128475
0.954242 0.908224 0.203819
0.021697 0.093972 0.486271
0.205593 0.039677 0.480558
0.442962 0.031428 0.440704
0.664829 0.035941 0.395102
0.821053 0.040690 0.349319
0.874771 0.037187 0.310387
0.032849 0.203402 0.401411
0.114166 0.173493 0.445844
0.402026 0.152467 0.454432
0.657152 0.121483 0.375276
0.821831 0.100756 0.330428
0.884981 0.090164 0.286177
0.061442 0.367530 0.371589
0.122622 0.392456 0.387526
0.347297 0.414963 0.388759
0.676605 0.349402 0.322970
0.849045 0.295214 0.254737
0.934436 0.253418 0.206401
0.100295 0.612095 0.334558
0.135580 0.616559 0.309977
0.284808 0.624691 0.222501
0.623324 0.606170 0.219315
0.820106 0.569568 0.236563
0.923512 0.540864 0.216072
0.125178 0.799904 0.291260
0.155021 0.802610 0.233063
0.339309 0.793777 0.178034
0.602860 0.780386 0.177862
0.818260 0.766869 0.185470
0.956973 0.739500 0.199426
0.134991 0.959198 0.247840
0.163937 0.967389 0.162568
0.364521 0.967912 0.160149
0.543696 0.958243 0.158484
0.817854 0.950309 0.162607
0.972407 0.928917 0.253847
0.043434 0.140392 0.728145
0.170888 0.066666 0.754376
0.419981 0.053862 0.710461
0.619401 0.049621 0.680941
0.801164 0.057153 0.647939
0.890596 0.046848 0.561989
0.046067 0.258209 0.647569
0.095061 0.207488 0.698392
0.333769 0.151624 0.743441
0.624969 0.136133 0.680343
0.820002 0.115547 0.611900
0.912331 0.094282 0.544562
0.058455 0.387136 0.600320
0.113048 0.381322 0.627445
0.264829 0.386390 0.706274
0.651345 0.345303 0.694473
0.869355 0.274725 0.601089
0.970115 0.237079 0.518960
0.097615 0.600318 0.583437
0.133321 0.610329 0.589847
0.244658 0.631646 0.605306
0.580894 0.634962 0.582180
0.859635 0.574000 0.529814
0.969228 0.537231 0.481676
0.116845 0.785048 0.555622
0.148394 0.793119 0.546692
0.237493 0.804622 0.517283
0.516406 0.815440 0.405441
0.826202 0.790377 0.387238
0.980708 0.747633 0.440738
0.124919 0.941526 0.520414
0.149595 0.951729 0.501680
0.222369 0.966265 0.417890
0.481302 0.978550 0.281768
0.778804 0.981200 0.293857
0.998940 0.947941 0.508106
0.055388 0.157124 0.897068
0.187114 0.063769 0.906406
0.366727 0.054121 0.892747
0.580425 0.052906 0.877759
0.783962 0.056319 0.843629
0.894669 0.052443 0.817225
0.084311 0.333527 0.840463
0.121243 0.249982 0.903672
0.328522 0.194300 0.941283
0.605385 0.165692 0.900871
0.805075 0.141288 0.847426
0.916158 0.107461 0.795278
0.075978 0.420961 0.833372
0.126379 0.413992 0.864051
0.251388 0.387956 0.924690
0.587097 0.349908 0.915658
0.848341 0.275351 0.881907
0.970335 0.247144 0.796522
0.104702 0.617173 0.815442
0.135521 0.614907 0.824386
0.229103 0.614600 0.852593
0.525780 0.603310 0.887880
0.851894 0.558878 0.866136
0.980067 0.546351 0.754284
0.119891 0.782400 0.768948
0.154390 0.789406 0.777575
0.238862 0.803336 0.783780
0.468613 0.822434 0.802832
0.807812 0.805311 0.777391
0.989729 0.775597 0.734043
0.136542 0.913629 0.807598
0.158330 0.931743 0.795094
0.223240 0.956518 0.794241
0.392783 0.987247 0.706969
0.732184 0.994251 0.701912
1.023816 0.977296 0.742577
0.088267 0.174787 0.947352
0.205879 0.090865 0.950129
0.351026 0.075295 0.936802
0.559763 0.062701 0.930687
0.744411 0.061006 0.934744
0.887263 0.060370 0.934831
0.083704 0.343795 0.949418
0.165484 0.297798 0.980137
0.432796 0.347508 0.982195
0.681490 0.328238 0.981884
0.790846 0.151806 0.977673
0.919617 0.120741 0.950035
0.093345 0.475998 0.958361
0.150380 0.484357 0.986267
0.333552 0.460798 0.984758
0.594212 0.433791 0.984675
0.772628 0.363505 0.983562
0.962827 0.276060 0.978209
0.107701 0.658075 0.957696
0.155574 0.636107 0.988257
0.320353 0.624998 0.988571
0.515885 0.612417 0.986263
0.758745 0.573857 0.989757
0.974883 0.572822 0.986926
0.103829 0.804838 0.920940
0.145240 0.810161 0.960049
0.246265 0.809509 0.990037
0.511134 0.804850 0.992460
0.765101 0.814261 0.993503
0.998453 0.792623 0.987491
0.154099 0.903215 0.903157
0.189042 0.922416 0.920360
0.265533 0.954502 0.958291
0.488631 0.991389 0.994275
0.826632 1.016115 1.010931
1.028010 1.027680 1.027835
