lut/59e30f1b-7e1a-453f-928f-4439724e3013.cube
TITLE "Extreme Vibrant HDR"
LUT_3D_SIZE 16
0.003607 0.009502 0.005966
0.052697 0.003446 0.046894
0.172906 0.006552 0.020119
0.305592 0.011996 0.026260
0.422311 0.017135 0.028806
0.513545 0.020878 0.031769
0.583517 0.023906 0.032446
0.634000 0.027117 0.029692
0.670860 0.033583 0.029645
0.702567 0.041161 0.031056
0.730482 0.047258 0.031820
0.757004 0.048938 0.032416
0.779583 0.050109 0.033116
0.798022 0.049375 0.033769
0.811854 0.048498 0.034400
0.820633 0.047639 0.035349
0.005474 0.059232 0.009771
0.057555 0.058725 0.007442
0.145214 0.061760 0.010965
0.231934 0.066588 0.014938
0.321827 0.073753 0.018871
0.410533 0.079403 0.023107
0.487703 0.081538 0.027109
0.555724 0.080840 0.030869
0.614031 0.079487 0.034217
0.659577 0.082399 0.036143
0.693738 0.088024 0.036050
0.721371 0.092366 0.035641
0.746240 0.094193 0.035951
0.769411 0.094150 0.036729
0.789673 0.094626 0.037678
0.806829 0.094451 0.038710
0.020665 0.124946 0.010408
0.067201 0.126786 0.011515
0.140846 0.131459 0.014689
0.217497 0.132831 0.018607
0.290833 0.134555 0.022883
0.361909 0.137831 0.027335
0.432481 0.141304 0.031715
0.501490 0.142460 0.036072
0.567101 0.139323 0.040774
0.623742 0.134878 0.044424
0.667127 0.133968 0.044841
0.701292 0.136902 0.043738
0.729490 0.140788 0.042902
0.753201 0.142268 0.042759
0.773733 0.142995 0.043202
0.793534 0.142742 0.043962
0.035356 0.190083 0.015322
0.086304 0.198209 0.017218
0.149355 0.201507 0.020125
0.210266 0.200845 0.023588
0.278744 0.198975 0.027899
0.346249 0.198686 0.032495
0.414245 0.199970 0.037390
0.480307 0.201124 0.042425
0.542863 0.199929 0.047658
0.600385 0.194822 0.052568
0.648115 0.189081 0.055084
0.688295 0.186618 0.054999
0.720519 0.186653 0.052751
0.744423 0.185046 0.050552
0.765674 0.183502 0.049509
0.786326 0.183205 0.049919
0.067979 0.258201 0.021858
0.110278 0.266683 0.024582
0.165636 0.270709 0.027937
0.220793 0.269931 0.031687
0.276494 0.269160 0.035787
0.343074 0.267485 0.040852
0.412558 0.264689 0.046111
0.479788 0.262449 0.050978
0.540168 0.261144 0.055560
0.593290 0.258404 0.060294
0.639141 0.252824 0.064385
0.680551 0.246181 0.066536
0.715113 0.240333 0.064836
0.740765 0.234281 0.061147
0.762644 0.228772 0.058297
0.785073 0.226294 0.057540
0.100341 0.323773 0.030684
0.139360 0.332956 0.033802
0.182864 0.338776 0.037050
0.233025 0.338099 0.040192
0.284415 0.337079 0.043962
0.340648 0.336028 0.048120
0.410589 0.332236 0.053767
0.481928 0.326884 0.059874
0.544584 0.322511 0.064807
0.598760 0.319696 0.069353
0.643696 0.316502 0.073844
0.683187 0.311099 0.077814
0.718559 0.302650 0.078784
0.745791 0.292855 0.075259
0.767808 0.283420 0.071044
0.789948 0.277494 0.067579
0.130095 0.394458 0.040758
0.166626 0.402333 0.043899
0.201980 0.407666 0.046688
0.241005 0.407065 0.049596
0.288713 0.406156 0.052995
0.342144 0.404627 0.056779
0.406162 0.402401 0.061575
0.481168 0.396632 0.068769
0.549524 0.389853 0.076054
0.608819 0.383939 0.081643
0.657522 0.378535 0.086202
0.698961 0.373535 0.090596
0.734653 0.365643 0.092314
0.762578 0.354967 0.090216
0.785352 0.343616 0.086144
0.806769 0.333811 0.080867
0.155740 0.471589 0.053348
0.194540 0.474464 0.055277
0.229953 0.478608 0.057968
0.254817 0.477556 0.061068
0.288695 0.476157 0.064820
0.340914 0.473790 0.068129
0.404825 0.471184 0.072507
0.476248 0.467748 0.077533
0.550431 0.460502 0.084730
0.617220 0.452701 0.093210
0.671733 0.445129 0.098339
0.716680 0.439035 0.101576
0.754568 0.431846 0.102630
0.784418 0.422052 0.101733
0.808849 0.409534 0.099215
0.831854 0.398341 0.094986
0.177775 0.550084 0.069199
0.226377 0.546816 0.068558
0.264197 0.546845 0.070214
0.290675 0.544913 0.072883
0.303413 0.543954 0.076808
0.337798 0.542072 0.079725
0.402267 0.538660 0.081911
0.473631 0.535271 0.084843
0.546943 0.530739 0.089743
0.620438 0.522239 0.097168
0.683295 0.512773 0.105183
0.733219 0.504793 0.108828
0.774336 0.497974 0.109980
0.807484 0.490481 0.109946
0.834530 0.479414 0.108543
0.861778 0.470605 0.105349
0.204080 0.622142 0.079845
0.256419 0.616151 0.079018
0.287903 0.612690 0.079693
0.309858 0.610817 0.081540
0.321876 0.610155 0.084263
0.342507 0.608722 0.087046
0.396953 0.604760 0.088934
0.468483 0.600487 0.090717
0.542687 0.596904 0.093308
0.620809 0.591123 0.097659
0.690200 0.581420 0.104404
0.746382 0.572699 0.110484
0.791939 0.566174 0.113179
0.828560 0.560454 0.114280
0.857330 0.551182 0.113204
0.886753 0.544344 0.108870
0.232938 0.686673 0.084906
0.282692 0.680296 0.084287
0.305801 0.676878 0.085096
0.313140 0.675252 0.087113
0.324953 0.674482 0.090005
0.347499 0.672488 0.092225
0.401396 0.668350 0.093020
0.464506 0.664038 0.093686
0.539086 0.660198 0.095045
0.620745 0.655420 0.097619
0.694244 0.647568 0.102600
0.755078 0.638982 0.108624
0.804727 0.632949 0.113429
0.844896 0.628761 0.116946
0.877128 0.621987 0.116606
0.908428 0.617431 0.111209
0.245077 0.743739 0.087981
0.282263 0.738683 0.088193
0.297322 0.735735 0.089143
0.303670 0.734643 0.091231
0.321778 0.736436 0.093984
0.360897 0.736287 0.095779
0.415623 0.731813 0.096006
0.474661 0.727242 0.096477
0.541731 0.720095 0.096777
0.620434 0.714127 0.098129
0.695250 0.707754 0.101789
0.757846 0.699653 0.105850
0.809689 0.693748 0.110545
0.853656 0.689953 0.114804
0.890192 0.685031 0.115773
0.923657 0.678015 0.110772
0.244735 0.799398 0.091621
0.276255 0.794501 0.091752
0.291363 0.792201 0.092272
0.299655 0.791560 0.093199
0.325024 0.793814 0.095693
0.373921 0.794090 0.097953
0.433527 0.790765 0.098864
0.492260 0.785054 0.099082
0.555630 0.777235 0.098807
0.621891 0.769287 0.098135
0.693267 0.762273 0.099855
0.757841 0.755239 0.103215
0.809666 0.748400 0.106235
0.856612 0.745137 0.110462
0.898911 0.740816 0.112739
0.934745 0.727608 0.108582
0.236071 0.851630 0.095751
0.263827 0.847905 0.096159
0.284718 0.845345 0.096237
0.305903 0.844115 0.096436
0.335000 0.844948 0.097766
0.385548 0.844564 0.099137
0.447311 0.841619 0.100052
0.510833 0.837453 0.101970
0.573171 0.830520 0.101483
0.635551 0.823052 0.100036
0.696332 0.815283 0.099302
0.757086 0.808146 0.100908
0.811455 0.802545 0.103846
0.859176 0.798575 0.107224
0.904769 0.794157 0.110072
0.943877 0.778659 0.111092
0.243683 0.898419 0.100137
0.264932 0.897356 0.100955
0.290606 0.895608 0.101181
0.315659 0.894202 0.101267
0.345791 0.893194 0.101373
0.393814 0.891352 0.100851
0.454020 0.889179 0.100887
0.515653 0.886311 0.101747
0.579534 0.881697 0.102268
0.645518 0.875563 0.101706
0.706122 0.869528 0.101239
0.766939 0.864909 0.102356
0.820071 0.861895 0.104712
0.864622 0.858404 0.108929
0.909011 0.851214 0.118917
0.946764 0.834801 0.128949
0.294308 0.944690 0.104663
0.312575 0.945850 0.104990
0.318816 0.948960 0.105648
0.334827 0.951040 0.105586
0.359566 0.952381 0.104709
0.403255 0.951314 0.103035
0.456064 0.947879 0.101711
0.508028 0.944385 0.100734
0.574415 0.937681 0.099999
0.646138 0.932326 0.100318
0.709816 0.930345 0.102352
0.766323 0.927961 0.107913
0.817790 0.925065 0.119988
0.863619 0.921607 0.139989
0.904054 0.911909 0.158493
0.943982 0.895229 0.178092
0.001505 0.010686 0.046607
0.045131 0.002864 0.054063
0.144233 0.005204 0.063349
0.253136 0.009823 0.063256
0.357515 0.015859 0.063062
0.454733 0.020943 0.064282
0.537240 0.024603 0.065372
0.603702 0.027141 0.065671
0.656335 0.029127 0.065248
0.696366 0.030866 0.063382
0.726868 0.032205 0.058897
0.751227 0.033420 0.051679
0.772481 0.034350 0.045995
0.792658 0.035308 0.047534
0.809613 0.035705 0.050576
0.823545 0.035515 0.058550
0.007401 0.075907 0.062541
0.040727 0.060860 0.061999
0.146228 0.041524 0.050315
0.227102 0.033342 0.036575
0.307747 0.039046 0.031263
0.390292 0.047997 0.032986
0.470351 0.053502 0.035591
0.541346 0.055985 0.038477
0.603144 0.054973 0.041804
0.656804 0.054046 0.043932
0.696586 0.062229 0.042847
0.723809 0.072724 0.040449
0.746789 0.077955 0.039420
0.767237 0.079836 0.039720
0.786929 0.080370 0.040651
0.806382 0.077834 0.041823
0.013627 0.139305 0.063001
0.037980 0.123213 0.037518
0.131727 0.120565 0.040690
0.212680 0.119904 0.040520
0.284419 0.117222 0.039888
0.351905 0.117677 0.041278
0.422675 0.120509 0.043741
0.493760 0.123330 0.047080
0.563319 0.122202 0.052106
0.628969 0.115940 0.057243
0.679725 0.113260 0.057790
0.714705 0.117482 0.054272
0.739440 0.123207 0.050052
0.758321 0.126128 0.047451
0.776113 0.127708 0.046874
0.794446 0.129057 0.047375
0.021377 0.192638 0.062643
0.060734 0.179709 0.037485
0.134451 0.182871 0.041413
0.200376 0.184957 0.044826
0.274120 0.183795 0.048792
0.343416 0.182627 0.052635
0.410396 0.182831 0.056406
0.476403 0.184213 0.059478
0.542029 0.185896 0.063204
0.606416 0.181964 0.068171
0.662207 0.174322 0.070923
0.705741 0.169834 0.069067
0.736575 0.170214 0.063444
0.755718 0.170625 0.057704
0.772447 0.170039 0.054436
0.791075 0.171012 0.054132
0.038660 0.250116 0.050113
0.089935 0.247156 0.044738
0.149718 0.250361 0.048296
0.207329 0.251469 0.051971
0.266206 0.252003 0.055324
0.338471 0.251687 0.061677
0.409852 0.250126 0.067168
0.476358 0.248756 0.072216
0.537123 0.248468 0.076195
0.594130 0.245859 0.079892
0.647728 0.239084 0.082617
0.694734 0.231397 0.082228
0.731353 0.225753 0.077272
0.755018 0.221276 0.070074
0.773356 0.217064 0.064622
0.793553 0.214569 0.062586
0.079955 0.318707 0.052391
0.120948 0.317225 0.055751
0.165649 0.320951 0.059027
0.216564 0.320693 0.061510
0.271906 0.321021 0.063910
0.332362 0.321918 0.067198
0.407564 0.320403 0.074280
0.480243 0.316850 0.081175
0.542841 0.313840 0.087486
0.596447 0.310401 0.092546
0.643980 0.304909 0.094859
0.687828 0.298280 0.094683
0.728103 0.290394 0.091250
0.757129 0.281802 0.084884
0.779160 0.273872 0.078605
0.800293 0.267163 0.073930
0.109595 0.393164 0.066000
0.143947 0.390737 0.068739
0.180387 0.394463 0.071040
0.223350 0.393521 0.072601
0.273787 0.392569 0.073684
0.332609 0.392489 0.075148
0.401538 0.392550 0.078404
0.479699 0.388987 0.086045
0.550381 0.384125 0.094130
0.609711 0.378869 0.101138
0.658788 0.372704 0.105517
0.700454 0.365975 0.106518
0.738081 0.358338 0.104554
0.768190 0.348407 0.100302
0.791893 0.337568 0.094649
0.814163 0.326922 0.088388
0.129369 0.469425 0.078351
0.161588 0.466033 0.080044
0.199106 0.468557 0.081657
0.230514 0.467120 0.082857
0.274885 0.465067 0.083511
0.332463 0.462652 0.083933
0.400542 0.461382 0.085796
0.474720 0.459697 0.089231
0.551500 0.454695 0.096456
0.619078 0.448160 0.105395
0.674312 0.441025 0.111365
0.718715 0.434333 0.113930
0.755859 0.427593 0.113346
0.786411 0.418913 0.111462
0.811598 0.407124 0.107965
0.836439 0.395012 0.102887
0.149175 0.545709 0.088255
0.183459 0.540942 0.089185
0.217795 0.539963 0.090142
0.252095 0.537486 0.090754
0.285275 0.535343 0.091150
0.331942 0.532586 0.091282
0.399403 0.529732 0.091410
0.473422 0.528094 0.092711
0.547970 0.525947 0.096692
0.622082 0.519269 0.104106
0.685943 0.510276 0.112489
0.735805 0.502296 0.116532
0.775366 0.496235 0.117176
0.808121 0.489441 0.116707
0.834657 0.479122 0.115082
0.861801 0.467867 0.111662
0.176757 0.618617 0.094054
0.210925 0.612657 0.094573
0.243348 0.608610 0.094701
0.268793 0.606048 0.095209
0.300065 0.603992 0.095403
0.336089 0.601833 0.095671
0.395130 0.598102 0.095732
0.469050 0.595232 0.096015
0.544348 0.593817 0.098055
0.622404 0.589220 0.102386
0.692709 0.579793 0.109619
0.748276 0.571093 0.116063
0.792158 0.565260 0.118387
0.828452 0.560253 0.119776
0.857537 0.551650 0.119040
0.885942 0.541136 0.114561
0.211535 0.683393 0.096238
0.244633 0.677011 0.096548
0.266773 0.673661 0.096851
0.280064 0.671953 0.097495
0.306726 0.669838 0.097836
0.343617 0.666801 0.098131
0.401931 0.662971 0.098129
0.466123 0.659819 0.098461
0.540204 0.657395 0.099593
0.621855 0.653466 0.102048
0.695952 0.646314 0.107123
0.756230 0.638126 0.113324
0.804224 0.632676 0.117851
0.844378 0.628862 0.121306
0.877309 0.622532 0.121669
0.908140 0.613498 0.116410
0.238449 0.743811 0.098204
0.283635 0.735540 0.097670
0.297937 0.732828 0.098088
0.303460 0.731588 0.098849
0.318740 0.730387 0.099439
0.359763 0.727804 0.099670
0.417188 0.723667 0.099585
0.476257 0.720954 0.100040
0.542049 0.717910 0.100695
0.620584 0.713369 0.102089
0.696326 0.708469 0.105841
0.758380 0.700479 0.109830
0.808195 0.693859 0.113879
0.852418 0.689958 0.118249
0.891336 0.685752 0.121397
0.925184 0.677805 0.116455
0.241976 0.800867 0.099850
0.284944 0.792818 0.099238
0.305828 0.790315 0.099243
0.315522 0.789328 0.099606
0.331773 0.788432 0.100058
0.373291 0.786422 0.100698
0.434435 0.783711 0.101607
0.493079 0.780138 0.102308
0.555582 0.776084 0.102699
0.624079 0.770363 0.102209
0.696378 0.764700 0.104087
0.759183 0.757631 0.107243
0.807396 0.748253 0.109164
0.854461 0.743917 0.112856
0.899672 0.741056 0.116479
0.937235 0.729178 0.113344
0.233436 0.852935 0.102777
0.269547 0.847194 0.102207
0.299249 0.844770 0.101542
0.318193 0.843613 0.101285
0.338017 0.842477 0.101342
0.384034 0.840597 0.101785
0.446099 0.837903 0.103501
0.509838 0.834893 0.106309
0.573508 0.830830 0.106994
0.638479 0.824836 0.105726
0.700441 0.817518 0.103646
0.758292 0.810210 0.104273
0.809182 0.802678 0.106411
0.856963 0.797747 0.109346
0.905492 0.794182 0.113057
0.945827 0.779095 0.114190
0.234811 0.899292 0.106224
0.259965 0.898133 0.105761
0.286136 0.897739 0.105321
0.310447 0.897064 0.104977
0.341320 0.895771 0.104516
0.391043 0.893247 0.103731
0.450997 0.890659 0.104498
0.512277 0.887773 0.105845
0.579012 0.883122 0.106760
0.645717 0.878144 0.106234
0.705087 0.872235 0.104348
0.764466 0.867087 0.104350
0.819364 0.863038 0.107042
0.865903 0.859086 0.111891
0.910896 0.850854 0.121075
0.950189 0.835074 0.132298
0.273231 0.946753 0.109602
0.294213 0.948161 0.108917
0.305768 0.950711 0.109035
0.321289 0.953437 0.108749
0.349494 0.954103 0.107823
0.396788 0.952065 0.106230
0.451647 0.948788 0.104472
0.506305 0.944951 0.103265
0.576335 0.937625 0.102208
0.649279 0.931829 0.102375
0.712847 0.929817 0.104295
0.768755 0.927140 0.109461
0.819894 0.924197 0.120767
0.866018 0.920955 0.140978
0.908037 0.913383 0.163344
0.947673 0.899338 0.186457
0.003502 0.029554 0.148918
0.038034 0.007485 0.138285
0.131362 0.007963 0.136716
0.238569 0.011443 0.132118
0.339984 0.015778 0.126656
0.430675 0.020303 0.123069
0.513429 0.024372 0.119757
0.586906 0.027367 0.116307
0.649612 0.029128 0.113107
0.697684 0.030288 0.109729
0.733485 0.031084 0.107932
0.763437 0.032471 0.109341
0.788299 0.033745 0.111785
0.806257 0.034408 0.112231
0.819363 0.034662 0.110193
0.830511 0.034413 0.107809
0.008561 0.088080 0.141258
0.024815 0.062713 0.135274
0.127879 0.041526 0.138295
0.214230 0.035667 0.123838
0.297217 0.034035 0.112625
0.377297 0.036608 0.106825
0.455498 0.040432 0.102397
0.529617 0.043953 0.099411
0.597715 0.046314 0.098143
0.657225 0.046804 0.097170
0.704251 0.046399 0.094250
0.739280 0.045647 0.088336
0.765836 0.045534 0.081938
0.785100 0.045824 0.077264
0.800319 0.046380 0.075033
0.814997 0.046211 0.075786
0.013841 0.150420 0.134383
0.034035 0.120294 0.125233
0.117254 0.117462 0.131939
0.216434 0.109247 0.117974
0.297336 0.087846 0.090604
0.366086 0.077335 0.074995
0.435592 0.078548 0.069670
0.504936 0.083695 0.068552
0.572589 0.087162 0.069554
0.636122 0.084951 0.071130
0.691444 0.078090 0.070936
0.732845 0.079021 0.067669
0.760790 0.086999 0.062434
0.778213 0.094601 0.057773
0.793126 0.098405 0.055907
0.808873 0.098783 0.055707
0.023361 0.195952 0.126480
0.045929 0.175904 0.117309
0.106901 0.180647 0.098197
0.192990 0.183026 0.095139
0.275427 0.178224 0.091428
0.351041 0.170290 0.085150
0.421334 0.165148 0.082124
0.489000 0.163771 0.081132
0.554310 0.164687 0.082126
0.617238 0.163506 0.084262
0.675339 0.156407 0.085135
0.723414 0.150451 0.082896
0.757058 0.150142 0.076751
0.776343 0.152036 0.068944
0.790772 0.152696 0.063918
0.806771 0.152364 0.062573
0.040336 0.244390 0.121158
0.061086 0.238531 0.107903
0.115942 0.242948 0.083584
0.188574 0.245597 0.084135
0.255063 0.247506 0.084757
0.334894 0.245802 0.089874
0.413233 0.241634 0.091720
0.483628 0.237425 0.093429
0.546779 0.235111 0.095478
0.605584 0.233179 0.097522
0.661298 0.226961 0.098203
0.711028 0.219613 0.096147
0.749430 0.214458 0.090193
0.773681 0.210613 0.081373
0.791071 0.206737 0.074394
0.808797 0.203291 0.071129
0.060540 0.312838 0.117356
0.077453 0.312769 0.094474
0.132773 0.313382 0.083593
0.192685 0.313877 0.084108
0.254674 0.315592 0.084948
0.321963 0.317240 0.086551
0.404451 0.314976 0.094293
0.481599 0.311086 0.099981
0.547894 0.306951 0.105140
0.604937 0.303253 0.108868
0.656120 0.297886 0.109888
0.702794 0.290969 0.107960
0.743037 0.283966 0.103193
0.771838 0.276346 0.095242
0.793290 0.268569 0.087722
0.813222 0.260216 0.082161
0.078328 0.391284 0.111382
0.106016 0.389601 0.088747
0.149674 0.388304 0.089322
0.199306 0.387634 0.089686
0.253813 0.387410 0.089722
0.319565 0.387857 0.089745
0.394814 0.388378 0.091694
0.477881 0.384852 0.099673
0.553041 0.380279 0.107653
0.614569 0.375770 0.114343
0.665224 0.370173 0.118180
0.708445 0.363494 0.118547
0.745901 0.356673 0.115450
0.776884 0.348008 0.109788
0.801201 0.336865 0.103099
0.823721 0.324061 0.096683
0.093136 0.470837 0.100470
0.132644 0.466912 0.095310
0.174555 0.464378 0.095454
0.207934 0.463117 0.095677
0.256825 0.461330 0.095375
0.318508 0.458651 0.094595
0.392034 0.457147 0.095042
0.471248 0.455957 0.098343
0.552245 0.451491 0.106255
0.621630 0.446051 0.115018
0.678155 0.439927 0.120929
0.723431 0.433796 0.124027
0.760026 0.427895 0.123427
0.791493 0.420440 0.120384
0.817461 0.409052 0.116509
0.841785 0.393665 0.111432
0.120509 0.547047 0.099937
0.161061 0.541687 0.099902
0.193867 0.538300 0.099975
0.230182 0.536097 0.099940
0.266050 0.534182 0.099848
0.318184 0.530803 0.099310
0.391124 0.526799 0.098660
0.469580 0.525367 0.099925
0.547265 0.524009 0.104511
0.622679 0.518118 0.112245
0.687626 0.510326 0.120452
0.738844 0.502809 0.124992
0.778210 0.497166 0.126437
0.811122 0.491424 0.125369
0.838514 0.481253 0.123913
0.863923 0.465550 0.120847
0.152127 0.617783 0.102509
0.187067 0.612417 0.102543
0.216027 0.608921 0.102509
0.243910 0.606692 0.102633
0.277188 0.604567 0.102569
0.323802 0.601364 0.102125
0.389650 0.596741 0.101607
0.466762 0.593556 0.101753
0.544456 0.592515 0.104062
0.623056 0.588452 0.108349
0.693432 0.580328 0.115539
0.750023 0.572236 0.122513
0.793516 0.566575 0.125233
0.829544 0.562055 0.125695
0.859317 0.553398 0.125036
0.885891 0.537475 0.121399
0.187108 0.682754 0.103328
0.221432 0.676980 0.103343
0.241630 0.674404 0.103452
0.257595 0.672944 0.103838
0.288448 0.670757 0.103872
0.333196 0.666917 0.103669
0.397771 0.662214 0.103167
0.465848 0.658666 0.103304
0.541895 0.656140 0.104410
0.623136 0.652847 0.106931
0.696687 0.646602 0.111945
0.757526 0.638666 0.118587
0.804870 0.633254 0.123231
0.844308 0.629718 0.126274
0.877816 0.623373 0.126995
0.907673 0.609069 0.121119
0.215754 0.744080 0.104388
0.261801 0.736189 0.103905
0.280533 0.733916 0.103893
0.288757 0.733053 0.104385
0.305574 0.731709 0.104831
0.351246 0.728397 0.104786
0.414082 0.723519 0.104598
0.476397 0.720322 0.105164
0.543355 0.717529 0.106161
0.621717 0.713693 0.107649
0.697082 0.709537 0.111516
0.759295 0.701803 0.115290
0.808246 0.694856 0.118640
0.851632 0.690876 0.122488
0.891438 0.686457 0.126130
0.925150 0.674316 0.120793
0.222942 0.802551 0.105487
0.268501 0.794317 0.104808
0.294326 0.791961 0.104390
0.305441 0.791080 0.104538
0.321962 0.790137 0.105142
0.366021 0.787636 0.106322
0.429984 0.783941 0.107460
0.491410 0.780178 0.108188
0.555675 0.776320 0.108703
0.626172 0.771997 0.108723
0.698292 0.767647 0.110550
0.761087 0.761050 0.113210
0.808055 0.750161 0.113366
0.853051 0.744045 0.115584
0.899641 0.741202 0.120620
0.939028 0.729806 0.117983
0.212472 0.854464 0.107968
0.250839 0.848836 0.107276
0.286032 0.846805 0.106247
0.308209 0.845651 0.105882
0.329873 0.844482 0.106229
0.379033 0.841608 0.107077
0.443029 0.838067 0.108614
0.506783 0.835558 0.112483
0.571921 0.831983 0.113727
0.639112 0.827167 0.112514
0.703157 0.821633 0.110468
0.761676 0.814697 0.110043
0.810220 0.805705 0.110616
0.855118 0.797371 0.111382
0.905538 0.794202 0.115745
0.948214 0.781192 0.118354
0.215631 0.901309 0.111531
0.243185 0.900367 0.111151
0.276870 0.899701 0.110273
0.302739 0.899352 0.109802
0.335618 0.898424 0.109156
0.387092 0.895519 0.108170
0.447631 0.892165 0.108559
0.507290 0.889778 0.111709
0.575290 0.885262 0.113153
0.644387 0.880898 0.112051
0.706320 0.876004 0.109156
0.766042 0.871394 0.108491
0.819760 0.867178 0.110611
0.866571 0.861327 0.115424
0.912528 0.852362 0.124109
0.952900 0.836068 0.135806
0.248134 0.950433 0.115043
0.270624 0.951916 0.114179
0.294747 0.953894 0.113260
0.312596 0.955698 0.113159
0.340161 0.955857 0.112877
0.387303 0.954602 0.110933
0.443653 0.951589 0.108588
0.500044 0.948044 0.106858
0.573651 0.940030 0.105341
0.650237 0.933292 0.105383
0.715239 0.931192 0.107233
0.771398 0.928560 0.112612
0.821631 0.925755 0.123751
0.867740 0.922210 0.143833
0.910324 0.914587 0.166712
0.950947 0.902884 0.193714
0.008343 0.038843 0.262933
0.048428 0.011190 0.239522
0.126377 0.010368 0.224348
0.219957 0.012247 0.213464
0.317535 0.015507 0.202735
0.411452 0.019696 0.193397
0.500894 0.024419 0.185503
0.580255 0.028145 0.177759
0.647881 0.030402 0.169917
0.700624 0.031598 0.161754
0.739474 0.032549 0.155004
0.770219 0.033530 0.152389
0.796012 0.034202 0.153906
0.814903 0.034357 0.155394
0.828822 0.034030 0.155740
0.839020 0.033767 0.152537
0.010598 0.104780 0.223715
0.023429 0.073568 0.212060
0.110168 0.042191 0.215591
0.193437 0.038586 0.202036
0.274837 0.036000 0.187968
0.360241 0.037948 0.179648
0.445429 0.041814 0.173586
0.525999 0.045389 0.166739
0.598531 0.047910 0.160127
0.661529 0.048534 0.154515
0.711727 0.047985 0.148672
0.749004 0.046890 0.142623
0.777963 0.046319 0.137565
0.798141 0.045930 0.132607
0.812728 0.045536 0.128633
0.825318 0.045572 0.124559
0.015889 0.157896 0.200673
0.029559 0.120344 0.188214
0.091958 0.112166 0.210567
0.193552 0.111525 0.214061
0.279054 0.097104 0.192184
0.356289 0.083255 0.170907
0.432599 0.077402 0.158417
0.508464 0.075575 0.149374
0.580343 0.075540 0.141754
0.644492 0.075557 0.135699
0.699347 0.073893 0.132160
0.743379 0.071331 0.127184
0.775791 0.068738 0.118201
0.796273 0.066009 0.104562
0.811130 0.064588 0.093876
0.825506 0.064465 0.087796
0.024213 0.191395 0.188095
0.044829 0.171088 0.185184
0.097826 0.177597 0.195370
0.176702 0.184950 0.197659
0.271278 0.179700 0.182430
0.363857 0.158324 0.152515
0.440709 0.140841 0.131069
0.511887 0.130841 0.118743
0.579423 0.127858 0.111082
0.640996 0.128263 0.105987
0.695947 0.123946 0.102557
0.742641 0.118884 0.098901
0.777334 0.119441 0.092810
0.797934 0.124725 0.083954
0.811639 0.129659 0.077223
0.826227 0.131306 0.074936
0.039298 0.238298 0.181130
0.059414 0.229985 0.177376
0.097886 0.243419 0.172635
0.159488 0.253776 0.152380
0.249887 0.255478 0.147063
0.338100 0.248144 0.145885
0.423455 0.236489 0.134684
0.498569 0.225576 0.127710
0.567505 0.218107 0.122674
0.629338 0.214276 0.118572
0.684154 0.209575 0.115467
0.731378 0.204253 0.112038
0.768672 0.200571 0.105948
0.793404 0.198347 0.095792
0.810299 0.195949 0.087156
0.826932 0.193949 0.083076
0.057957 0.305030 0.177188
0.074076 0.305494 0.168858
0.100995 0.313883 0.149265
0.157224 0.321313 0.123344
0.237576 0.323355 0.122629
0.316776 0.324176 0.121813
0.404488 0.317528 0.129118
0.485700 0.309316 0.129251
0.559242 0.301029 0.128896
0.622293 0.295064 0.128117
0.676476 0.289963 0.126792
0.722464 0.284689 0.124396
0.760561 0.279239 0.119485
0.789368 0.272396 0.110182
0.810159 0.264965 0.100547
0.829699 0.256900 0.094036
0.075090 0.384672 0.170240
0.090508 0.386468 0.153795
0.107646 0.390497 0.127980
0.166186 0.392074 0.114170
0.232294 0.392498 0.113787
0.307074 0.392379 0.113292
0.389638 0.391705 0.114154
0.476354 0.385210 0.121817
0.556710 0.378812 0.127469
0.622491 0.372445 0.131336
0.676860 0.366678 0.133362
0.721840 0.361236 0.133301
0.758692 0.355496 0.130428
0.790016 0.347820 0.123705
0.814668 0.337399 0.115307
0.837295 0.324030 0.108152
0.090306 0.466658 0.159043
0.102391 0.465444 0.136495
0.136567 0.465635 0.111922
0.177017 0.465209 0.111732
0.234470 0.463742 0.111390
0.301658 0.461035 0.110735
0.382528 0.458690 0.110653
