lut/5fe44ea1-1f14-4cb8-9159-c07fb4bc9f33.cube
TITLE "Warm Gentle Fade"
LUT_3D_SIZE 9
0 0 0
0 0 0
0.123934 0 0
0.260777 0 0
0.394278 0 0
0.525872 0 0
0.656336 0 0
0.786557 0 0
0.916213 0 0
0 0 0
0 0 0
0.0969406 0 0
0.24213 0 0
0.381567 0 0
0.516289 0 0
0.648127 0 0
0.778073 0 0
0.906584 0 0
0 0.0921492 0
0 0.0879835 0
0.0634928 0.0783703 0
0.216007 0.0713512 0
0.35845 0.0669108 0
0.495186 0.0640269 0
0.628443 0.0620432 0
0.75938 0.0606394 0
0.888609 0.0596017 0
0 0.230716 0
0 0.226474 0
0.0365454 0.21857 0
0.189395 0.211017 0
0.334691 0.205158 0
0.474159 0.200839 0
0.609461 0.197665 0
0.741878 0.1953 0
0.872206 0.193484 0
0 0.36376 0
0 0.360128 0
0.016495 0.353674 0
0.166918 0.346731 0
0.312367 0.340734 0
0.453376 0.335714 0
0.590463 0.331701 0
0.724468 0.328557 0
0.856046 0.32604 0
0 0.494636 0
0 0.491386 0
0.000228885 0.486046 0
0.148699 0.479591 0
0.292699 0.473976 0
0.433783 0.468879 0
0.571801 0.464454 0
0.706981 0.460761 0
0.839734 0.457694 0
0 0.624063 0
0 0.621057 0
0 0.616434 0
0.133623 0.610391 0
0.275807 0.605249 0
0.416052 0.600381 0
0.554116 0.595911 0
0.689891 0.591943 0
0.823468 0.58851 0
0 0.752422 0
0 0.749599 0
0 0.745403 0
0.120745 0.739727 0
0.261265 0.734997 0
0.400305 0.730434 0
0.537835 0.726101 0
0.673625 0.722087 0
0.80763 0.718471 0
0 0.879957 0
0 0.877256 0
0 0.873381 0
0.109438 0.867964 0
0.248569 0.863554 0
0.386389 0.859312 0
0.523079 0.855192 0
0.658503 0.85127 0
0.792523 0.847608 0
0 0 0
0 0 0
0.126741 0 0
0.264347 0 0
0.397848 0 0
0.529335 0 0
0.65977 0 0
0.790478 0 0
0.919295 0 0
0 0 0
0 0 0
0.107591 0 0
0.250034 0 0
0.387884 0 0
0.521401 0 0
0.652491 0 0
0.781903 0 0
0.910048 0 0
0 0.092546 0
0 0.0904707 0
0.0628519 0.0776684 0
0.222263 0.0682078 0
0.364813 0.0636759 0
0.500801 0.0610666 0
0.633341 0.0593576 0
0.763699 0.0581979 0
0.8925 0.0573739 0
0 0.230854 0
0 0.227985 0
0.0284581 0.22005 0
0.18883 0.210391 0
0.338125 0.203189 0
0.47866 0.198428 0
0.614008 0.195224 0
0.746166 0.192935 0
0.876158 0.191257 0
0 0.363973 0
0 0.361196 0
0.00788891 0.3552 0
0.162234 0.347417 0
0.311849 0.340185 0
0.455451 0.334295 0
0.593713 0.329854 0
0.728069 0.326543 0
0.859693 0.32401 0
0 0.49485 0
0 0.49218 0
0 0.487327 0
0.142718 0.480583 0
0.289509 0.47425 0
0.43328 0.468345 0
0.573144 0.463325 0
0.709346 0.459251 0
0.842588 0.455985 0
0 0.624262 0
0 0.621683 0
0 0.617426 0
0.127504 0.611368 0
0.271351 0.605875 0
0.413672 0.600443 0
0.553628 0.595392 0
0.690791 0.590982 0
0.825254 0.587228 0
0 0.752605 0
0 0.750088 0
0 0.746212 0
0.11487 0.740597 0
0.256352 0.735714 0
0.396826 0.730816 0
0.535943 0.72604 0
0.673167 0.721584 0
0.80824 0.717632 0
0 0.88011 0
0 0.877668 0
0 0.874052 0
0.103883 0.868727 0
0.24358 0.864271 0
0.382345 0.859831 0
0.520272 0.855406 0
0.656947 0.851118 0
0.792065 0.847135 0
0 0 0.11397
0 0 0.111116
0.118822 0 0.0968338
0.262058 0 0.0828412
0.39791 0 0.0728161
0.530465 0 0.0662089
0.661555 0 0.0622721
0.792523 0 0.0609445
0.921096 0 0.0592203
0 0 0.0910964
0 0 0.0974594
0.103838 0 0.0854505
0.2533 0 0.0683299
0.391409 0 0.0600595
0.524636 0 0.0548867
0.655421 0 0.0514382
0.784573 0 0.0489509
0.912474 0 0.0470893
0 0.0886549 0.0608225
0 0.0864576 0.0585641
0.0589456 0.0735485 0.0462348
0.232074 0.0617075 0.0349432
0.371664 0.0587625 0.0319066
0.506081 0.0570077 0.0299687
0.637675 0.0558633 0.0285801
0.767376 0.0550546 0.0275273
0.895705 0.0545205 0.0267185
0 0.228458 0.0384375
0 0.226871 0.0275883
0.0133669 0.221805 0.00627146
0.187579 0.209064 0
0.343648 0.199496 0
0.484321 0.194659 0.00340276
0.618967 0.19173 0.0055848
0.750439 0.189761 0.00680552
0.879896 0.188327 0.00753796
0 0.362509 0.0216526
0 0.360723 0.0099794
0 0.356451 0
0.154025 0.348394 0
0.310887 0.339162 0
0.458457 0.33193 0
0.597803 0.327077 0
0.732189 0.32372 0
0.863554 0.321279 0
0 0.493874 0.00875868
0 0.491966 0
0 0.48809 0
0.134264 0.481621 0
0.28455 0.474586 0
0.432456 0.467475 0
0.574899 0.461585 0
0.712245 0.457069 0
0.845853 0.453651 0
0 0.623606 0
0 0.621561 0
0 0.61796 0
0.119814 0.612222 0
0.265187 0.606561 0
0.410239 0.600443 0
0.55288 0.594598 0
0.691875 0.589578 0
0.827344 0.585443 0
0 0.752102 0
0 0.749996 0
0 0.746593 0
0.107942 0.741268 0
0.25008 0.736416 0
0.392172 0.731197 0
0.533364 0.725872 0
0.67245 0.720851 0
0.808911 0.716426 0
0 0.879698 0
0 0.877577 0
0 0.874327 0
0.097612 0.869261 0
0.237568 0.864881 0
0.377264 0.860334 0
0.516594 0.855573 0
0.654871 0.850858 0
0.791394 0.846433 0
0 0 0.243442
0 0 0.242679
0.108553 0 0.234943
0.25536 0 0.224414
0.39469 0 0.21413
0.529473 0 0.206058
0.66215 0 0.200839
0.7935 0 0.197742
0.92224 0 0.194537
0 0 0.227512
0 0 0.231861
0.0900435 0 0.229236
0.246937 0 0.219272
0.389899 0 0.20734
0.5252 0 0.19823
0.656809 0 0.191745
0.786267 0 0.187015
0.914275 0 0.183429
0 0.0846113 0.205859
0 0.0804913 0.210483
0.0554208 0.0697948 0.215335
0.228565 0.0578012 0.204456
0.374441 0.05449 0.186481
0.509483 0.0533303 0.176684
0.64094 0.0526284 0.17084
0.770397 0.0521859 0.166903
0.898482 0.0518807 0.164065
0 0.224903 0.184726
0 0.222583 0.182254
0.00923171 0.217762 0.177386
0.183536 0.204822 0.165072
0.35317 0.192996 0.153903
0.49102 0.189776 0.150607
0.624155 0.187747 0.14844
0.754696 0.186313 0.146822
0.883528 0.18526 0.145541
0 0.359976 0.165957
0 0.358373 0.159075
0 0.355367 0.147265
0.139376 0.349752 0.126604
0.309316 0.33753 0.114748
0.463661 0.328038 0.120485
0.603204 0.32314 0.124163
0.73695 0.320089 0.126024
0.867658 0.317968 0.127016
0 0.492027 0.150896
0 0.490455 0.142535
0 0.487526 0.130465
0.123293 0.482292 0.114137
0.276066 0.475151 0.100587
0.431128 0.466087 0.0979629
0.577508 0.458885 0.101701
0.715969 0.453971 0.105608
0.849638 0.450538 0.108553
0 0.622126 0.138811
0 0.620447 0.130205
0 0.617517 0.11902
0.110857 0.612528 0.105089
0.256458 0.607172 0.093019
0.404913 0.600351 0.0860761
0.551629 0.593317 0.085481
0.693217 0.587442 0.0881971
0.829847 0.58291 0.0915389
0 0.750866 0.128862
0 0.749081 0.120455
0 0.746181 0.11014
0.100221 0.74136 0.0977188
0.2421 0.736812 0.0868849
0.385626 0.731426 0.0788586
0.529519 0.725429 0.0750896
0.671275 0.719631 0.0751354
0.809567 0.714611 0.0772717
0 0.878614 0.120455
0 0.876768 0.112367
0 0.873915 0.102815
0.0907301 0.869215 0.0914015
0.230335 0.865095 0.0814984
0.370596 0.860563 0.0733654
0.511513 0.855497 0.0680247
0.651835 0.850233 0.0658122
0.790234 0.845243 0.0661173
0 0 0.369009
0 0 0.368902
0.100649 0 0.364248
0.247578 0 0.357504
0.38909 0 0.34931
0.526253 0 0.341634
0.66128 0 0.3364
0.793011 0 0.331563
0.922347 0 0.327169
0 0 0.356573
0 0 0.359976
0.0827497 0 0.359564
0.237507 0 0.355932
0.383612 0 0.34696
0.522179 0 0.337255
0.655787 0 0.329015
0.786358 0 0.322438
0.914977 0 0.31725
0 0.0818189 0.340291
0 0.0775158 0.344961
0.0547494 0.0690776 0.347723
0.214801 0.0599832 0.345663
0.367361 0.0538949 0.333974
0.507805 0.0513924 0.320989
0.641459 0.0504005 0.311238
0.771801 0.049958 0.30428
0.900236 0.0497597 0.299153
0 0.221485 0.322545
0 0.218189 0.324163
0.0200046 0.211582 0.326101
0.180011 0.201068 0.3308
0.349645 0.189197 0.319783
0.493767 0.185626 0.301671
0.627558 0.184207 0.291691
0.758007 0.183246 0.285603
0.88661 0.182559 0.281453
0 0.357031 0.304479
0 0.354864 0.302129
0 0.351171 0.298299
0.135637 0.345876 0.292958
0.305608 0.333593 0.281331
0.473335 0.321843 0.270222
0.610071 0.318532 0.26685
0.742306 0.316365 0.264546
0.872099 0.314794 0.262791
0 0.489754 0.288334
0 0.48809 0.283177
0 0.485405 0.275334
0.115648 0.481422 0.262699
0.261982 0.476814 0.24332
0.429908 0.46482 0.2318
0.583032 0.45536 0.237385
0.721706 0.450416 0.240909
0.854719 0.447288 0.242634
0 0.620386 0.274617
0 0.618845 0.268055
0 0.616373 0.258915
0.103655 0.612284 0.245869
0.246021 0.608179 0.23093
0.396887 0.601282 0.217838
0.550683 0.592309 0.215305
0.696193 0.585138 0.218936
0.833936 0.580209 0.222721
0 0.749523 0.263081
0 0.747951 0.25594
0 0.745464 0.246677
0.0937209 0.741283 0.234394
0.233677 0.737484 0.221897
0.377356 0.732418 0.21033
0.52459 0.725704 0.203632
0.67042 0.71873 0.203067
0.811276 0.712871 0.205707
0 0.877562 0.253285
0 0.875914 0.246021
0 0.873411 0.237034
0.0848096 0.869184 0.225574
0.223133 0.865568 0.214557
0.363073 0.861341 0.204273
0.505394 0.856092 0.196536
0.648386 0.850172 0.192905
0.789425 0.844404 0.19295
0 0 0.492195
0 0 0.492378
0.0950637 0 0.489235
0.240803 0 0.485039
0.38291 0 0.479316
0.521706 0 0.473213
0.658396 0 0.468437
0.791074 0 0.462989
0.921233 0 0.457862
0 0 0.481941
0 0 0.484901
0.0791028 0 0.485542
0.230198 0 0.484489
0.376089 0 0.478981
0.516625 0 0.471138
0.652354 0 0.463004
0.784512 0 0.45565
0.914214 0 0.449378
0 0.0800031 0.468956
0 0.0759594 0.472908
0.0545052 0.0687724 0.474556
0.207233 0.0616007 0.474296
0.357504 0.0554665 0.468788
0.50132 0.051545 0.458946
0.638315 0.0495613 0.448692
0.770703 0.0486458 0.439994
0.900282 0.0482643 0.433066
0 0.218738 0.454154
0 0.215045 0.456825
0.0264744 0.208377 0.458946
0.179217 0.200198 0.461723
0.335973 0.191226 0.45951
0.486671 0.185 0.447547
0.625818 0.182254 0.434318
0.758465 0.181033 0.424369
0.887953 0.180362 0.417182
0 0.354147 0.438056
0 0.35137 0.438376
0 0.346609 0.438468
0.1458 0.339849 0.440146
0.302098 0.32987 0.445197
0.469825 0.31809 0.434211
0.612787 0.314443 0.416114
0.745708 0.312871 0.406058
0.87541 0.311788 0.399878
0 0.48719 0.422354
0 0.48513 0.420096
0 0.48191 0.416678
0.118425 0.477302 0.411948
0.25835 0.473014 0.407599
0.426276 0.46096 0.396201
0.592691 0.449271 0.385168
0.728573 0.445899 0.381735
0.860105 0.443641 0.379339
0 0.618296 0.408057
0 0.616602 0.40383
0 0.614054 0.397833
0.101625 0.610224 0.388876
0.238575 0.607355 0.377462
0.383017 0.603006 0.358511
0.549569 0.591119 0.347158
0.701762 0.58172 0.352667
0.839719 0.576745 0.356085
0 0.747845 0.395483
0 0.746273 0.390036
0 0.743954 0.382742
0.0900587 0.7402 0.372396
0.226688 0.737301 0.360662
0.367132 0.733501 0.346166
0.516716 0.726741 0.333303
0.669566 0.71783 0.330831
0.814343 0.710689 0.334401
0 0.876204 0.384573
0 0.874662 0.378485
0 0.872389 0.370703
0.0806592 0.868544 0.360174
0.216861 0.865553 0.349187
0.354833 0.862104 0.337148
0.497292 0.857191 0.325841
0.64361 0.850568 0.31928
0.788693 0.843626 0.31873
0 0 0.613703
0 0 0.614038
0.0910964 0 0.611734
0.235447 0 0.60914
0.377218 0 0.605417
0.51693 0 0.601312
0.654398 0 0.597269
0.787991 0 0.591959
0.919036 0 0.586648
0 0 0.60502
0 0 0.607797
0.0773327 0 0.609277
0.225055 0 0.608942
0.369467 0 0.605737
0.510353 0 0.600122
0.64741 0 0.59324
0.781064 0 0.586175
0.912001 0 0.579568
0 0.0788128 0.594125
0 0.0750591 0.597436
0.0544594 0.0686961 0.598444
0.20293 0.0626535 0.598657
0.349844 0.0571756 0.596017
0.493584 0.0528267 0.589792
0.632609 0.0499733 0.581445
0.767178 0.0483558 0.5729
0.898375 0.0475166 0.565209
0 0.216648 0.581506
0 0.212909 0.584192
0.0303197 0.206577 0.585718
0.178805 0.199741 0.587518
0.328405 0.192691 0.587152
0.476829 0.18645 0.581338
0.619303 0.182361 0.571221
0.755245 0.180163 0.560723
0.886778 0.179034 0.551812
0 0.351659 0.567437
0 0.348501 0.568887
0.00567636 0.343221 0.569879
0.151919 0.33666 0.572015
0.301259 0.328954 0.575143
0.456245 0.320043 0.572885
0.605707 0.313771 0.560861
0.743938 0.310933 0.54757
0.875837 0.309575 0.537514
0 0.484688 0.552956
0 0.4822 0.552575
0 0.47834 0.551766
0.125765 0.472892 0.551141
0.26833 0.467033 0.553674
0.422782 0.457252 0.558801
0.589197 0.445548 0.547845
0.731289 0.44184 0.529778
0.863493 0.440192 0.519692
0 0.616037 0.538979
0 0.614038 0.536767
0 0.611078 0.533608
0.10518 0.60676 0.529107
0.241306 0.603296 0.525505
0.379431 0.599237 0.521401
0.545983 0.587335 0.51014
0.711376 0.575692 0.499138
0.846586 0.572274 0.495689
0 0.745907 0.52607
0 0.744198 0.522393
0 0.741726 0.517388
0.0903792 0.737911 0.510155
0.22472 0.735271 0.502434
0.359792 0.732708 0.491386
0.502983 0.728481 0.472679
0.668498 0.716686 0.461448
0.819928 0.707317 0.46688
0 0.874586 0.514473
0 0.873014 0.509773
0 0.870756 0.50367
0.0791943 0.867079 0.495064
0.213306 0.8645 0.485954
0.347967 0.861952 0.474632
0.48719 0.85832 0.46038
0.635828 0.851637 0.4477
0.787915 0.842786 0.445243
0 0 0.733959
0 0 0.734401
0.0882277 0 0.732601
0.231312 0 0.731044
0.372457 0 0.728847
0.512779 0 0.726879
0.649989 0 0.723262
0.784192 0 0.718517
0.916014 0 0.713451
0 0 0.726513
0 0 0.72929
0.0760357 0 0.730922
0.221393 0 0.731014
0.364172 0 0.729198
0.504494 0 0.725353
0.642008 0 0.719997
0.776623 0 0.713848
0.908629 0 0.707561
0 0.0780652 0.717021
0 0.0745556 0.719799
0.054551 0.0687419 0.720378
0.200214 0.0634623 0.720729
0.344381 0.0585946 0.719432
0.486763 0.0543526 0.715618
0.626184 0.0510872 0.709545
0.762127 0.0488746 0.702281
0.894835 0.0475166 0.694896
0 0.215076 0.705913
0 0.211444 0.70837
0.032929 0.205478 0.709331
0.178622 0.199512 0.710567
0.324041 0.193606 0.710735
0.469154 0.188022 0.707805
0.611551 0.183536 0.701289
0.749523 0.180514 0.692668
0.883207 0.178698 0.683879
0 0.349599 0.693584
0 0.346303 0.695369
0.0108492 0.340917 0.696345
0.155535 0.334844 0.698039
0.300786 0.32845 0.700191
0.448676 0.321447 0.699779
0.595895 0.315175 0.693858
0.737408 0.310994 0.68365
0.872602 0.30869 0.673045
0 0.482444 0.680507
0 0.479652 0.681132
0 0.475364 0.681407
0.132113 0.469657 0.681926
0.274311 0.463859 0.684764
0.421927 0.456321 0.687968
0.575677 0.447471 0.68571
0.724208 0.441169 0.673655
0.861708 0.438254 0.660334
0 0.613809 0.667338
0 0.611505 0.666545
0 0.608103 0.665232
0.111009 0.603235 0.663417
0.248508 0.598917 0.663859
0.389303 0.593301 0.66659
0.542504 0.583642 0.671748
0.707912 0.571984 0.660822
0.849271 0.568261 0.642802
0 0.743877 0.654673
0 0.741924 0.652491
0 0.739147 0.649485
0.0938888 0.734966 0.64509
0.228214 0.731838 0.641794
0.362509 0.728679 0.638498
0.499443 0.724743 0.634516
0.664942 0.712932 0.623346
0.829511 0.701335 0.612406
0 0.872801 0.642878
0 0.871077 0.639536
0 0.868666 0.635172
0.0805066 0.864851 0.628855
0.213642 0.862242 0.622827
0.346029 0.859953 0.615488
0.479912 0.857542 0.604639
0.622202 0.853391 0.586099
0.786862 0.841672 0.57496
0 0 0.853223
0 0 0.853727
0.0861372 0 0.852277
0.228153 0 0.851453
0.368658 0 0.850431
0.508721 0 0.849744
0.64564 0 0.84686
0.780118 0 0.842863
0.912474 0 0.8383
0 0 0.846815
0 0 0.849851
0.0751812 0 0.851194
0.218753 0 0.851499
0.360021 0 0.850492
0.499443 0 0.847929
0.63679 0 0.843915
0.771847 0 0.838865
0.904601 0 0.83328
0 0.0775921 0.838239
0 0.0742962 0.84062
0.0547341 0.0688945 0.840894
0.198383 0.0641337 0.841245
0.340459 0.0597696 0.84065
0.48127 0.055787 0.838285
0.620188 0.0524453 0.834028
0.756588 0.049897 0.828321
0.890288 0.0480964 0.821866
0 0.213931 0.82826
0 0.210422 0.830396
0.0348821 0.204791 0.830945
0.178561 0.19942 0.831815
0.321248 0.194278 0.832151
0.463661 0.189334 0.830594
0.604715 0.184955 0.82649
0.743084 0.181552 0.820142
0.878126 0.179171 0.812634
0 0.347951 0.817273
0 0.344625 0.819074
0.0147402 0.3393 0.819791
0.157961 0.333684 0.821027
0.300526 0.32813 0.822614
0.444297 0.322301 0.822751
0.588235 0.316701 0.819745
0.729686 0.312139 0.813107
0.86688 0.30901 0.804364
0 0.480537 0.805539
0 0.477546 0.806622
0 0.47306 0.807187
0.136904 0.467414 0.807858
0.277867 0.462043 0.810193
0.421454 0.455802 0.812436
0.56817 0.448844 0.812009
0.714427 0.442542 0.806027
0.855207 0.4383 0.795758
0 0.611811 0.793378
0 0.609247 0.793454
0 0.605493 0.793118
0.116716 0.600336 0.792477
0.254749 0.595712 0.794064
0.395224 0.590143 0.79707
0.54165 0.582727 0.80032
0.694453 0.573907 0.798047
0.842222 0.567575 0.785977
0 0.741878 0.781262
0 0.739681 0.780194
0 0.736584 0.778592
0.0988174 0.732021 0.77612
0.233921 0.728359 0.775479
0.369619 0.72433 0.776196
0.509239 0.718853 0.779019
0.661509 0.70927 0.784176
0.826062 0.697643 0.773266
0 0.870985 0.769665
0 0.869047 0.767498
0 0.866392 0.764599
0.0838483 0.862303 0.760296
0.21709 0.859342 0.757122
0.349508 0.85655 0.754162
0.482628 0.853529 0.751019
0.618692 0.849683 0.747127
0.783368 0.837964 0.736034
