lut/5fe44ea1-1f14-4cb8-9159-c07fb4bc9f33.cube
TITLE "Warm Gentle Fade"
LUT_3D_SIZE 5
0 0 0
0.123934 0 0
0.394278 0 0
0.656336 0 0
0.916213 0 0
0 0.0921492 0
0.0634928 0.0783703 0
0.35845 0.0669108 0
0.628443 0.0620432 0
0.888609 0.0596017 0
0 0.36376 0
0.016495 0.353674 0
0.312367 0.340734 0
0.590463 0.331701 0
0.856046 0.32604 0
0 0.624063 0
0 0.616434 0
0.275807 0.605249 0
0.554116 0.595911 0
0.823468 0.58851 0
0 0.879957 0
0 0.873381 0
0.248569 0.863554 0
0.523079 0.855192 0
0.792523 0.847608 0
0 0 0.11397
0.118822 0 0.0968338
0.39791 0 0.0728161
0.661555 0 0.0622721
0.921096 0 0.0592203
0 0.0886549 0.0608225
0.0589456 0.0735485 0.0462348
0.371664 0.0587625 0.0319066
0.637675 0.0558633 0.0285801
0.895705 0.0545205 0.0267185
0 0.362509 0.0216526
0 0.356451 0
0.310887 0.339162 0
0.597803 0.327077 0
0.863554 0.321279 0
0 0.623606 0
0 0.61796 0
0.265187 0.606561 0
0.55288 0.594598 0
0.827344 0.585443 0
0 0.879698 0
0 0.874327 0
0.237568 0.864881 0
0.516594 0.855573 0
0.791394 0.846433 0
0 0 0.369009
0.100649 0 0.364248
0.38909 0 0.34931
0.66128 0 0.3364
0.922347 0 0.327169
0 0.0818189 0.340291
0.0547494 0.0690776 0.347723
0.367361 0.0538949 0.333974
0.641459 0.0504005 0.311238
0.900236 0.0497597 0.299153
0 0.357031 0.304479
0 0.351171 0.298299
0.305608 0.333593 0.281331
0.610071 0.318532 0.26685
0.872099 0.314794 0.262791
0 0.620386 0.274617
0 0.616373 0.258915
0.246021 0.608179 0.23093
0.550683 0.592309 0.215305
0.833936 0.580209 0.222721
0 0.877562 0.253285
0 0.873411 0.237034
0.223133 0.865568 0.214557
0.505394 0.856092 0.196536
0.789425 0.844404 0.19295
0 0 0.613703
0.0910964 0 0.611734
0.377218 0 0.605417
0.654398 0 0.597269
0.919036 0 0.586648
0 0.0788128 0.594125
0.0544594 0.0686961 0.598444
0.349844 0.0571756 0.596017
0.632609 0.0499733 0.581445
0.898375 0.0475166 0.565209
0 0.351659 0.567437
0.00567636 0.343221 0.569879
0.301259 0.328954 0.575143
0.605707 0.313771 0.560861
0.875837 0.309575 0.537514
0 0.616037 0.538979
0 0.611078 0.533608
0.241306 0.603296 0.525505
0.545983 0.587335 0.51014
0.846586 0.572274 0.495689
0 0.874586 0.514473
0 0.870756 0.50367
0.213306 0.8645 0.485954
0.48719 0.85832 0.46038
0.787915 0.842786 0.445243
0 0 0.853223
0.0861372 0 0.852277
0.368658 0 0.850431
0.64564 0 0.84686
0.912474 0 0.8383
0 0.0775921 0.838239
0.0547341 0.0688945 0.840894
0.340459 0.0597696 0.84065
0.620188 0.0524453 0.834028
0.890288 0.0480964 0.821866
0 0.347951 0.817273
0.0147402 0.3393 0.819791
0.300526 0.32813 0.822614
0.588235 0.316701 0.819745
0.86688 0.30901 0.804364
0 0.611811 0.793378
0 0.605493 0.793118
0.254749 0.595712 0.794064
0.54165 0.582727 0.80032
0.842222 0.567575 0.785977
0 0.870985 0.769665
0 0.866392 0.764599
0.21709 0.859342 0.757122
0.482628 0.853529 0.751019
0.783368 0.837964 0.736034
