lut/5fe44ea1-1f14-4cb8-9159-c07fb4bc9f33.cube
TITLE "Warm Gentle Fade"
LUT_3D_SIZE 33
0 0 0
0 0 0
0 0 0
0 0 0
0 0 0
0.0165408 0 0
0.0531624 0 0
0.088838 0 0
0.123934 0 0
0.158602 0 0
0.19292 0 0
0.226963 0 0
0.260777 0 0
0.294392 0 0
0.327825 0 0
0.36112 0 0
0.394278 0 0
0.427329 0 0
0.460258 0 0
0.493111 0 0
0.525872 0 0
0.558572 0 0
0.591196 0 0
0.623789 0 0
0.656336 0 0
0.688853 0 0
0.721355 0 0
0.753887 0 0
0.786557 0 0
0.819409 0 0
0.851835 0 0
0.884092 0 0
0.916213 0 0
0 0 0
0 0 0
0 0 0
0 0 0
0 0 0
0.00854505 0 0
0.0462959 0 0
0.0827192 0 0
0.118364 0 0
0.153475 0 0
0.188159 0 0
0.222522 0 0
0.256611 0 0
0.290471 0 0
0.324132 0 0
0.357641 0 0
0.390997 0 0
0.424231 0 0
0.457359 0 0
0.490379 0 0
0.523339 0 0
0.556222 0 0
0.589075 0 0
0.621912 0 0
0.654765 0 0
0.687892 0 0
0.72079 0 0
0.753399 0 0
0.78584 0 0
0.818158 0 0
0.85037 0 0
0.88249 0 0
0.914519 0 0
0 0 0
0 0 0
0 0 0
0 0 0
0 0 0
0 0 0
0.0381018 0 0
0.0755779 0 0
0.112001 0 0
0.147707 0 0
0.182879 0 0
0.217655 0 0
0.252094 0 0
0.286275 0 0
0.320226 0 0
0.353994 0 0
0.387594 0 0
0.421073 0 0
0.454459 0 0
0.487755 0 0
0.521019 0 0
0.554314 0 0
0.587839 0 0
0.620935 0 0
0.653788 0 0
0.686473 0 0
0.719036 0 0
0.751492 0 0
0.783825 0 0
0.816083 0 0
0.848234 0 0
0.880308 0 0
0.912306 0 0
0 0 0
0 0 0
0 0 0
0 0 0
0 0 0
0 0 0
0.0286564 0 0
0.0674449 0 0
0.104814 0 0
0.141268 0 0
0.177066 0 0
0.212345 0 0
0.247242 0 0
0.281804 0 0
0.316121 0 0
0.350256 0 0
0.384222 0 0
0.418112 0 0
0.452094 0 0
0.485985 0 0
0.519417 0 0
0.552636 0 0
0.585672 0 0
0.61857 0 0
0.651316 0 0
0.68394 0 0
0.716472 0 0
0.748882 0 0
0.781216 0 0
0.813443 0 0
0.845594 0 0
0.877668 0 0
0.909667 0 0
0 0 0
0 0 0
0 0 0
0 0 0
0 0 0
0 0 0
0.0183566 0 0
0.0585031 0 0
0.0969406 0 0
0.134264 0 0
0.170779 0 0
0.206683 0 0
0.24213 0 0
0.277256 0 0
0.312169 0 0
0.347143 0 0
0.381567 0 0
0.41561 0 0
0.449378 0 0
0.482933 0 0
0.516289 0 0
0.549462 0 0
0.582483 0 0
0.615366 0 0
0.648127 0 0
0.680766 0 0
0.713298 0 0
0.745739 0 0
0.778073 0 0
0.81033 0 0
0.842496 0 0
0.874571 0 0
0.906584 0 0
0 0 0
0 0 0
0 0 0
0 0 0
0 0 0
0 0 0
0.00767529 0 0
0.049073 0 0
0.0885634 0 0
0.126818 0 0
0.164202 0 0
0.201053 0 0
0.237507 0 0
0.273121 0 0
0.308232 0 0
0.342931 0 0
0.377295 0 0
0.411368 0 0
0.445182 0 0
0.478782 0 0
0.5122 0 0
0.545434 0 0
0.578515 0 0
0.61146 0 0
0.644266 0 0
0.676951 0 0
0.709529 0 0
0.742 0 0
0.77438 0 0
0.806668 0 0
0.838865 0 0
0.870985 0 0
0.903029 0 0
0 0.0218662 0
0 0.0205234 0
0 0.0187228 0
0 0.0165255 0
0 0.0139925 0
0 0.0112917 0
0 0.00843824 0
0.0390021 0.00584421 0
0.0798352 0.00422675 0
0.119112 0.00274662 0
0.157214 0.00137331 0
0.194461 0.000137331 0
0.2309 0 0
0.266743 0 0
0.302068 0 0
0.33698 0 0
0.371542 0 0
0.405783 0 0
0.439765 0 0
0.473518 0 0
0.507057 0 0
0.540398 0 0
0.573587 0 0
0.606622 0 0
0.639521 0 0
0.672282 0 0
0.704936 0 0
0.737469 0 0
0.769909 0 0
0.802258 0 0
0.834501 0 0
0.866667 0 0
0.898756 0 0
0 0.0568246 0
0 0.0558022 0
0 0.0544747 0
0 0.0528572 0
0 0.0510414 0
0 0.0492714 0
0 0.0468757 0
0.030869 0.0441444 0
0.0714885 0.0419471 0
0.11078 0.0400244 0
0.149035 0.0383459 0
0.186419 0.0368811 0
0.223102 0.035584 0
0.259159 0.0344549 0
0.294713 0.033463 0
0.329824 0.032578 0
0.364569 0.0317845 0
0.398962 0.0310674 0
0.433097 0.0304265 0
0.466987 0.0298619 0
0.500648 0.0293431 0
0.534112 0.0288701 0
0.567391 0.0284428 0
0.600504 0.0280461 0
0.633478 0.0276951 0
0.666331 0.0273594 0
0.699046 0.0270695 0
0.731655 0.0267948 0
0.764141 0.0265507 0
0.796536 0.0263066 0
0.82884 0.0260929 0
0.861051 0.0258946 0
0.893187 0.0257115 0
0 0.0921492 0
0 0.091783 0
0 0.0910201 0
0 0.0897078 0
0 0.0879835 0
0 0.0859083 0
0 0.0835279 0
0.0228428 0.0807202 0
0.0634928 0.0783703 0
0.102922 0.0762951 0
0.141405 0.0744488 0
0.179065 0.0728008 0
0.216007 0.0713512 0
0.252354 0.0700542 0
0.288151 0.0688792 0
0.323507 0.0678416 0
0.35845 0.0669108 0
0.393057 0.0660868 0
0.427359 0.0653239 0
0.461402 0.0646525 0
0.495186 0.0640269 0
0.528771 0.0634623 0
0.562173 0.0629435 0
0.595376 0.0624704 0
0.628443 0.0620432 0
0.661372 0.0616464 0
0.694148 0.0612802 0
0.726818 0.0609445 0
0.75938 0.0606394 0
0.791821 0.0603494 0
0.82417 0.06009 0
0.856428 0.0598306 0
0.888609 0.0596017 0
0 0.12813 0
0 0.127413 0
0 0.12639 0
0 0.125048 0
0 0.1234 0
0 0.121462 0
0 0.119234 0
0.0153658 0.116503 0
0.0559701 0.114122 0
0.0954299 0.111986 0
0.134035 0.110048 0
0.171893 0.108293 0
0.209079 0.106706 0
0.245655 0.105272 0
0.281697 0.103975 0
0.317281 0.102815 0
0.352453 0.101762 0
0.387259 0.100816 0
0.421744 0.0999619 0
0.455955 0.0991836 0
0.489891 0.0984512 0
0.523629 0.0978103 0
0.557137 0.0972152 0
0.590478 0.0966506 0
0.623652 0.0961471 0
0.656657 0.0956893 0
0.68954 0.0952621 0
0.722286 0.0948653 0
0.75491 0.0944991 0
0.787427 0.0941634 0
0.819837 0.093843 0
0.852155 0.0935378 0
0.884382 0.0932784 0
0 0.162783 0
0 0.162005 0
0 0.160983 0
0 0.159716 0
0 0.158175 0
0 0.156374 0
0 0.154299 0
0.0084535 0.15172 0
0.0489815 0.14934 0
0.0883803 0.147204 0
0.127001 0.145235 0
0.16495 0.14342 0
0.202304 0.141756 0
0.239078 0.14023 0
0.275334 0.138842 0
0.311131 0.137575 0
0.346502 0.136416 0
0.381506 0.135363 0
0.416175 0.134401 0
0.450553 0.133532 0
0.484657 0.132723 0
0.518532 0.131991 0
0.552178 0.131304 0
0.585641 0.130694 0
0.618906 0.130114 0
0.652033 0.12958 0
0.685008 0.129091 0
0.71783 0.128634 0
0.750546 0.128206 0
0.783139 0.12781 0
0.81561 0.127443 0
0.84799 0.127092 0
0.880278 0.126787 0
0 0.196918 0
0 0.196139 0
0 0.195148 0
0 0.193942 0
0 0.192508 0
0 0.190829 0
0 0.188907 0
0.00199893 0.186542 0
0.0425269 0.184146 0
0.0817731 0.18204 0
0.120333 0.180072 0
0.158312 0.178241 0
0.195727 0.176516 0
0.232639 0.174929 0
0.269047 0.173465 0
0.305013 0.172122 0
0.340581 0.170886 0
0.375769 0.169741 0
0.410605 0.168704 0
0.445151 0.167742 0
0.479408 0.166842 0
0.51342 0.166033 0
0.547219 0.165286 0
0.580804 0.164584 0
0.614206 0.163943 0
0.647425 0.163348 0
0.680491 0.162799 0
0.71342 0.162295 0
0.746212 0.161807 0
0.778897 0.161364 0
0.811444 0.160937 0
0.843885 0.160555 0
0.876234 0.160189 0
0 0.230716 0
0 0.229938 0
0 0.228992 0
0 0.227848 0
0 0.226474 0
0 0.224933 0
0 0.223133 0
0 0.220981 0
0.0365454 0.21857 0
0.0756085 0.21651 0
0.114031 0.214572 0
0.151949 0.212741 0
0.189395 0.211017 0
0.226368 0.209384 0
0.262898 0.207874 0
0.299001 0.20647 0
0.334691 0.205158 0
0.370031 0.203952 0
0.405035 0.202838 0
0.439734 0.201801 0
0.474159 0.200839 0
0.508309 0.199954 0
0.542229 0.19913 0
0.575952 0.198383 0
0.609461 0.197665 0
0.642802 0.197009 0
0.675975 0.196399 0
0.708995 0.195834 0
0.741878 0.1953 0
0.774639 0.194797 0
0.807263 0.194339 0
0.83978 0.193896 0
0.872206 0.193484 0
0 0.26424 0
0 0.263478 0
0 0.262562 0
0 0.261479 0
0 0.260212 0
0 0.258747 0
0 0.257053 0
0 0.25507 0
0.0310063 0.252705 0
0.0698711 0.25069 0
0.108141 0.248798 0
0.145953 0.246998 0
0.183352 0.245274 0
0.220325 0.243641 0
0.256901 0.2421 0
0.293095 0.24065 0
0.328923 0.239292 0
0.364385 0.238025 0
0.399527 0.236851 0
0.434348 0.235752 0
0.46891 0.23473 0
0.503197 0.233783 0
0.537255 0.232898 0
0.571084 0.232074 0
0.60473 0.231312 0
0.638178 0.230594 0
0.671458 0.229938 0
0.70457 0.229297 0
0.73756 0.228717 0
0.770397 0.228183 0
0.803113 0.227665 0
0.835706 0.227176 0
0.868177 0.226719 0
0 0.297581 0
0 0.296834 0
0 0.295949 0
0 0.294911 0
0 0.293706 0
0 0.292317 0
0 0.29073 0
0 0.288884 0
0.0258488 0.28658 0
0.0645151 0.284627 0
0.102602 0.28278 0
0.140276 0.28101 0
0.177584 0.279301 0
0.214542 0.277684 0
0.251133 0.276127 0
0.287358 0.274662 0
0.323247 0.273259 0
0.358816 0.271946 0
0.394064 0.270726 0
0.429007 0.269581 0
0.463691 0.268513 0
0.4981 0.267506 0
0.53228 0.26656 0
0.566232 0.265675 0
0.59997 0.264866 0
0.633539 0.264088 0
0.666911 0.263371 0
0.70013 0.262684 0
0.733196 0.262058 0
0.766125 0.261463 0
0.798917 0.260899 0
0.831586 0.26038 0
0.864149 0.259876 0
0 0.330724 0
0 0.330007 0
0 0.329137 0
0 0.328145 0
0 0.327001 0
0 0.325689 0
0 0.324178 0
0 0.322423 0
0.0210269 0.320211 0
0.0595102 0.318303 0
0.0973983 0.316503 0
0.13492 0.314778 0
0.172107 0.313115 0
0.208988 0.311513 0
0.245548 0.309957 0
0.281788 0.308476 0
0.317723 0.307073 0
0.353353 0.30573 0
0.388678 0.304479 0
0.423728 0.303288 0
0.458488 0.302159 0
0.493019 0.301106 0
0.527306 0.300114 0
0.561364 0.299199 0
0.595209 0.298329 0
0.628885 0.297505 0
0.662364 0.296742 0
0.695674 0.29601 0
0.728832 0.295338 0
0.761852 0.294697 0
0.79472 0.294087 0
0.827466 0.293523 0
0.860105 0.292988 0
0 0.36376 0
0 0.363027 0
0 0.362188 0
0 0.361242 0
0 0.360128 0
0 0.358877 0
0 0.357458 0
0 0.35581 0
0.016495 0.353674 0
0.0548257 0.351797 0
0.0925307 0.350057 0
0.12987 0.348379 0
0.166918 0.346731 0
0.203693 0.345159 0
0.240208 0.343618 0
0.276417 0.342153 0
0.312367 0.340734 0
0.348013 0.339376 0
0.383398 0.338094 0
0.418509 0.336873 0
0.453376 0.335714 0
0.487984 0.33463 0
0.522362 0.333593 0
0.556512 0.332616 0
0.590463 0.331701 0
0.624231 0.330846 0
0.657801 0.330037 0
0.691218 0.329274 0
0.724468 0.328557 0
0.757565 0.327871 0
0.790524 0.32723 0
0.823346 0.326619 0
0.856046 0.32604 0
0 0.396628 0
0 0.395926 0
0 0.395117 0
0 0.394186 0
0 0.393133 0
0 0.391928 0
0 0.39057 0
0 0.388998 0
0.012192 0.386954 0
0.0504158 0.385107 0
0.0879225 0.383413 0
0.125109 0.381781 0
0.162005 0.380194 0
0.198672 0.378637 0
0.23508 0.377127 0
0.271244 0.375662 0
0.307164 0.374243 0
0.34284 0.372885 0
0.378241 0.371588 0
0.413413 0.370352 0
0.448325 0.369162 0
0.483009 0.368048 0
0.517464 0.366979 0
0.551705 0.365972 0
0.585748 0.365026 0
0.619593 0.364126 0
0.653254 0.363272 0
0.686748 0.362463 0
0.720073 0.3617 0
0.753262 0.360983 0
0.786297 0.360296 0
0.819196 0.35964 0
0.851987 0.35903 0
0 0.429404 0
0 0.428717 0
0 0.427924 0
0 0.427008 0
0 0.426001 0
0 0.424842 0
0 0.423545 0
0 0.422049 0
0.00810254 0.420096 0
0.0462501 0.418265 0
0.0835889 0.416617 0
0.120592 0.41503 0
0.157336 0.413474 0
0.193881 0.411948 0
0.230198 0.410468 0
0.266285 0.409033 0
0.302159 0.40763 0
0.337819 0.406271 0
0.37322 0.404959 0
0.408408 0.403708 0
0.443366 0.402518 0
0.478111 0.401373 0
0.512627 0.400275 0
0.546929 0.399237 0
0.581048 0.398245 0
0.614969 0.397314 0
0.648722 0.396429 0
0.682292 0.39559 0
0.715709 0.394797 0
0.748959 0.394018 0
0.782086 0.393317 0
0.815061 0.392615 0
0.847913 0.391974 0
0 0.462058 0
0 0.461387 0
0 0.460609 0
0 0.459724 0
0 0.458732 0
0 0.457633 0
0 0.456382 0
0 0.454948 0
0.00410468 0.453117 0
0.042298 0.45127 0
0.0794842 0.449653 0
0.11632 0.448112 0
0.152911 0.446601 0
0.189319 0.445121 0
0.225513 0.443671 0
0.261524 0.442252 0
0.297337 0.440864 0
0.332952 0.439521 0
0.368353 0.438224 0
0.40354 0.436957 0
0.438514 0.435752 0
0.473289 0.434577 0
0.507851 0.433478 0
0.542229 0.43241 0
0.576394 0.431403 0
0.610391 0.430426 0
0.644205 0.429511 0
0.677852 0.428641 0
0.71133 0.427802 0
0.744671 0.427008 0
0.777844 0.426261 0
0.81091 0.425544 0
0.843824 0.424857 0
0 0.494636 0
0 0.49395 0
0 0.493202 0
0 0.492348 0
0 0.491386 0
0 0.490303 0
0 0.489113 0
0 0.487739 0
0.000228885 0.486046 0
0.038529 0.484154 0
0.0755779 0.482582 0
0.112261 0.481071 0
0.148699 0.479591 0
0.184955 0.478157 0
0.221042 0.476738 0
0.256962 0.475349 0
0.292699 0.473976 0
0.328252 0.472648 0
0.363607 0.471351 0
0.398795 0.470085 0
0.433783 0.468879 0
0.468574 0.467704 0
0.503166 0.466575 0
0.537575 0.465492 0
0.571801 0.464454 0
0.605844 0.463478 0
0.639719 0.462516 0
0.673426 0.461631 0
0.706981 0.460761 0
0.740368 0.459937 0
0.773617 0.459144 0
0.806745 0.458396 0
0.839734 0.457694 0
0 0.527092 0
0 0.526436 0
0 0.525689 0
0 0.524849 0
0 0.523919 0
0 0.522881 0
0 0.521721 0
0 0.520394 0
0 0.518776 0
0.0348974 0.516899 0
0.0718242 0.515358 0
0.108354 0.513878 0
0.144656 0.512444 0
0.180789 0.51104 0
0.216754 0.509667 0
0.252567 0.508293 0
0.288212 0.50695 0
0.32369 0.505638 0
0.359014 0.504356 0
0.394171 0.503105 0
0.429145 0.501884 0
0.463935 0.50071 0
0.498543 0.49958 0
0.532982 0.498482 0
0.567254 0.497429 0
0.601343 0.496422 0
0.635264 0.49546 0
0.669032 0.49453 0
0.702632 0.493645 0
0.736095 0.49279 0
0.769421 0.491981 0
0.802594 0.491218 0
0.835645 0.490471 0
0 0.559487 0
0 0.558831 0
0 0.558099 0
0 0.55729 0
0 0.556374 0
0 0.555367 0
0 0.554238 0
0 0.552956 0
0 0.551431 0
0.0314488 0.549569 0
0.0682536 0.548043 0
0.104662 0.546593 0
0.140826 0.545205 0
0.176822 0.543832 0
0.21265 0.542473 0
0.248356 0.541146 0
0.283909 0.539818 0
0.319326 0.538537 0
0.354589 0.53727 0
0.3897 0.536019 0
0.424643 0.534813 0
0.459434 0.533639 0
0.494057 0.532494 0
0.528496 0.531395 0
0.562783 0.530327 0
0.596902 0.529305 0
0.630869 0.528328 0
0.664683 0.527382 0
0.698344 0.526482 0
0.731853 0.525612 0
0.765225 0.524773 0
0.798459 0.523964 0
0.831571 0.523201 0
0 0.591821 0
0 0.591165 0
0 0.590448 0
0 0.589639 0
0 0.588754 0
0 0.587777 0
0 0.586679 0
0 0.585443 0
0 0.583978 0
0.0281376 0.582132 0
0.0648508 0.580621 0
0.101106 0.579217 0
0.137148 0.577844 0
0.173007 0.576501 0
0.208728 0.575189 0
0.244327 0.573877 0
0.279774 0.572595 0
0.315114 0.571313 0
0.350317 0.570062 0
0.385367 0.568841 0
0.420279 0.567651 0
0.455039 0.566476 0
0.489647 0.565332 0
0.524102 0.564233 0
0.558404 0.563165 0
0.592554 0.562127 0
0.626551 0.56112 0
0.66038 0.560159 0
0.694087 0.559243 0
0.727642 0.558343 0
0.761059 0.557488 0
0.794354 0.556664 0
0.827497 0.555871 0
0 0.624063 0
0 0.623423 0
0 0.622705 0
0 0.621927 0
0 0.621057 0
0 0.620096 0
0 0.619028 0
0 0.617823 0
0 0.616434 0
0.0249332 0.614603 0
0.0615549 0.613108 0
0.0977035 0.611734 0
0.133623 0.610391 0
0.16936 0.609094 0
0.204959 0.607797 0
0.240452 0.606531 0
0.275807 0.605249 0
0.311055 0.604013 0
0.346181 0.602777 0
0.381186 0.601572 0
0.416052 0.600381 0
0.450782 0.599222 0
0.485359 0.598077 0
0.519814 0.596979 0
0.554116 0.595911 0
0.588266 0.594858 0
0.622278 0.593851 0
0.656153 0.592874 0
0.689891 0.591943 0
0.723476 0.591043 0
0.756939 0.590158 0
0.790265 0.589319 0
0.823468 0.58851 0
0 0.656245 0
0 0.655619 0
0 0.654917 0
0 0.654154 0
0 0.6533 0
0 0.652369 0
0 0.651316 0
0 0.650141 0
0 0.648783 0
0.0218204 0.646998 0
0.0583963 0.645518 0
0.0944381 0.64416 0
0.130236 0.642863 0
0.16585 0.641566 0
0.201343 0.640314 0
0.236713 0.639063 0
0.271977 0.637827 0
0.307149 0.636606 0
0.342184 0.635401 0
0.377111 0.634195 0
0.411933 0.633021 0
0.446616 0.631876 0
0.481178 0.630747 0
0.515618 0.629648 0
0.549905 0.628565 0
0.584054 0.627527 0
0.618082 0.626505 0
0.651972 0.625528 0
0.685725 0.624582 0
0.719356 0.623667 0
0.75285 0.622766 0
0.786221 0.621912 0
0.819455 0.621088 0
0 0.688365 0
0 0.687755 0
0 0.687053 0
0 0.68629 0
0 0.685466 0
0 0.68455 0
0 0.683528 0
0 0.682399 0
0 0.681071 0
0.0188144 0.679316 0
0.0553292 0.677852 0
0.0912795 0.676509 0
0.126955 0.675227 0
0.162478 0.673976 0
0.197848 0.67274 0
0.233127 0.671519 0
0.268284 0.670298 0
0.303365 0.669108 0
0.338323 0.667918 0
0.37319 0.666743 0
0.40795 0.665583 0
0.442588 0.664439 0
0.477104 0.663325 0
0.511513 0.662226 0
0.5458 0.661158 0
0.57995 0.660121 0
0.613977 0.659098 0
0.647868 0.658122 0
0.681636 0.65716 0
0.715282 0.656214 0
0.748806 0.655314 0
0.782193 0.654444 0
0.815473 0.653605 0
0 0.720424 0
0 0.719799 0
0 0.719112 0
0 0.718364 0
0 0.717556 0
0 0.716655 0
0 0.715663 0
0 0.714534 0
0 0.713268 0
