lut/64dd66ec-f508-4336-be0f-b712920bb4ae.cube
TITLE "Soft Nostalgia"
LUT_3D_SIZE 6
0.054846 0.054846 0.054846
0.270021 0.054846 0.054846
0.441805 0.054846 0.054846
0.595352 0.054846 0.054846
0.744871 0.054846 0.054846
0.895082 0.054846 0.054846
0.054846 0.279894 0.054846
0.268250 0.279894 0.054846
0.441805 0.247029 0.054846
0.595352 0.230795 0.054846
0.744871 0.222585 0.054846
0.895082 0.218510 0.054846
0.054846 0.459266 0.054846
0.235836 0.459266 0.054846
0.439911 0.459266 0.054846
0.595352 0.430362 0.054846
0.744871 0.414786 0.054846
0.895082 0.407036 0.054846
0.054846 0.619702 0.054846
0.220607 0.619702 0.054846
0.411015 0.619702 0.054846
0.593553 0.619702 0.054846
0.744871 0.598976 0.054846
0.895082 0.587743 0.054846
0.054846 0.775817 0.054846
0.212912 0.775817 0.054846
0.396410 0.775817 0.054846
0.572360 0.775817 0.054846
0.743017 0.775817 0.054846
0.895082 0.762957 0.054846
0.054846 0.932762 0.054846
0.209127 0.932762 0.054846
0.389178 0.932762 0.054846
0.561882 0.932762 0.054846
0.729404 0.932762 0.054846
0.893346 0.932762 0.054846
0.054846 0.054846 0.290168
0.266479 0.054846 0.290168
0.441805 0.054846 0.257733
0.595352 0.054846 0.240758
0.744871 0.054846 0.232181
0.895082 0.054846 0.227909
0.054846 0.278075 0.290168
0.270021 0.279827 0.290168
0.441805 0.279894 0.289595
0.595352 0.279894 0.289203
0.744824 0.279894 0.288974
0.895082 0.279894 0.288796
0.054846 0.459266 0.256669
0.270021 0.459266 0.288877
0.441103 0.459266 0.290168
0.595352 0.443830 0.290168
0.744824 0.435461 0.290168
0.895082 0.431281 0.290168
0.054846 0.619702 0.240051
0.270021 0.619702 0.288150
0.426087 0.619702 0.290168
0.594402 0.619702 0.290168
0.744824 0.605794 0.290168
0.895082 0.598419 0.290168
0.054846 0.775817 0.231634
0.270021 0.775818 0.287715
0.418253 0.775818 0.290168
0.580343 0.775818 0.290168
0.743664 0.775818 0.290168
0.895082 0.766931 0.290168
0.054846 0.932762 0.227467
0.270021 0.932762 0.287386
0.414575 0.932762 0.290168
0.573510 0.932762 0.290168
0.734244 0.932762 0.290168
0.893833 0.932762 0.290168
0.054846 0.054846 0.477595
0.234917 0.054846 0.477595
0.438202 0.054846 0.477595
0.595352 0.054846 0.449289
0.744871 0.054846 0.433002
0.895082 0.054846 0.424856
0.054846 0.245073 0.477595
0.270021 0.279128 0.477595
0.440415 0.279894 0.477595
0.595352 0.279894 0.461688
0.744824 0.279894 0.452555
0.895082 0.279894 0.447986
0.054846 0.457495 0.477595
0.270021 0.458542 0.477595
0.441805 0.459240 0.477595
0.595352 0.459266 0.477254
0.744871 0.459266 0.476963
0.895082 0.459266 0.476688
0.054846 0.619702 0.447927
0.270021 0.619702 0.460767
0.441805 0.619702 0.476858
0.595010 0.619702 0.477595
0.744871 0.614565 0.477595
0.895082 0.612132 0.477595
0.054846 0.775817 0.431960
0.270021 0.775818 0.451497
0.441805 0.775817 0.476252
0.589994 0.775817 0.477595
0.744160 0.775817 0.477595
0.895082 0.772139 0.477595
0.054846 0.932762 0.424034
0.270021 0.932762 0.446946
0.441805 0.932762 0.475826
0.587927 0.932762 0.477595
0.740237 0.932762 0.477595
0.894247 0.932762 0.477595
0.054846 0.054846 0.645143
0.220007 0.054846 0.645143
0.409854 0.054846 0.645143
0.591828 0.054846 0.645143
0.744871 0.054846 0.625373
0.895082 0.054846 0.613612
0.054846 0.229482 0.645143
0.270021 0.278778 0.645143
0.425173 0.279894 0.645143
0.593383 0.279894 0.645143
0.744824 0.279894 0.631413
0.895082 0.279894 0.623578
0.054846 0.427866 0.645143
0.270021 0.441996 0.645143
0.441805 0.458797 0.645143
0.594624 0.459266 0.645143
0.744871 0.459266 0.639841
0.895082 0.459266 0.636911
0.054846 0.617925 0.645143
0.270021 0.618663 0.645143
0.441805 0.619234 0.645143
0.595352 0.619651 0.645143
0.744871 0.619702 0.644947
0.895082 0.619702 0.644655
0.054846 0.775817 0.623880
0.270021 0.775818 0.630315
0.441805 0.775817 0.639132
0.595352 0.775817 0.644653
0.744555 0.775817 0.645143
0.895082 0.775096 0.645143
0.054846 0.932762 0.612426
0.270021 0.932762 0.622477
0.441805 0.932762 0.636128
0.595352 0.932762 0.644108
0.743961 0.932762 0.645143
0.894697 0.932762 0.645143
0.054846 0.054846 0.808164
0.212469 0.054846 0.808164
0.395475 0.054846 0.808164
0.571066 0.054846 0.808164
0.741337 0.054846 0.808164
0.895082 0.054846 0.796701
0.054846 0.221581 0.808164
0.270021 0.278567 0.808164
0.417264 0.279894 0.808164
0.579322 0.279894 0.808164
0.742532 0.279894 0.808164
0.895082 0.279894 0.800032
0.054846 0.412817 0.808164
0.270021 0.433340 0.808164
0.441805 0.458507 0.808164
0.589248 0.459266 0.808164
0.743451 0.459266 0.808164
0.895082 0.459266 0.804812
0.054846 0.596218 0.808164
0.270021 0.603632 0.808164
0.441805 0.613164 0.808164
0.595352 0.619300 0.808164
0.744325 0.619702 0.808164
0.895082 0.619702 0.807476
0.054846 0.774091 0.808164
0.270021 0.774625 0.808164
0.441805 0.775025 0.808164
0.595352 0.775425 0.808164
0.744871 0.775792 0.808164
0.895082 0.775817 0.808098
0.054846 0.932762 0.795165
0.270021 0.932762 0.798799
0.441805 0.932762 0.803961
0.595352 0.932762 0.806969
0.744871 0.932762 0.807906
0.894917 0.932762 0.808164
0.054846 0.054846 0.972024
0.208743 0.054846 0.972024
0.388418 0.054846 0.972024
0.560841 0.054846 0.972024
0.728075 0.054846 0.972024
0.891698 0.054846 0.972024
0.054846 0.217700 0.972024
0.270021 0.278411 0.972023
0.413395 0.279894 0.972023
0.572441 0.279894 0.972023
0.733042 0.279894 0.972023
0.892592 0.279894 0.972023
0.054846 0.405451 0.972024
0.270021 0.429165 0.972023
0.441805 0.458296 0.972024
0.587046 0.459266 0.972023
0.739262 0.459266 0.972023
0.893425 0.459266 0.972023
0.054846 0.585495 0.972024
0.270021 0.596320 0.972023
0.441805 0.610459 0.972024
0.595352 0.619094 0.972024
0.743450 0.619702 0.972024
0.894098 0.619702 0.972024
0.054846 0.760136 0.972024
0.270021 0.764622 0.972023
0.441805 0.770404 0.972024
0.595352 0.774093 0.972024
0.744871 0.775566 0.972024
0.894633 0.775817 0.972024
0.054846 0.931021 0.972024
0.270021 0.931468 0.972023
0.441805 0.931873 0.972024
0.595352 0.932094 0.972024
0.744871 0.932450 0.972024
0.895082 0.932718 0.972024
