lut/64dd66ec-f508-4336-be0f-b712920bb4ae.cube
TITLE "Soft Nostalgia"
LUT_3D_SIZE 16
0.054846 0.054846 0.054846
0.130525 0.054846 0.054846
0.203551 0.054846 0.054846
0.270021 0.054846 0.054846
0.330930 0.054846 0.054846
0.387731 0.054846 0.054846
0.441805 0.054846 0.054846
0.493904 0.054846 0.054846
0.544948 0.054846 0.054846
0.595352 0.054846 0.054846
0.645248 0.054846 0.054846
0.695046 0.054846 0.054846
0.744871 0.054846 0.054846
0.794853 0.054846 0.054846
0.844884 0.054846 0.054846
0.895082 0.054846 0.054846
0.054846 0.134076 0.054846
0.128964 0.134076 0.054846
0.203551 0.117996 0.054846
0.270021 0.110254 0.054846
0.330930 0.105248 0.054846
0.387731 0.101613 0.054846
0.441805 0.098852 0.054846
0.493904 0.096692 0.054846
0.544948 0.095010 0.054846
0.595352 0.093675 0.054846
0.645248 0.092622 0.054846
0.695046 0.091778 0.054846
0.744871 0.091117 0.054846
0.794853 0.090598 0.054846
0.844884 0.090195 0.054846
0.895082 0.089858 0.054846
0.054846 0.210386 0.054846
0.112821 0.210386 0.054846
0.201776 0.210386 0.054846
0.270021 0.196515 0.054846
0.330930 0.186218 0.054846
0.387731 0.178663 0.054846
0.441805 0.172858 0.054846
0.493904 0.168278 0.054846
0.544948 0.164700 0.054846
0.595352 0.161859 0.054846
0.645248 0.159588 0.054846
0.695046 0.157758 0.054846
0.744871 0.156319 0.054846
0.794853 0.155174 0.054846
0.844884 0.154299 0.054846
0.895082 0.153567 0.054846
0.054846 0.279894 0.054846
0.105751 0.279894 0.054846
0.187280 0.279894 0.054846
0.268250 0.279894 0.054846
0.330930 0.266677 0.054846
0.387731 0.255573 0.054846
0.441805 0.247029 0.054846
0.493904 0.240296 0.054846
0.544948 0.234993 0.054846
0.595352 0.230795 0.054846
0.645248 0.227416 0.054846
0.695046 0.224731 0.054846
0.744871 0.222585 0.054846
0.794853 0.220908 0.054846
0.844884 0.219572 0.054846
0.895082 0.218510 0.054846
0.054846 0.343490 0.054846
0.101167 0.343490 0.054846
0.177760 0.343490 0.054846
0.254203 0.343490 0.054846
0.329104 0.343490 0.054846
0.387731 0.330873 0.054846
0.441805 0.319745 0.054846
0.493904 0.310944 0.054846
0.544948 0.303991 0.054846
0.595352 0.298493 0.054846
0.645248 0.294081 0.054846
0.695046 0.290554 0.054846
0.744871 0.287784 0.054846
0.794853 0.285555 0.054846
0.844884 0.283823 0.054846
0.895082 0.282406 0.054846
0.054846 0.402864 0.054846
0.097817 0.402864 0.054846
0.170688 0.402864 0.054846
0.243843 0.402864 0.054846
0.315559 0.402864 0.054846
0.385905 0.402864 0.054846
0.441805 0.391039 0.054846
0.493904 0.380222 0.054846
0.544948 0.371721 0.054846
0.595352 0.364956 0.054846
0.645248 0.359535 0.054846
0.695046 0.355219 0.054846
0.744871 0.351774 0.054846
0.794853 0.349053 0.054846
0.844884 0.346921 0.054846
0.895082 0.345210 0.054846
0.054846 0.459266 0.054846
0.095275 0.459266 0.054846
0.165264 0.459266 0.054846
0.235836 0.459266 0.054846
0.305086 0.459266 0.054846
0.373051 0.459266 0.054846
0.439911 0.459266 0.054846
0.493904 0.448399 0.054846
0.544948 0.438330 0.054846
0.595352 0.430362 0.054846
0.645248 0.423947 0.054846
0.695046 0.418797 0.054846
0.744871 0.414786 0.054846
0.794853 0.411529 0.054846
0.844884 0.409080 0.054846
0.895082 0.407036 0.054846
0.054846 0.513742 0.054846
0.093291 0.513742 0.054846
0.161011 0.513742 0.054846
0.229523 0.513742 0.054846
0.296846 0.513742 0.054846
0.362937 0.513742 0.054846
0.427988 0.513742 0.054846
0.492081 0.513742 0.054846
0.544948 0.504006 0.054846
0.595352 0.494854 0.054846
0.645248 0.487434 0.054846
0.695046 0.481532 0.054846
0.744871 0.476915 0.054846
0.794853 0.473204 0.054846
0.844884 0.470298 0.054846
0.895082 0.467934 0.054846
0.054846 0.567090 0.054846
0.091743 0.567090 0.054846
0.157659 0.567090 0.054846
0.224551 0.567090 0.054846
0.290346 0.567090 0.054846
0.354977 0.567090 0.054846
0.418589 0.567090 0.054846
0.481218 0.567090 0.054846
0.543145 0.567090 0.054846
0.595352 0.558525 0.054846
0.645248 0.550213 0.054846
0.695046 0.543523 0.054846
0.744871 0.538336 0.054846
0.794853 0.534047 0.054846
0.844884 0.530828 0.054846
0.895082 0.528165 0.054846
0.054846 0.619702 0.054846
0.090506 0.619702 0.054846
0.154989 0.619702 0.054846
0.220607 0.619702 0.054846
0.285196 0.619702 0.054846
0.348596 0.619702 0.054846
0.411015 0.619702 0.054846
0.472563 0.619702 0.054846
0.533421 0.619702 0.054846
0.593553 0.619702 0.054846
0.645248 0.612251 0.054846
0.695046 0.604858 0.054846
0.744871 0.598976 0.054846
0.794853 0.594342 0.054846
0.844884 0.590715 0.054846
0.895082 0.587743 0.054846
0.054846 0.671828 0.054846
0.089537 0.671828 0.054846
0.152866 0.671828 0.054846
0.217444 0.671828 0.054846
0.281038 0.671828 0.054846
0.343488 0.671828 0.054846
0.405016 0.671828 0.054846
0.465619 0.671828 0.054846
0.525512 0.671828 0.054846
0.584817 0.671828 0.054846
0.643468 0.671828 0.054846
0.695046 0.665553 0.054846
0.744871 0.659091 0.054846
0.794853 0.653928 0.054846
0.844884 0.649945 0.054846
0.895082 0.646661 0.054846
0.054846 0.723851 0.054846
0.088759 0.723851 0.054846
0.151161 0.723851 0.054846
0.214934 0.723851 0.054846
0.277742 0.723851 0.054846
0.339456 0.723851 0.054846
0.400231 0.723851 0.054846
0.460135 0.723851 0.054846
0.519313 0.723851 0.054846
0.577869 0.723851 0.054846
0.635848 0.723851 0.054846
0.693382 0.723851 0.054846
0.744871 0.718735 0.054846
0.794853 0.712986 0.054846
0.844884 0.708801 0.054846
0.895082 0.705133 0.054846
0.054846 0.775817 0.054846
0.088148 0.775817 0.054846
0.149810 0.775817 0.054846
0.212912 0.775817 0.054846
0.275121 0.775817 0.054846
0.336199 0.775817 0.054846
0.396410 0.775817 0.054846
0.455696 0.775817 0.054846
0.514311 0.775817 0.054846
0.572360 0.775817 0.054846
0.629723 0.775817 0.054846
0.686665 0.775817 0.054846
0.743017 0.775817 0.054846
0.794853 0.771606 0.054846
0.844884 0.766873 0.054846
0.895082 0.762957 0.054846
0.054846 0.828104 0.054846
0.087677 0.828104 0.054846
0.148770 0.828104 0.054846
0.211351 0.828104 0.054846
0.273070 0.828104 0.054846
0.333695 0.828104 0.054846
0.393369 0.828104 0.054846
0.452286 0.828104 0.054846
0.510474 0.828104 0.054846
0.568019 0.828104 0.054846
0.625002 0.828104 0.054846
0.681545 0.828104 0.054846
0.737469 0.828104 0.054846
0.793163 0.828104 0.054846
0.844884 0.824846 0.054846
0.895082 0.820687 0.054846
0.054846 0.880463 0.054846
0.087308 0.880463 0.054846
0.147933 0.880463 0.054846
0.210135 0.880463 0.054846
0.271469 0.880463 0.054846
0.331743 0.880463 0.054846
0.391106 0.880463 0.054846
0.449584 0.880463 0.054846
0.507444 0.880463 0.054846
0.564662 0.880463 0.054846
0.621273 0.880463 0.054846
0.677489 0.880463 0.054846
0.733104 0.880463 0.054846
0.788390 0.880463 0.054846
0.843209 0.880463 0.054846
0.895082 0.877720 0.054846
0.054846 0.932762 0.054846
0.087005 0.932762 0.054846
0.147258 0.932762 0.054846
0.209127 0.932762 0.054846
0.270141 0.932762 0.054846
0.330090 0.932762 0.054846
0.389178 0.932762 0.054846
0.447406 0.932762 0.054846
0.504901 0.932762 0.054846
0.561882 0.932762 0.054846
0.618181 0.932762 0.054846
0.674089 0.932762 0.054846
0.729404 0.932762 0.054846
0.784505 0.932762 0.054846
0.839046 0.932762 0.054846
0.893346 0.932762 0.054846
0.054846 0.054846 0.137771
0.127444 0.054846 0.137771
0.203551 0.054846 0.122543
0.270021 0.054846 0.114361
0.330930 0.054846 0.109083
0.387731 0.054846 0.105235
0.441805 0.054846 0.102316
0.493904 0.054846 0.100023
0.544948 0.054846 0.098229
0.595352 0.054846 0.096839
0.645248 0.054846 0.095714
0.695046 0.054846 0.094821
0.744871 0.054846 0.094110
0.794853 0.054846 0.093552
0.844884 0.054846 0.093137
0.895082 0.054846 0.092767
0.054846 0.132478 0.137771
0.130525 0.134021 0.137771
0.203551 0.134076 0.137209
0.270021 0.134076 0.136904
0.330930 0.134076 0.136729
0.387731 0.134076 0.136622
0.441805 0.134076 0.136545
0.493904 0.134076 0.136475
0.544948 0.134076 0.136440
0.595352 0.134076 0.136401
0.645248 0.134076 0.136371
0.695046 0.134076 0.136341
0.744871 0.134076 0.136322
0.794853 0.134076 0.136297
0.844884 0.134076 0.136285
0.895082 0.134076 0.136266
0.054846 0.210386 0.121573
0.130525 0.210386 0.136570
0.202886 0.210386 0.137771
0.270021 0.203488 0.137771
0.330930 0.197675 0.137771
0.387731 0.193122 0.137771
0.441805 0.189603 0.137771
0.493904 0.186794 0.137771
0.544948 0.184587 0.137771
0.595352 0.182849 0.137771
0.645248 0.181459 0.137771
0.695046 0.180369 0.137771
0.744871 0.179510 0.137771
0.794853 0.178824 0.137771
0.844884 0.178308 0.137771
0.895082 0.177876 0.137771
0.054846 0.279894 0.113698
0.130525 0.279894 0.135992
0.195949 0.279894 0.137771
0.269026 0.279894 0.137771
0.330930 0.270373 0.137771
0.387731 0.262033 0.137771
0.441805 0.255441 0.137771
0.493904 0.250158 0.137771
0.544948 0.245964 0.137771
0.595352 0.242637 0.137771
0.645248 0.239968 0.137771
0.695046 0.237821 0.137771
0.744871 0.236160 0.137771
0.794853 0.234796 0.137771
0.844884 0.233792 0.137771
0.895082 0.232958 0.137771
0.054846 0.343490 0.108573
0.130525 0.343490 0.135657
0.190661 0.343490 0.137771
0.259182 0.343490 0.137771
0.329742 0.343490 0.137771
0.387731 0.333111 0.137771
0.441805 0.323869 0.137771
0.493904 0.316424 0.137771
0.544948 0.310482 0.137771
0.595352 0.305749 0.137771
0.645248 0.301961 0.137771
0.695046 0.298895 0.137771
0.744871 0.296532 0.137771
0.794853 0.294606 0.137771
0.844884 0.293120 0.137771
0.895082 0.291895 0.137771
0.054846 0.402864 0.104829
0.130525 0.402864 0.135456
0.186542 0.402864 0.137771
0.251414 0.402864 0.137771
0.318780 0.402864 0.137771
0.386403 0.402864 0.137771
0.441805 0.392520 0.137771
0.493904 0.383042 0.137771
0.544948 0.375538 0.137771
0.595352 0.369542 0.137771
0.645248 0.364659 0.137771
0.695046 0.360843 0.137771
0.744871 0.357761 0.137771
0.794853 0.355318 0.137771
0.844884 0.353445 0.137771
0.895082 0.351911 0.137771
0.054846 0.459266 0.101965
0.130525 0.459266 0.135294
0.183290 0.459266 0.137771
0.245233 0.459266 0.137771
0.310088 0.459266 0.137771
0.375340 0.459266 0.137771
0.440331 0.459266 0.137771
0.493904 0.449423 0.137771
0.544948 0.440357 0.137771
0.595352 0.433152 0.137771
0.645248 0.427334 0.137771
0.695046 0.422641 0.137771
0.744871 0.418960 0.137771
0.794853 0.416072 0.137771
0.844884 0.413750 0.137771
0.895082 0.411873 0.137771
0.054846 0.513742 0.099737
0.130525 0.513742 0.135183
0.180724 0.513742 0.137771
0.240349 0.513742 0.137771
0.303136 0.513742 0.137771
0.366496 0.513742 0.137771
0.429663 0.513742 0.137771
0.492416 0.513742 0.137771
0.544948 0.504752 0.137771
0.595352 0.496350 0.137771
0.645248 0.489572 0.137771
0.695046 0.484150 0.137771
0.744871 0.479852 0.137771
0.794853 0.476422 0.137771
0.844884 0.473782 0.137771
0.895082 0.471593 0.137771
0.054846 0.567090 0.097981
0.130525 0.567090 0.135105
0.178738 0.567090 0.137771
0.236455 0.567090 0.137771
0.297584 0.567090 0.137771
0.359463 0.567090 0.137771
0.421188 0.567090 0.137771
0.482534 0.567090 0.137771
0.543495 0.567090 0.137771
0.595352 0.559051 0.137771
0.645248 0.551332 0.137771
0.695046 0.545173 0.137771
0.744871 0.540333 0.137771
0.794853 0.536388 0.137771
0.844884 0.533424 0.137771
0.895082 0.530921 0.137771
0.054846 0.619702 0.096614
0.130525 0.619702 0.135030
0.177162 0.619702 0.137771
0.233336 0.619702 0.137771
0.293154 0.619702 0.137771
0.353811 0.619702 0.137771
0.414403 0.619702 0.137771
0.474633 0.619702 0.137771
0.534416 0.619702 0.137771
0.593805 0.619702 0.137771
0.645248 0.612649 0.137771
0.695046 0.605783 0.137771
0.744871 0.600324 0.137771
0.794853 0.595944 0.137771
0.844884 0.592580 0.137771
0.895082 0.589785 0.137771
0.054846 0.671828 0.095509
0.130525 0.671828 0.134973
0.175878 0.671828 0.137771
0.230869 0.671828 0.137771
0.289610 0.671828 0.137771
0.349217 0.671828 0.137771
0.408885 0.671828 0.137771
0.468240 0.671828 0.137771
0.527187 0.671828 0.137771
0.585675 0.671828 0.137771
0.643700 0.671828 0.137771
0.695046 0.665772 0.137771
0.744871 0.659831 0.137771
0.794853 0.655032 0.137771
0.844884 0.651256 0.137771
0.895082 0.648210 0.137771
0.054846 0.723851 0.094639
0.130525 0.723851 0.134926
0.174894 0.723851 0.137771
0.228906 0.723851 0.137771
0.286776 0.723851 0.137771
0.345632 0.723851 0.137771
0.404527 0.723851 0.137771
0.463155 0.723851 0.137771
0.521377 0.723851 0.137771
0.579178 0.723851 0.137771
0.636536 0.723851 0.137771
0.693526 0.723851 0.137771
0.744871 0.718920 0.137771
0.794853 0.713747 0.137771
0.844884 0.709619 0.137771
0.895082 0.706217 0.137771
0.054846 0.775817 0.093935
0.130525 0.775817 0.134881
0.174113 0.775817 0.137771
0.227320 0.775817 0.137771
0.284506 0.775817 0.137771
0.342726 0.775817 0.137771
0.401045 0.775817 0.137771
0.459068 0.775817 0.137771
0.516767 0.775817 0.137771
0.574021 0.775817 0.137771
0.630807 0.775817 0.137771
0.687257 0.775817 0.137771
0.743287 0.775817 0.137771
0.794853 0.771785 0.137771
0.844884 0.767370 0.137771
0.895082 0.763643 0.137771
0.054846 0.828104 0.093405
0.130525 0.828104 0.134844
0.173498 0.828104 0.137771
0.226109 0.828104 0.137771
0.282760 0.828104 0.137771
0.340482 0.828104 0.137771
0.398328 0.828104 0.137771
0.455922 0.828104 0.137771
0.513156 0.828104 0.137771
0.570018 0.828104 0.137771
0.626400 0.828104 0.137771
0.682370 0.828104 0.137771
0.737931 0.828104 0.137771
0.793374 0.828104 0.137771
0.844884 0.825023 0.137771
0.895082 0.821117 0.137771
0.054846 0.880463 0.092990
0.130525 0.880463 0.134823
0.173043 0.880463 0.137771
0.225167 0.880463 0.137771
0.281377 0.880463 0.137771
0.338748 0.880463 0.137771
0.396221 0.880463 0.137771
0.453476 0.880463 0.137771
0.510361 0.880463 0.137771
0.566851 0.880463 0.137771
0.622866 0.880463 0.137771
0.678586 0.880463 0.137771
0.733934 0.880463 0.137771
0.788883 0.880463 0.137771
0.843454 0.880463 0.137771
0.895082 0.877829 0.137771
0.054846 0.932762 0.092636
0.130525 0.932762 0.134790
0.172658 0.932762 0.137771
0.224398 0.932762 0.137771
0.280250 0.932762 0.137771
0.337254 0.932762 0.137771
0.394485 0.932762 0.137771
0.451393 0.932762 0.137771
0.508004 0.932762 0.137771
0.564246 0.932762 0.137771
0.620005 0.932762 0.137771
0.675470 0.932762 0.137771
0.730424 0.932762 0.137771
0.785213 0.932762 0.137771
0.839446 0.932762 0.137771
0.893534 0.932762 0.137771
0.054846 0.054846 0.217565
0.111987 0.054846 0.217565
0.200092 0.054846 0.217565
0.270021 0.054846 0.204888
0.330930 0.054846 0.194128
0.387731 0.054846 0.186203
0.441805 0.054846 0.180151
0.493904 0.054846 0.175355
0.544948 0.054846 0.171587
0.595352 0.054846 0.168600
0.645248 0.054846 0.166211
0.695046 0.054846 0.164303
0.744871 0.054846 0.162807
0.794853 0.054846 0.161602
0.844884 0.054846 0.160670
0.895082 0.054846 0.159912
0.054846 0.116202 0.217565
0.130525 0.133395 0.217565
0.202212 0.134076 0.217565
0.270021 0.134076 0.210613
0.330930 0.134076 0.204186
0.387731 0.134076 0.199220
0.441805 0.134076 0.195299
0.493904 0.134076 0.192221
0.544948 0.134076 0.189791
0.595352 0.134076 0.187889
0.645248 0.134076 0.186364
0.695046 0.134076 0.185128
0.744871 0.134076 0.184199
0.794853 0.134076 0.183436
0.844884 0.134076 0.182846
0.895082 0.134076 0.182357
0.054846 0.208623 0.217565
0.130525 0.209650 0.217565
0.203551 0.210372 0.217565
0.270021 0.210386 0.217237
0.330930 0.210386 0.216940
0.387731 0.210386 0.216736
0.441805 0.210386 0.216587
0.493904 0.210386 0.216485
0.544948 0.210386 0.216400
0.595353 0.210386 0.216301
0.645248 0.210386 0.216249
0.695046 0.210386 0.216195
0.744871 0.210386 0.216140
0.794853 0.210386 0.216094
0.844884 0.210386 0.216050
0.895082 0.210386 0.216014
0.054846 0.279894 0.203558
0.130525 0.279894 0.209669
0.203551 0.279894 0.216804
0.269703 0.279894 0.217565
0.330930 0.275177 0.217565
0.387731 0.271004 0.217565
0.441805 0.267625 0.217565
0.493904 0.264919 0.217565
0.544948 0.262760 0.217565
0.595352 0.261049 0.217565
0.645248 0.259696 0.217565
0.695046 0.258607 0.217565
0.744871 0.257770 0.217565
0.794853 0.257099 0.217565
0.844884 0.256604 0.217565
0.895082 0.256170 0.217565
0.054846 0.343490 0.193089
0.130525 0.343490 0.203177
0.203551 0.343490 0.216269
0.265097 0.343490 0.217565
0.330301 0.343490 0.217565
0.387731 0.336450 0.217565
0.441805 0.330148 0.217565
0.493904 0.325035 0.217565
0.544948 0.320929 0.217565
0.595352 0.317656 0.217565
0.645248 0.315042 0.217565
0.695046 0.312926 0.217565
0.744871 0.311308 0.217565
0.794853 0.309992 0.217565
0.844884 0.308978 0.217565
0.895082 0.308145 0.217565
0.054846 0.402864 0.185381
0.130525 0.402864 0.198175
0.203551 0.402864 0.215864
0.261307 0.402864 0.217565
0.323112 0.402864 0.217565
0.386882 0.402864 0.217565
0.441805 0.394877 0.217565
0.493904 0.387699 0.217565
0.544948 0.381897 0.217565
0.595352 0.377278 0.217565
0.645248 0.373498 0.217565
0.695046 0.370499 0.217565
0.744871 0.368138 0.217565
0.794853 0.366284 0.217565
0.844884 0.364846 0.217565
0.895082 0.363638 0.217565
0.054846 0.459266 0.179420
0.130525 0.459266 0.194257
0.203551 0.459267 0.215593
0.258266 0.459267 0.217565
0.317233 0.459267 0.217565
0.378611 0.459267 0.217565
0.440782 0.459267 0.217565
0.493904 0.451188 0.217565
0.544948 0.443889 0.217565
0.595352 0.438013 0.217565
0.645248 0.433208 0.217565
0.695046 0.429398 0.217565
0.744871 0.426413 0.217565
0.794853 0.423988 0.217565
0.844884 0.422153 0.217565
0.895082 0.420647 0.217565
0.054846 0.513742 0.174764
0.130525 0.513742 0.191195
0.203551 0.513742 0.215354
0.255801 0.513742 0.217565
0.312474 0.513742 0.217565
0.371818 0.513742 0.217565
0.432207 0.513742 0.217565
0.492792 0.513742 0.217565
0.544948 0.506110 0.217565
0.595352 0.499053 0.217565
0.645248 0.493335 0.217565
0.695046 0.488764 0.217565
0.744871 0.485151 0.217565
0.794853 0.482264 0.217565
0.844884 0.480037 0.217565
0.895082 0.478221 0.217565
0.054846 0.567090 0.171069
0.130525 0.567090 0.188747
0.203551 0.567090 0.215160
0.253873 0.567090 0.217565
0.308681 0.567090 0.217565
0.366412 0.567090 0.217565
0.425362 0.567090 0.217565
0.484571 0.567090 0.217565
0.543804 0.567090 0.217565
0.595352 0.560107 0.217565
0.645248 0.553495 0.217565
0.695046 0.548201 0.217565
0.744871 0.544018 0.217565
0.794853 0.540627 0.217565
0.844884 0.538057 0.217565
0.895082 0.535969 0.217565
0.054846 0.619702 0.168132
0.130525 0.619702 0.186821
0.203551 0.619702 0.215025
0.252327 0.619702 0.217565
0.305670 0.619702 0.217565
0.362100 0.619702 0.217565
0.419760 0.619702 0.217565
0.477924 0.619702 0.217565
0.536125 0.619702 0.217565
0.594135 0.619702 0.217565
0.645248 0.613467 0.217565
0.695046 0.607472 0.217565
0.744871 0.602723 0.217565
0.794853 0.598938 0.217565
0.844884 0.596020 0.217565
0.895082 0.593614 0.217565
0.054846 0.671828 0.165779
0.130525 0.671828 0.185279
0.203551 0.671828 0.214897
0.251097 0.671828 0.217565
0.303231 0.671828 0.217565
0.358624 0.671828 0.217565
0.415328 0.671828 0.217565
0.472520 0.671828 0.217565
0.529878 0.671828 0.217565
0.587085 0.671828 0.217565
0.643974 0.671828 0.217565
0.695046 0.666460 0.217565
0.744871 0.661167 0.217565
0.794853 0.656983 0.217565
0.844884 0.653699 0.217565
0.895082 0.651004 0.217565
0.054846 0.723851 0.163920
0.130525 0.723851 0.184085
0.203551 0.723850 0.214808
0.250159 0.723851 0.217565
0.301320 0.723851 0.217565
0.355811 0.723851 0.217565
0.411743 0.723851 0.217565
0.468253 0.723851 0.217565
0.524882 0.723851 0.217565
0.581410 0.723851 0.217565
0.637671 0.723851 0.217565
0.693795 0.723851 0.217565
0.744871 0.719418 0.217565
0.794853 0.714778 0.217565
0.844884 0.711186 0.217565
0.895082 0.708261 0.217565
0.054846 0.775817 0.162421
0.130525 0.775817 0.183102
0.203551 0.775818 0.214700
0.249404 0.775818 0.217565
0.299756 0.775818 0.217565
0.353580 0.775818 0.217565
0.408930 0.775818 0.217565
0.464800 0.775818 0.217565
0.520871 0.775818 0.217565
0.576876 0.775818 0.217565
0.632617 0.775818 0.217565
0.688285 0.775818 0.217565
0.743396 0.775818 0.217565
0.794853 0.772208 0.217565
0.844884 0.768261 0.217565
0.895082 0.765139 0.217565
0.054846 0.828104 0.161264
0.130525 0.828104 0.182351
0.203551 0.828104 0.214622
0.248833 0.828104 0.217565
0.298602 0.828104 0.217565
0.351910 0.828104 0.217565
0.406708 0.828104 0.217565
0.462176 0.828104 0.217565
0.517803 0.828104 0.217565
0.573377 0.828104 0.217565
0.628751 0.828104 0.217565
0.684010 0.828104 0.217565
0.738752 0.828104 0.217565
0.793569 0.828104 0.217565
0.844884 0.825287 0.217565
0.895082 0.821860 0.217565
0.054846 0.880463 0.160370
0.130525 0.880463 0.181751
0.203551 0.880463 0.214542
0.248402 0.880463 0.217565
0.297699 0.880463 0.217565
0.350584 0.880463 0.217565
0.404988 0.880463 0.217565
0.460135 0.880463 0.217565
0.515409 0.880463 0.217565
0.570692 0.880463 0.217565
0.625751 0.880463 0.217565
0.680690 0.880463 0.217565
0.735185 0.880463 0.217565
0.789636 0.880463 0.217565
0.843582 0.880463 0.217565
0.895082 0.878087 0.217565
0.054846 0.932762 0.159629
0.130525 0.932762 0.181293
0.203551 0.932762 0.214496
0.248039 0.932762 0.217565
0.296952 0.932762 0.217565
0.349490 0.932762 0.217565
0.403585 0.932762 0.217565
0.458385 0.932762 0.217565
0.513426 0.932762 0.217565
0.568430 0.932762 0.217565
0.623169 0.932762 0.217565
0.677880 0.932762 0.217565
0.732093 0.932762 0.217565
0.786371 0.932762 0.217565
0.840034 0.932762 0.217565
0.893665 0.932762 0.217565
0.054846 0.054846 0.290168
0.105184 0.054846 0.290168
0.186100 0.054846 0.290168
0.266479 0.054846 0.290168
0.330930 0.054846 0.278279
0.387731 0.054846 0.266652
0.441805 0.054846 0.257733
0.493904 0.054846 0.250688
0.544948 0.054846 0.245139
0.595352 0.054846 0.240758
0.645248 0.054846 0.237223
0.695046 0.054846 0.234404
0.744871 0.054846 0.232181
0.794853 0.054846 0.230396
0.844884 0.054846 0.229015
0.895082 0.054846 0.227909
0.054846 0.109018 0.290168
0.130525 0.133116 0.290168
0.195044 0.134076 0.290168
0.267992 0.134076 0.290168
0.330930 0.134076 0.281128
0.387731 0.134076 0.272209
0.441805 0.134076 0.265163
0.493904 0.134076 0.259503
0.544948 0.134076 0.255026
0.595352 0.134076 0.251489
0.645248 0.134076 0.248624
0.695046 0.134076 0.246355
0.744871 0.134076 0.244549
0.794853 0.134076 0.243109
0.844884 0.134076 0.242005
0.895082 0.134076 0.241091
0.054846 0.193998 0.290168
0.130525 0.201618 0.290168
0.203551 0.209932 0.290168
0.269248 0.210386 0.290168
0.330930 0.210386 0.285325
0.387731 0.210386 0.280551
0.441805 0.210386 0.276742
0.493904 0.210386 0.273659
0.544948 0.210386 0.271211
0.595353 0.210386 0.269283
0.645248 0.210386 0.267707
0.695046 0.210386 0.266481
0.744871 0.210386 0.265490
0.794853 0.210386 0.264694
0.844884 0.210386 0.264112
0.895082 0.210386 0.263620
0.054846 0.278075 0.290168
0.130525 0.278782 0.290168
0.203551 0.279401 0.290168
0.270021 0.279827 0.290168
0.330930 0.279894 0.289991
0.387731 0.279894 0.289757
0.441805 0.279894 0.289595
0.493904 0.279894 0.289439
0.544948 0.279894 0.289295
0.595352 0.279894 0.289203
0.645248 0.279894 0.289112
0.695046 0.279894 0.289034
0.744824 0.279894 0.288974
0.794853 0.279894 0.288896
0.844884 0.279894 0.288861
0.895082 0.279894 0.288796
0.054846 0.343490 0.276763
0.130525 0.343490 0.279997
0.203551 0.343490 0.284639
0.270021 0.343490 0.289682
0.330738 0.343490 0.290168
0.387731 0.340176 0.290168
0.441805 0.337195 0.290168
0.493904 0.334748 0.290168
0.544948 0.332838 0.290168
0.595352 0.331279 0.290168
0.645248 0.330032 0.290168
0.695046 0.329042 0.290168
0.744824 0.328296 0.290168
0.794853 0.327691 0.290168
0.844884 0.327227 0.290168
0.895082 0.326864 0.290168
0.054846 0.402864 0.265426
0.130525 0.402864 0.271110
0.203551 0.402864 0.279729
0.270021 0.402864 0.289239
0.327519 0.402864 0.290168
0.387318 0.402864 0.290168
0.441805 0.397755 0.290168
0.493904 0.393118 0.290168
0.544948 0.389347 0.290168
0.595352 0.386399 0.290168
0.645248 0.383979 0.290168
0.695046 0.382037 0.290168
0.744824 0.380539 0.290168
0.794853 0.379324 0.290168
0.844884 0.378427 0.290168
0.895082 0.377702 0.290168
0.054846 0.459266 0.256669
0.130525 0.459266 0.264054
0.203551 0.459267 0.275795
0.270021 0.459266 0.288877
0.324826 0.459266 0.290168
0.382062 0.459266 0.290168
0.441103 0.459266 0.290168
0.493904 0.453393 0.290168
0.544948 0.448073 0.290168
0.595352 0.443830 0.290168
0.645248 0.440382 0.290168
0.695046 0.437584 0.290168
0.744824 0.435461 0.290168
0.794853 0.433700 0.290168
0.844884 0.432393 0.290168
0.895082 0.431281 0.290168
0.054846 0.513742 0.249801
0.130525 0.513742 0.258458
0.203551 0.513742 0.272649
0.270021 0.513742 0.288593
0.322671 0.513742 0.290168
0.377817 0.513742 0.290168
0.434990 0.513742 0.290168
