lut/6502ef2b-aa45-4da5-bf32-d4f52f8c088e.cube
TITLE "Moody Cyans & Greens"
LUT_3D_SIZE 9
0 0 0
0.0288396 0 0
0.100069 0 0
0.271 0 0
0.449897 0 0
0.638514 0 0
0.82855 0 0
1 0 0
1 0 0
0 0.00218204 0
0.0423285 0.0544594 0
0.171344 0.0617227 0
0.322057 0.0679789 0
0.49305 0.0741894 0
0.677134 0.0848249 0
0.864347 0.10248 0
1 0.131579 0
1 0.168063 0
0 0.0872358 0
0.0478218 0.177386 0
0.224567 0.231205 0
0.378683 0.241398 0
0.549615 0.254185 0
0.730343 0.27068 0
0.912139 0.293629 0
1 0.320775 0
1 0.350881 0
0 0.190143 0
0.0178225 0.295247 0
0.24625 0.394186 0
0.433783 0.433722 0
0.604532 0.447486 0
0.781064 0.465751 0
0.959747 0.489158 0
1 0.514549 0
1 0.541466 0
0 0.29633 0
0 0.408621 0
0.20473 0.530495 0
0.451072 0.62179 0
0.64892 0.657191 0
0.827451 0.673655 0
1 0.69366 0
1 0.714702 0
1 0.734752 0
0 0.381445 0
0 0.509514 0
0.12549 0.651576 0
0.424949 0.77995 0
0.674067 0.855589 0
0.872023 0.884749 0
1 0.897978 0
1 0.912688 0
1 0.928664 0
0 0.452522 0
0 0.595239 0
0.0177462 0.762142 0
0.361807 0.916182 0
0.656382 1 0
0.889357 1 0
1 1 0
1 1 0
1 1 0
0 0.500481 0
0 0.667475 0
0 0.869429 0
0.277577 1 0
0.61619 1 0
0.887114 1 0
1 1 0
1 1 0
1 1 0
0 0.549996 0
0 0.740139 0
0 0.990814 0
0.191028 1 0
0.565423 1 0
0.866056 1 0
1 1 0
1 1 0
1 1 0
0 0 0.0297551
0.0421454 0 0.0241703
0.117784 0 0.00701915
0.284886 0 0.00619516
0.46334 0 0
0.652323 0 0
0.840803 0 0
1 0 0
1 0 0
0 0.0400549 0
0.0555886 0.0581521 0.0120089
0.182834 0.0634928 0.0146944
0.333883 0.0689555 0.0145876
0.505074 0.0756085 0.0081178
0.68954 0.0862745 0
0.877592 0.104753 0
1 0.133684 0
1 0.169833 0
0 0.117098 0
0.0538949 0.170214 0
0.237263 0.233219 0.0265812
0.391501 0.242924 0.0244907
0.562722 0.255161 0.0136568
0.743496 0.271687 0
0.925811 0.294575 0
1 0.321569 0
1 0.351141 0
0 0.214008 0
0.022446 0.282856 0
0.255924 0.391165 0
0.447562 0.435233 0.00906386
0.618112 0.448417 0
0.794858 0.466499 0
0.974289 0.489448 0
1 0.514397 0
1 0.540444 0
0 0.317235 0
0 0.393805 0
0.203693 0.514092 0
0.463493 0.620447 0
0.663432 0.657572 0
0.842268 0.673442 0
1 0.69279 0
1 0.712612 0
1 0.73167 0
0 0.411749 0
0 0.495888 0
0.118715 0.625635 0
0.429389 0.767391 0
0.688441 0.853758 0
0.886549 0.882521 0
1 0.894972 0
1 0.908919 0
1 0.924392 0
0 0.492012 0
0 0.583673 0
0.00654612 0.728145 0
0.35642 0.890684 0
0.665782 1 0
0.905257 1 0
1 1 0
1 1 0
1 1 0
0 0.54464 0
0 0.657755 0
0 0.829755 0
0.266804 1 0
0.620401 1 0
0.901778 1 0
1 1 0
1 1 0
1 1 0
0 0.590005 0
0 0.731075 0
0 0.947417 0
0.177569 1 0
0.564126 1 0
0.877256 1 0
1 1 0
1 1 0
1 1 0
0 0 0.143236
0 0 0.0549172
0.14197 0 0.10486
0.303639 0 0.135256
0.480613 0 0.155764
0.669474 0 0.161471
0.860838 0 0.152972
1 0 0.131777
1 0 0.091722
0 0.0576944 0.121828
0.0765698 0.0624857 0.12752
0.200946 0.0664683 0.146029
0.354513 0.0646983 0.160952
0.526574 0.0642405 0.167514
0.712276 0.0643778 0.163973
0.90132 0.0713359 0.152239
1 0.133883 0.170428
1 0.171267 0.163348
0.0034638 0.22211 0.18024
0.101946 0.214878 0.165515
0.256184 0.234897 0.187152
0.410437 0.243946 0.19382
0.581323 0.25594 0.196399
0.7626 0.27216 0.19675
0.945296 0.294667 0.196155
1 0.32105 0.190112
1 0.350057 0.177035
0 0.336263 0.128511
0.0703746 0.310857 0.108537
0.252186 0.37496 0.154055
0.466529 0.43563 0.213535
0.63772 0.448234 0.214343
0.814893 0.465476 0.213107
0.995193 0.488121 0.210025
1 0.511986 0.199924
1 0.537255 0.181628
0 0.428824 0.0608377
0.0132753 0.424216 0.0467994
0.184649 0.48249 0.0767987
0.473671 0.61146 0.191821
0.684901 0.656046 0.221012
0.864225 0.671183 0.218784
1 0.689296 0.21239
1 0.708644 0.198062
1 0.726375 0.164599
0 0.542214 0
0 0.541741 0
0.118776 0.595956 0.0107576
0.413596 0.732052 0.112581
0.708309 0.847272 0.203784
0.910475 0.877562 0.206317
1 0.889815 0.190936
1 0.902907 0.163867
1 0.917998 0.118776
0 0.650538 0
0 0.645716 0
0.0192264 0.701305 0
0.33579 0.8374 0.010605
0.670329 0.989013 0.116686
0.93315 1 0.141726
1 1 0.11519
1 1 0.0739147
1 1 0.0120851
0 0.736217 0
0 0.72929 0
0 0.799969 0
0.240482 0.946822 0
0.616053 1 0
0.925399 1 0.0219425
1 1 0
1 1 0
1 1 0
0 0.787381 0
0 0.799115 0
0 0.901305 0
0.147127 1 0
0.55198 1 0
0.892882 1 0
1 1 0
1 1 0
1 1 0
0 0 0.113298
0.041474 0 0.181949
0.171511 0 0.230137
0.325567 0 0.273442
0.500465 0 0.310994
0.687892 0 0.334874
0.878798 0 0.348775
1 0 0.357046
1 0 0.360678
0 0.062562 0.24921
0.10277 0.0698253 0.263157
0.220752 0.0774853 0.286687
0.368658 0.0818189 0.31487
0.543908 0.0741588 0.339712
0.730312 0.0743877 0.354894
0.920043 0.0831922 0.367132
1 0.101137 0.375601
1 0.124361 0.377203
0.0304265 0.228061 0.340368
0.150286 0.230686 0.341772
0.276478 0.23888 0.347524
0.427405 0.249134 0.360601
0.606973 0.25069 0.371206
0.789578 0.260441 0.377615
0.973358 0.276219 0.38291
1 0.295048 0.383047
1 0.334722 0.395132
0.0763867 0.422507 0.40206
0.199405 0.424643 0.401038
0.316915 0.424063 0.389853
0.486641 0.437003 0.397498
0.65684 0.449332 0.404944
0.833219 0.466361 0.412161
1 0.488075 0.419913
1 0.511254 0.424506
1 0.535271 0.424964
0.00630198 0.59295 0.397009
0.114763 0.570474 0.362707
0.207263 0.532677 0.298329
0.473213 0.596613 0.370443
0.703685 0.655665 0.434134
0.882811 0.669917 0.43772
1 0.686885 0.441001
1 0.705165 0.440452
1 0.721477 0.43064
0 0.737148 0.347127
0 0.692317 0.294759
0.187488 0.654536 0.267964
0.390066 0.705379 0.286793
0.721233 0.840314 0.429145
0.929015 0.873976 0.455573
1 0.885115 0.451118
1 0.897459 0.443427
1 0.912322 0.431983
0 0.871885 0.265675
0 0.793957 0.237888
0.102556 0.765301 0.195773
0.304585 0.80975 0.200275
0.65391 0.958236 0.337179
0.954238 1 0.438758
1 1 0.445289
1 1 0.435431
1 1 0.421164
0 0.934569 0.183825
0 0.89015 0.137865
0.013901 0.874556 0.110933
0.226322 0.920272 0.109728
0.574609 1 0.228351
0.930037 1 0.367239
1 1 0.412146
1 1 0.408026
1 1 0.390967
0 1 0.0464332
0 0.985611 0
0 0.979889 0
0.159518 1 0.0161898
0.502892 1 0.116823
0.87512 1 0.255406
1 1 0.347295
1 1 0.338384
1 1 0.330831
0 0 0.293141
0.0902266 0 0.32697
0.206149 0 0.374655
0.351659 0 0.426108
0.523507 0 0.469627
0.708324 0 0.503044
0.897978 0 0.53048
1 0 0.553994
1 0 0.574563
0.0246433 0.0724956 0.397864
0.132067 0.0801251 0.41593
0.249348 0.093019 0.437522
0.392767 0.0926375 0.472847
0.564492 0.0846876 0.506447
0.748638 0.0919661 0.532158
0.938415 0.0999924 0.558282
1 0.117708 0.581064
1 0.140291 0.598444
0.0563363 0.231357 0.496468
0.175418 0.236789 0.500847
0.300679 0.246403 0.511009
0.448844 0.258579 0.525719
0.615198 0.271687 0.546715
0.802915 0.27332 0.570031
0.988388 0.286809 0.588571
1 0.304356 0.602914
1 0.323857 0.612741
0.100725 0.423804 0.577707
0.221942 0.426719 0.578332
0.352438 0.430915 0.576501
0.506004 0.442329 0.577203
0.671153 0.456489 0.589364
0.861524 0.461051 0.60264
1 0.475776 0.611719
1 0.491936 0.616648
1 0.508644 0.616846
0.137484 0.63827 0.64239
0.259403 0.64242 0.644266
0.395865 0.644465 0.641428
0.548562 0.647974 0.633051
0.723949 0.657038 0.632105
0.901579 0.67071 0.640391
1 0.687282 0.648127
1 0.704479 0.653056
1 0.719936 0.65214
0.0353246 0.847379 0.68368
0.195834 0.839902 0.671061
0.328527 0.820539 0.638361
0.424933 0.77557 0.551583
0.730526 0.828611 0.626795
0.94725 0.872236 0.671138
1 0.882765 0.671687
1 0.894301 0.670863
1 0.908904 0.668666
0 1 0.675624
0.0518349 0.993271 0.635676
0.196353 0.938979 0.558434
0.363867 0.88072 0.483284
0.637079 0.933471 0.525628
0.972412 1 0.670192
1 1 0.687785
1 1 0.684489
1 1 0.679469
0 1 0.618387
0 1 0.558556
0.0440223 1 0.449516
0.316793 0.99324 0.416724
0.553292 1 0.430228
0.923735 1 0.588403
1 1 0.683223
1 1 0.688212
1 1 0.68101
0 1 0.521492
0 1 0.445014
0.0695811 1 0.382742
0.223957 1 0.314473
0.475532 1 0.333288
0.846632 1 0.477714
1 1 0.630167
1 1 0.669215
1 1 0.671122
0.0313878 0 0.466392
0.133516 0 0.497475
0.244953 0 0.537041
0.383413 0 0.586923
0.548455 0 0.633494
0.731914 0 0.672114
0.918364 0 0.706416
1 0 0.740368
1 0 0.77113
0.0568246 0.0856641 0.563912
0.165225 0.0928206 0.582208
0.284703 0.114 0.599771
0.422141 0.113451 0.635035
0.587335 0.112856 0.671885
0.771725 0.107561 0.70695
0.957458 0.128664 0.739895
1 0.140764 0.771969
1 0.160403 0.798444
0.0903944 0.239231 0.660548
0.204746 0.246433 0.66804
0.328008 0.256275 0.679988
0.476677 0.27393 0.690501
0.640253 0.279393 0.720363
0.822309 0.280644 0.75227
1 0.305913 0.776242
1 0.319081 0.800977
1 0.336736 0.82031
0.133333 0.426444 0.747509
0.246571 0.431266 0.74905
0.37499 0.438117 0.750408
0.527901 0.449744 0.756786
0.692012 0.4654 0.768261
0.866438 0.478401 0.793256
1 0.492134 0.812573
1 0.503685 0.827771
1 0.517586 0.836942
0.142107 0.640528 0.829648
0.267659 0.644587 0.831449
0.406668 0.646387 0.828656
0.569467 0.649836 0.822187
0.741924 0.661509 0.823316
0.910369 0.681743 0.82826
1 0.68101 0.842008
1 0.689265 0.844327
1 0.697627 0.841459
0.176715 0.863371 0.901381
0.306722 0.866896 0.903166
0.454109 0.865675 0.89807
0.623636 0.862806 0.888106
0.794507 0.86392 0.875822
0.966949 0.872892 0.870283
1 0.883192 0.875441
1 0.895048 0.878279
1 0.909453 0.880858
0.0293126 1 0.956252
0.229587 1 0.9449
0.401205 1 0.927871
0.561807 1 0.888304
0.664607 1 0.791135
0.993973 1 0.8822
1 1 0.90193
1 1 0.902251
1 1 0.902174
0 1 0.960784
0.0636454 1 0.928649
0.280217 1 0.880552
0.424094 1 0.789914
0.60177 1 0.708568
0.91574 1 0.781415
1 1 0.913237
1 1 0.921202
1 1 0.918593
0 1 0.927291
0 1 0.880034
0.124743 1 0.787396
0.271366 1 0.653803
0.567437 1 0.641703
0.830564 1 0.678187
1 1 0.851774
1 1 0.923217
1 1 0.92874
0.0745861 0 0.654032
0.173938 0 0.681102
0.287877 0.0112306 0.710475
0.420157 0 0.753979
0.579232 0 0.797665
0.756756 0 0.837674
0.942519 0 0.878157
1 0 0.916411
1 0.00856031 0.955657
0.0974746 0.100893 0.739437
0.200778 0.107912 0.75613
0.31516 0.11751 0.777737
0.457145 0.138445 0.800336
0.617197 0.138781 0.836118
0.794888 0.142428 0.874495
0.981216 0.146365 0.915084
1 0.17763 0.949813
1 0.187716 0.984604
0.132006 0.251164 0.828077
0.236957 0.2589 0.836851
0.35845 0.269154 0.849439
0.509117 0.292958 0.855787
0.666545 0.299443 0.885664
0.839673 0.307805 0.919341
1 0.314855 0.955077
1 0.344656 0.982055
1 0.355184 1
0.166003 0.434272 0.914473
0.272282 0.44062 0.917678
0.398688 0.448966 0.921996
0.551095 0.460822 0.929763
0.715938 0.482094 0.935302
0.886656 0.491646 0.966415
1 0.495735 0.999847
1 0.524193 1
1 0.531991 1
0.166979 0.643366 1
0.28896 0.648051 1
0.426932 0.651362 1
0.589624 0.657786 0.99942
0.762066 0.669657 1
0.93518 0.686351 1
1 0.69546 1
1 0.705943 1
1 0.70898 1
0.151553 0.867781 1
0.297581 0.870268 1
0.451118 0.868666 1
0.625635 0.865492 1
0.805524 0.866072 1
0.983276 0.876814 1
1 0.892546 1
1 0.888136 1
1 0.892592 1
0.142443 1 1
0.312123 1 1
0.480583 1 1
0.669947 1 1
0.864683 1 1
1 1 1
1 1 1
1 1 1
1 1 1
0.00872816 1 1
0.249393 1 1
0.445853 1 1
0.643977 1 1
0.817639 1 1
0.916106 1 1
1 1 1
1 1 1
1 1 1
0 1 1
0.0791791 1 1
0.342809 1 1
0.53872 1 1
0.674296 1 1
0.865064 1 0.953597
1 1 1
1 1 1
1 1 1
0.121462 0 0.845197
0.214618 0.00146487 0.8663
0.321813 0.00717174 0.893706
0.460319 0.0356146 0.921874
0.614404 0.0247654 0.961898
0.786542 0.0189212 1
0.967575 0.025864 1
1 0.0325017 1
1 0.0897078 1
0.144961 0.118761 0.915892
0.238117 0.125765 0.93051
0.35053 0.135668 0.950057
0.496086 0.167056 0.966476
0.651499 0.16849 1
0.823285 0.174228 1
1 0.185824 1
1 0.193347 1
1 0.232029 1
0.176425 0.266361 0.996597
0.271534 0.274296 1
0.390112 0.284642 1
0.542702 0.312078 1
0.697032 0.322148 1
0.864546 0.331716 1
1 0.344793 1
1 0.352605 1
1 0.386816 1
0.198077 0.446113 1
0.299229 0.45304 1
0.423774 0.461936 1
0.576333 0.474174 1
0.744244 0.500984 1
0.909712 0.511391 1
1 0.523064 1
1 0.526833 1
1 0.556191 1
0.192935 0.649363 1
0.311345 0.655497 1
0.448051 0.660273 1
0.610346 0.667704 1
0.783749 0.679652 1
0.957549 0.702159 1
1 0.708782 1
1 0.70396 1
1 0.729717 1
0.177935 0.868849 1
0.318837 0.871489 1
0.47126 0.870542 1
0.643687 0.868482 1
0.824186 0.871962 1
1 0.88191 1
1 0.896269 1
1 0.900694 1
1 0.91165 1
0.124453 1 1
0.306416 1 1
0.476387 1 1
0.665141 1 1
0.859312 1 1
1 1 1
1 1 1
1 1 1
1 1 1
0.0338445 1 1
0.273884 1 1
0.477043 1 1
0.692485 1 1
0.906325 1 1
1 1 1
1 1 1
1 1 1
1 1 1
0.0277256 1 1
0.288685 1 1
0.492592 1 1
0.71104 1 1
0.916869 1 1
1 1 1
1 1 1
1 1 1
1 1 1
0.173281 0.0150912 1
0.255421 0.0204166 1
0.360922 0.0292668 1
0.5037 0.0830091 1
0.653346 0.0768749 1
0.820554 0.0768444 1
0.996796 0.0880751 1
1 0.104768 1
1 0.113664 1
0.1935 0.139269 1
0.277485 0.146349 1
0.388174 0.156512 1
0.538399 0.199573 1
0.688869 0.202258 1
0.855726 0.209339 1
1 0.221729 1
1 0.235416 1
1 0.243488 1
0.220035 0.284138 1
0.306798 0.292195 1
0.422568 0.302464 1
0.568246 0.316518 1
0.730495 0.348348 1
0.893751 0.358099 1
1 0.371756 1
1 0.384833 1
1 0.391775 1
0.23032 0.460212 1
0.327092 0.468147 1
0.449424 0.477119 1
0.601389 0.489448 1
0.77467 0.520638 1
0.937133 0.532494 1
1 0.544549 1
1 0.554376 1
1 0.55494 1
0.220523 0.658213 1
0.335439 0.665858 1
0.470054 0.67158 1
0.632654 0.679561 1
0.806638 0.690883 1
0.98439 0.718212 1
1 0.725902 1
1 0.729763 1
1 0.725002 1
0.205158 0.872297 1
0.340612 0.875395 1
0.489738 0.875349 1
0.662531 0.874784 1
0.843519 0.879377 1
1 0.889433 1
1 0.910582 1
1 0.913771 1
1 0.904982 1
0.15172 1 1
0.32842 1 1
0.496284 1 1
0.683711 1 1
0.879377 1 1
1 1 1
1 1 1
1 1 1
1 1 1
0.0952621 1 1
0.318822 1 1
0.505455 1 1
0.710414 1 1
0.916823 1 1
1 1 1
1 1 1
1 1 1
1 1 1
0.0207675 1 1
0.291722 1 1
0.498894 1 1
0.724697 1 1
0.941711 1 1
1 1 1
1 1 1
1 1 1
1 1 1
