lut/6502ef2b-aa45-4da5-bf32-d4f52f8c088e.cube
TITLE "Moody Cyans & Greens"
LUT_3D_SIZE 33
0 0 0
0 0 0
0 0 0
0 0 0
0.0288396 0 0
0.0643015 0 0
0.00250248 0 0
0.0552987 0 0
0.100069 0 0
0.142885 0 0
0.185107 0 0
0.227512 0 0
0.271 0 0
0.314611 0 0
0.358801 0 0
0.40383 0 0
0.449897 0 0
0.496681 0 0
0.543679 0 0
0.591089 0 0
0.638514 0 0
0.686091 0 0
0.733639 0 0
0.781094 0 0
0.82855 0 0
0.875868 0 0
0.923827 0 0
0.973037 0 0
1 0 0
1 0 0
1 0 0
1 0 0
1 0 0
0.00259403 0 0
0.0118715 0 0.013611
0 0 0
0.00975052 0 0
0.00427253 0 0.00874342
0.013138 0 0
0.0498207 0 0
0.0874189 0 0
0.125277 0 0
0.16376 0 0
0.203265 0 0
0.243915 0 0
0.285679 0 0
0.328084 0 0
0.371511 0 0
0.415824 0 0
0.461463 0 0
0.507362 0 0
0.554055 0 0
0.600885 0 0
0.648157 0 0
0.695369 0 0
0.742382 0 0
0.789639 0 0
0.836957 0 0
0.884077 0 0
0.932097 0 0
0.981186 0 0
1 0 0
1 0 0
1 0 0
1 0.00918593 0
1 0.0194247 0
0.130907 0 0.199649
0.0219425 0 0.0130922
0.0281682 0 0.0287022
0.00656138 0.000320439 0.0111238
0.0096437 0.0108186 0
0.039765 0.0108339 0
0.0733196 0.010544 0
0.107958 0.0102693 0
0.143618 0.00956741 0
0.180392 0.00881972 0
0.218647 0.00799573 0
0.257984 0.00730907 0
0.298497 0.00679026 0
0.340291 0.00640879 0
0.383169 0.00601205 0
0.427604 0.00268559 0
0.472221 0.00196841 0
0.517678 0.00151064 0
0.563882 0.0011902 0
0.610605 0.00125124 0
0.657435 0.00163272 0
0.704158 0.00247196 0
0.751293 0.00392157 0
0.79852 0.00582895 0
0.845243 0.00874342 0
0.892607 0.0126955 0
0.940307 0.0179294 0
0.989563 0.0240177 0
1 0.0316625 0
1 0.0402075 0
1 0.0501411 0
1 0.0611734 0
1 0.0735332 0
0.0520638 0 0.0391546
0.0535744 0 0.0539254
0.032929 0.00291447 0.0448615
0 0.0196689 0
0.0265507 0.0286259 0
0.057496 0.0295262 0
0.0895857 0.0302281 0
0.122942 0.030808 0
0.157443 0.0314183 0
0.193454 0.0319371 0
0.230671 0.0325628 0
0.269474 0.0331426 0
0.309651 0.0336919 0
0.350942 0.0342412 0
0.393942 0.03299 0
0.437446 0.0333867 0
0.481727 0.0339818 0
0.527047 0.0347906 0
0.572992 0.0358282 0
0.619318 0.0369116 0
0.666209 0.0386969 0
0.7131 0.04094 0
0.759777 0.0435035 0
0.806836 0.0472114 0
0.853635 0.0517433 0
0.900862 0.057435 0
0.949004 0.0644846 0
0.998734 0.0719463 0
1 0.0813306 0
1 0.0906996 0
1 0.100908 0
1 0.111299 0
1 0.122271 0
0 0.00218204 0
0 0.00970474 0
0 0.024094 0
0.00334173 0.0422522 0
0.0423285 0.0544594 0
0.0730907 0.0568704 0
0.104524 0.0584573 0
0.137407 0.0601511 0
0.171344 0.0617227 0
0.206439 0.0632639 0
0.243503 0.0647593 0
0.282002 0.0664836 0
0.322057 0.0679789 0
0.363424 0.0690471 0
0.405936 0.070573 0
0.448936 0.0723888 0
0.49305 0.0741894 0
0.538262 0.0764019 0
0.583978 0.078996 0
0.630365 0.0817578 0
0.677134 0.0848249 0
0.723949 0.0880751 0
0.770703 0.0922103 0
0.817456 0.0969863 0
0.864347 0.10248 0
0.911711 0.109178 0
0.959609 0.116258 0
1 0.123568 0
1 0.131579 0
1 0.140246 0
1 0.149508 0
1 0.158877 0
1 0.168063 0
0 0.0197452 0
0 0.0315099 0
0 0.0491188 0
0.0081178 0.0702373 0
0.0526894 0.0875868 0
0.0876478 0.0950484 0
0.118578 0.0975357 0
0.150927 0.0998398 0
0.184726 0.102174 0
0.220005 0.104463 0
0.257038 0.106447 0
0.295644 0.108659 0
0.335744 0.110811 0
0.377035 0.113024 0
0.41915 0.115328 0
0.462135 0.117556 0
0.506355 0.120195 0
0.551476 0.122698 0
0.596979 0.125673 0
0.643259 0.128801 0
0.689647 0.132052 0
0.736492 0.13608 0
0.782757 0.14052 0
0.829206 0.145647 0
0.876036 0.151568 0
0.923186 0.157916 0
0.971069 0.164691 0
1 0.171801 0
1 0.179339 0
1 0.187472 0
1 0.195911 0
1 0.204593 0
1 0.213428 0
0 0.0419776 0
0 0.0556039 0
0 0.075227 0
0.00622568 0.0984207 0
0.0545815 0.119463 0
0.0962081 0.13312 0
0.131395 0.139467 0
0.164065 0.142153 0
0.198154 0.144488 0
0.233692 0.146609 0
0.270985 0.148943 0
0.309865 0.151308 0
0.350088 0.153719 0
0.390997 0.156374 0
0.433021 0.158801 0
0.476234 0.161608 0
0.520378 0.164462 0
0.565225 0.167391 0
0.611063 0.170687 0
0.65687 0.174029 0
0.703212 0.178058 0
0.749111 0.182422 0
0.795575 0.187564 0
0.841581 0.192996 0
0.887984 0.198947 0
0.93489 0.205386 0
0.983459 0.212253 0
1 0.219333 0
1 0.226719 0
1 0.234577 0
1 0.242481 0
1 0.250462 0
1 0.258717 0
0 0.064271 0
0 0.079408 0
0 0.100633 0
0.000640879 0.1252 0
0.0519265 0.148699 0
0.0992294 0.16733 0
0.140642 0.179217 0
0.177111 0.184894 0
0.211612 0.187228 0
0.247471 0.189487 0
0.285145 0.191928 0
0.324102 0.194507 0
0.364263 0.197208 0
0.405447 0.19968 0
0.447547 0.202716 0
0.490791 0.205798 0
0.534737 0.208835 0
0.579843 0.212192 0
0.624964 0.215717 0
0.671153 0.219593 0
0.716564 0.223972 0
0.76257 0.228885 0
0.808164 0.23418 0
0.853986 0.239872 0
0.900252 0.246326 0
0.946777 0.252872 0
0.994842 0.259342 0
1 0.266361 0
1 0.273594 0
1 0.28127 0
1 0.288792 0
1 0.296574 0
1 0.304448 0
0 0.0872358 0
0 0.104387 0
0 0.127382 0
0 0.152712 0
0.0478218 0.177386 0
0.098436 0.199115 0
0.145068 0.215534 0
0.186816 0.226123 0
0.224567 0.231205 0
0.261112 0.233677 0
0.299168 0.236194 0
0.338415 0.238865 0
0.378683 0.241398 0
0.419837 0.24448 0
0.462242 0.247639 0
0.505379 0.250706 0
0.549615 0.254185 0
0.594278 0.257816 0
0.639628 0.261646 0
0.684871 0.26598 0
0.730343 0.27068 0
0.775586 0.275685 0
0.820798 0.281621 0
0.866377 0.287465 0
0.912139 0.293629 0
0.958343 0.300298 0
1 0.306889 0
1 0.313848 0
1 0.320775 0
1 0.328023 0
1 0.335454 0
1 0.343084 0
1 0.350881 0
0 0.11136 0
0 0.130266 0
0 0.155108 0
0 0.180529 0
0.0417487 0.205798 0
0.0946212 0.229694 0
0.145418 0.249989 0
0.192477 0.265049 0
0.235157 0.274678 0
0.27451 0.279469 0
0.312978 0.282048 0
0.352193 0.284581 0
0.393057 0.287434 0
0.434562 0.290578 0
0.476829 0.293645 0
0.520165 0.297139 0
0.56437 0.300786 0
0.608698 0.30454 0
0.653513 0.308629 0
0.698497 0.313268 0
0.743236 0.318151 0
0.788296 0.323674 0
0.833127 0.329305 0
0.878294 0.335256 0
0.923934 0.341726 0
0.969741 0.348226 0
1 0.354559 0
1 0.361334 0
1 0.368521 0
1 0.375616 0
1 0.382879 0
1 0.390234 0
1 0.397879 0
0 0.136492 0
0 0.157259 0
0 0.183749 0
0 0.20914 0
0.0343328 0.234821 0
0.089128 0.260273 0
0.14313 0.283391 0
0.194781 0.302388 0
0.242069 0.316197 0
0.28571 0.324834 0
0.326589 0.329229 0
0.366461 0.332021 0
0.407248 0.334905 0
0.448753 0.337911 0
0.491203 0.341344 0
0.534478 0.344625 0
0.578195 0.348562 0
0.622599 0.352438 0
0.667018 0.356863 0
0.711528 0.36144 0
0.756191 0.366659 0
0.800504 0.37203 0
0.845396 0.377859 0
0.89012 0.383841 0
0.935363 0.390112 0
0.981384 0.396536 0
1 0.403082 0
1 0.409751 0
1 0.416571 0
1 0.423606 0
1 0.430808 0
1 0.438041 0
1 0.445335 0
0 0.162814 0
0 0.185489 0
0 0.21323 0
0 0.238422 0
0.026154 0.264469 0
0.0823835 0.291005 0
0.138918 0.316228 0
0.194034 0.338323 0
0.245808 0.355917 0
0.293721 0.368612 0
0.338598 0.376745 0
0.37995 0.380743 0
0.420935 0.383719 0
0.462699 0.386923 0
0.504829 0.390158 0
0.548058 0.39379 0
0.591562 0.397436 0
0.635752 0.401602 0
0.679942 0.405829 0
0.724102 0.410742 0
0.768536 0.41561 0
0.812848 0.421256 0
0.857359 0.426947 0
0.902174 0.432868 0
0.947875 0.439261 0
0.994324 0.445563 0
1 0.451942 0
1 0.458488 0
1 0.46537 0
1 0.472175 0
1 0.479088 0
1 0.486061 0
1 0.493126 0
0 0.190143 0
0 0.215442 0
0 0.24445 0
0 0.269047 0
0.0178225 0.295247 0
0.0749371 0.322469 0
0.133822 0.34931 0
0.191302 0.373693 0
0.24625 0.394186 0
0.298131 0.410452 0
0.346441 0.422171 0
0.391608 0.429755 0
0.433783 0.433722 0
0.475425 0.436957 0
0.517891 0.440208 0
0.560876 0.443656 0
0.604532 0.447486 0
0.64831 0.451392 0
0.692531 0.455894 0
0.736446 0.460609 0
0.781064 0.465751 0
0.825269 0.471107 0
0.869413 0.476921 0
0.914427 0.483085 0
0.959747 0.489158 0
1 0.495232 0
1 0.501595 0
1 0.508156 0
1 0.514549 0
1 0.521111 0
1 0.52781 0
1 0.534691 0
1 0.541466 0
0 0.218784 0
0 0.245609 0
0 0.274876 0
0 0.299123 0
0.00703441 0.325658 0
0.0650187 0.353429 0
0.124544 0.381186 0
0.18439 0.407584 0
0.242908 0.431113 0
0.298054 0.450416 0
0.350103 0.465599 0
0.398733 0.476631 0
0.444175 0.483925 0
0.486946 0.488029 0
0.529503 0.491341 0
0.57258 0.494636 0
0.616342 0.498466 0
0.66041 0.502571 0
0.704387 0.50692 0
0.748638 0.511467 0
0.792706 0.516808 0
0.837003 0.522087 0
0.881559 0.527962 0
0.92639 0.533745 0
0.971649 0.539742 0
1 0.545678 0
1 0.551797 0
1 0.557992 0
1 0.564218 0
1 0.570748 0
1 0.577142 0
1 0.583566 0
1 0.590021 0
0 0.246204 0
0 0.274723 0
0 0.303639 0
0 0.328176 0
0 0.354772 0
0.0497444 0.382925 0
0.110994 0.411826 0
0.172976 0.439887 0
0.233875 0.465736 0
0.292943 0.48838 0
0.348821 0.506783 0
0.400916 0.521263 0
0.449943 0.531991 0
0.4963 0.538949 0
0.540368 0.543526 0
0.584115 0.546975 0
0.627634 0.550576 0
0.671977 0.554635 0
0.715969 0.558862 0
0.760418 0.563638 0
0.804517 0.568521 0
0.848783 0.573693 0
0.893446 0.579385 0
0.938384 0.58497 0
0.983993 0.590982 0
1 0.596506 0
1 0.602304 0
1 0.608331 0
1 0.61445 0
1 0.620493 0
1 0.626444 0
1 0.6327 0
1 0.638956 0
0 0.272282 0
0 0.300542 0
0 0.33048 0
0 0.355261 0
0 0.382315 0
0.0300908 0.411185 0
0.092668 0.440864 0
0.157153 0.470649 0
0.221347 0.498833 0
0.283742 0.5243 0
0.343511 0.546227 0
0.399558 0.563897 0
0.452171 0.577905 0
0.501945 0.588464 0
0.549065 0.595438 0
0.594385 0.600153 0
0.638407 0.603586 0
0.682948 0.607553 0
0.727306 0.611551 0
0.771679 0.616251 0
0.815976 0.62092 0
0.860777 0.626078 0
0.905074 0.631373 0
0.950088 0.636698 0
0.996139 0.642283 0
1 0.647669 0
1 0.653162 0
1 0.658778 0
1 0.664485 0
1 0.670146 0
1 0.676097 0
1 0.68162 0
1 0.686717 0
0 0.29633 0
0 0.324987 0
0 0.355825 0
0 0.380896 0
0 0.408621 0
0.00689708 0.438361 0
0.0716259 0.469291 0
0.137881 0.500374 0
0.20473 0.530495 0
0.270665 0.558602 0
0.33431 0.583566 0
0.394293 0.604501 0
0.451072 0.62179 0
0.504509 0.635401 0
0.554726 0.645487 0
0.603387 0.652552 0
0.64892 0.657191 0
0.693828 0.66096 0
0.738323 0.664912 0
0.783185 0.669169 0
0.827451 0.673655 0
0.87216 0.678599 0
0.916945 0.683482 0
0.962158 0.688792 0
1 0.69366 0
1 0.698711 0
1 0.704143 0
1 0.709331 0
1 0.714702 0
1 0.72015 0
1 0.724834 0
1 0.72987 0
1 0.734752 0
0 0.318425 0
0 0.347631 0
0 0.379355 0
0 0.405692 0
0 0.43386 0
0 0.464698 0
0.0472572 0.49662 0
0.116777 0.529488 0
0.186282 0.561334 0
0.255314 0.591714 0
0.322576 0.61941 0
0.386664 0.643366 0
0.447105 0.663706 0
0.504448 0.680323 0
0.558663 0.693141 0
0.609735 0.703105 0
0.658244 0.709834 0
0.704616 0.714611 0
0.749691 0.718471 0
0.794293 0.722377 0
0.83917 0.726757 0
0.883589 0.731212 0
0.928542 0.735729 0
0.974014 0.740642 0
1 0.745098 0
1 0.750118 0
1 0.754971 0
1 0.759793 0
1 0.764431 0
1 0.768887 0
1 0.773526 0
1 0.778012 0
1 0.782864 0
0 0.339849 0
0 0.369162 0
0 0.401862 0
0 0.429969 0
0 0.459525 0
0 0.490867 0
0.0227359 0.524102 0
0.0944991 0.558206 0
0.1673 0.592065 0
0.239078 0.624155 0
0.30956 0.654169 0
0.3776 0.681086 0
0.441306 0.703883 0
0.502602 0.723369 0
0.559853 0.738918 0
0.614023 0.751247 0
0.665293 0.760693 0
0.714076 0.767086 0
0.760571 0.771893 0
0.805386 0.77554 0
0.850492 0.779599 0
0.89514 0.783673 0
0.94052 0.788128 0
0.985992 0.792401 0
1 0.796689 0
1 0.801038 0
1 0.805081 0
1 0.809354 0
1 0.813474 0
1 0.817914 0
1 0.82208 0
1 0.826596 0
1 0.830854 0
0 0.360998 0
0 0.391485 0
0 0.423972 0
0 0.453773 0
0 0.484459 0
0 0.517021 0
0 0.551308 0
0.0710918 0.586542 0
0.146654 0.621942 0
0.221607 0.655924 0
0.295399 0.68806 0
0.366552 0.71722 0
0.433982 0.742626 0
0.498711 0.764675 0
0.559335 0.782818 0
0.616693 0.797436 0
0.670726 0.809049 0
0.721294 0.817853 0
0.770062 0.824094 0
0.816358 0.82855 0
0.861494 0.832425 0
0.906416 0.836164 0
0.952239 0.840162 0
0.997391 0.843854 0
1 0.847562 0
1 0.851179 0
1 0.855085 0
1 0.859083 0
1 0.862943 0
1 0.866911 0
1 0.871153 0
1 0.875257 0
1 0.879576 0
0 0.381445 0
0 0.413016 0
0 0.445686 0
0 0.477333 0
0 0.509514 0
0 0.543664 0
0 0.578393 0
0.0477302 0.615 0
0.12549 0.651576 0
0.203494 0.68719 0
0.280278 0.721187 0
0.354086 0.752285 0
0.424949 0.77995 0
0.492714 0.804334 0
0.557107 0.825055 0
0.617334 0.841825 0
0.674067 0.855589 0
0.727016 0.86627 0
0.777386 0.874876 0
0.826185 0.880644 0
0.872023 0.884749 0
0.916808 0.888197 0
0.961913 0.891325 0
1 0.894911 0
1 0.897978 0
1 0.901671 0
1 0.905119 0
1 0.908995 0
1 0.912688 0
1 0.916625 0
1 0.920592 0
1 0.924605 0
1 0.928664 0
0 0.402121 0
0 0.433341 0
0 0.468406 0
0 0.499474 0
0 0.533394 0
0 0.568978 0
0 0.605478 0
0.0228275 0.642878 0
0.103593 0.680873 0
0.184512 0.718196 0
0.263416 0.753429 0
0.340352 0.786419 0
0.414069 0.816205 0
0.484794 0.842634 0
0.552392 0.865599 0
0.615625 0.884627 0
0.674662 0.900221 0
0.730053 0.912749 0
0.78201 0.922499 0
0.831357 0.93048 0
0.879393 0.935592 0
0.92549 0.939696 0
0.97116 0.942962 0
1 0.945891 0
1 0.949157 0
1 0.952392 0
1 0.955932 0
1 0.959533 0
1 0.963043 0
1 0.966949 0
1 0.970672 0
1 0.974578 0
1 0.978744 0
0 0.421988 0
0 0.454032 0
0 0.489464 0
0 0.521782 0
0 0.557046 0
0 0.594003 0
0 0.632074 0
0 0.670542 0
0.0801709 0.709697 0
0.16405 0.74847 0
0.244633 0.784787 0
0.324041 0.819333 0
0.40061 0.850965 0
0.473518 0.878965 0
0.543328 0.903777 0
0.609598 0.925017 0
0.671427 0.942443 0
0.729259 0.956954 0
0.783581 0.96878 0
0.834928 0.978119 0
0.884047 0.985931 0
0.933165 0.990829 0
0.97969 0.994736 0
1 0.997803 0
1 1 0
1 1 0
1 1 0
1 1 0
1 1 0
1 1 0
1 1 0
1 1 0
1 1 0
0 0.439536 0
0 0.471717 0
0 0.506828 0
0 0.54229 0
0 0.577188 0
0 0.616739 0
0 0.656352 0
0 0.696437 0
0.0497597 0.736141 0
0.134981 0.775631 0
0.219669 0.814084 0
0.302449 0.850385 0
0.381567 0.883635 0
0.457984 0.913954 0
0.5308 0.940795 0
0.599725 0.963943 0
0.664469 0.983749 0
0.725139 1 0
0.782177 1 0
0.836103 1 0
0.887343 1 0
0.936996 1 0
0.98616 1 0
1 1 0
1 1 0
1 1 0
1 1 0
1 1 0
1 1 0
1 1 0
1 1 0
1 1 0
1 1 0
0 0.452522 0
0 0.48452 0
0 0.520638 0
0 0.55903 0
0 0.595239 0
0 0.636942 0
0 0.678508 0
0 0.7205 0
0.0177462 0.762142 0
0.107271 0.803677 0
0.193851 0.843061 0
0.279347 0.880964 0
0.361807 0.916182 0
0.441032 0.948135 0
0.51722 0.977066 0
0.588922 1 0
0.656382 1 0
0.719661 1 0
0.779477 1 0
0.835889 1 0
0.889357 1 0
0.940566 1 0
0.991531 1 0
1 1 0
1 1 0
1 1 0
1 1 0
1 1 0
1 1 0
1 1 0
1 1 0
1 1 0
1 1 0
0 0.465049 0
0 0.497612 0
0 0.533593 0
0 0.573053 0
0 0.613947 0
0 0.656657 0
0 0.701076 0
0 0.744625 0
0 0.788388 0
0.076936 0.830991 0
0.167163 0.872267 0
0.255543 0.911574 0
0.34107 0.948455 0
0.423224 0.982345 0
0.502052 1 0
0.576562 1 0
0.64744 1 0
0.713222 1 0
0.775372 1 0
0.834394 1 0
0.890196 1 0
0.943526 1 0
0.996674 1 0
1 1 0
1 1 0
1 1 0
1 1 0
1 1 0
1 1 0
1 1 0
1 1 0
1 1 0
1 1 0
0 0.476707 0
0 0.509926 0
0 0.546441 0
0 0.586969 0
0 0.632151 0
0 0.675151 0
0 0.722881 0
0 0.769329 0
0 0.81445 0
0.0462501 0.858885 0
0.13959 0.901503 0
0.231357 0.942641 0
0.319844 0.980987 0
0.404959 1 0
0.485618 1 0
0.563058 1 0
0.636103 1 0
0.705562 1 0
0.770413 1 0
0.832624 1 0
0.890639 1 0
0.946471 1 0
1 1 0
1 1 0
1 1 0
1 1 0
1 1 0
1 1 0
1 1 0
1 1 0
1 1 0
1 1 0
1 1 0
0 0.488334 0
0 0.521675 0
0 0.558984 0
0 0.600366 0
0 0.649729 0
0 0.695064 0
0 0.746059 0
0 0.793988 0
0 0.841123 0
