lut/6502ef2b-aa45-4da5-bf32-d4f52f8c088e.cube
TITLE "Moody Cyans & Greens"
LUT_3D_SIZE 5
0 0 0
0.100069 0 0
0.449897 0 0
0.82855 0 0
1 0 0
0 0.0872358 0
0.224567 0.231205 0
0.549615 0.254185 0
0.912139 0.293629 0
1 0.350881 0
0 0.29633 0
0.20473 0.530495 0
0.64892 0.657191 0
1 0.69366 0
1 0.734752 0
0 0.452522 0
0.0177462 0.762142 0
0.656382 1 0
1 1 0
1 1 0
0 0.549996 0
0 0.990814 0
0.565423 1 0
1 1 0
1 1 0
0 0 0.143236
0.14197 0 0.10486
0.480613 0 0.155764
0.860838 0 0.152972
1 0 0.091722
0.0034638 0.22211 0.18024
0.256184 0.234897 0.187152
0.581323 0.25594 0.196399
0.945296 0.294667 0.196155
1 0.350057 0.177035
0 0.428824 0.0608377
0.184649 0.48249 0.0767987
0.684901 0.656046 0.221012
1 0.689296 0.21239
1 0.726375 0.164599
0 0.650538 0
0.0192264 0.701305 0
0.670329 0.989013 0.116686
1 1 0.11519
1 1 0.0120851
0 0.787381 0
0 0.901305 0
0.55198 1 0
1 1 0
1 1 0
0 0 0.293141
0.206149 0 0.374655
0.523507 0 0.469627
0.897978 0 0.53048
1 0 0.574563
0.0563363 0.231357 0.496468
0.300679 0.246403 0.511009
0.615198 0.271687 0.546715
0.988388 0.286809 0.588571
1 0.323857 0.612741
0.137484 0.63827 0.64239
0.395865 0.644465 0.641428
0.723949 0.657038 0.632105
1 0.687282 0.648127
1 0.719936 0.65214
0 1 0.675624
0.196353 0.938979 0.558434
0.637079 0.933471 0.525628
1 1 0.687785
1 1 0.679469
0 1 0.521492
0.0695811 1 0.382742
0.475532 1 0.333288
1 1 0.630167
1 1 0.671122
0.0745861 0 0.654032
0.287877 0.0112306 0.710475
0.579232 0 0.797665
0.942519 0 0.878157
1 0.00856031 0.955657
0.132006 0.251164 0.828077
0.35845 0.269154 0.849439
0.666545 0.299443 0.885664
1 0.314855 0.955077
1 0.355184 1
0.166979 0.643366 1
0.426932 0.651362 1
0.762066 0.669657 1
1 0.69546 1
1 0.70898 1
0.142443 1 1
0.480583 1 1
0.864683 1 1
1 1 1
1 1 1
0 1 1
0.342809 1 1
0.674296 1 1
1 1 1
1 1 1
0.173281 0.0150912 1
0.360922 0.0292668 1
0.653346 0.0768749 1
0.996796 0.0880751 1
1 0.113664 1
0.220035 0.284138 1
0.422568 0.302464 1
0.730495 0.348348 1
1 0.371756 1
1 0.391775 1
0.220523 0.658213 1
0.470054 0.67158 1
0.806638 0.690883 1
1 0.725902 1
1 0.725002 1
0.15172 1 1
0.496284 1 1
0.879377 1 1
1 1 1
1 1 1
0.0207675 1 1
0.498894 1 1
0.941711 1 1
1 1 1
1 1 1
