lut/65516fe1-fc69-419a-893f-192438a187db.cube
TITLE "Magenta Dawn"
LUT_3D_SIZE 25
0.062745 0.000000 0.058824
0.105882 0.000000 0.027451
0.133333 0.000000 0.000000
0.141176 0.000000 0.000000
0.180392 0.000000 0.000000
0.250980 0.000000 0.007843
0.317647 0.000000 0.031373
0.388235 0.000000 0.054902
0.447059 0.000000 0.058824
0.498039 0.000000 0.058824
0.552941 0.000000 0.058824
0.615686 0.000000 0.062745
0.670588 0.000000 0.062745
0.721569 0.000000 0.062745
0.768627 0.000000 0.058824
0.811765 0.000000 0.054902
0.854902 0.000000 0.047059
0.898039 0.000000 0.043137
0.937255 0.000000 0.039216
0.980392 0.000000 0.035294
1.000000 0.000000 0.035294
1.000000 0.000000 0.031373
1.000000 0.000000 0.027451
1.000000 0.000000 0.027451
1.000000 0.000000 0.023529
0.058824 0.031373 0.019608
0.098039 0.023529 0.015686
0.129412 0.015686 0.000000
0.145098 0.039216 0.000000
0.180392 0.050980 0.011765
0.250980 0.043137 0.027451
0.317647 0.031373 0.043137
0.384314 0.011765 0.054902
0.439216 0.000000 0.054902
0.490196 0.000000 0.054902
0.549020 0.000000 0.054902
0.607843 0.000000 0.058824
0.662745 0.000000 0.058824
0.713725 0.000000 0.054902
0.760784 0.000000 0.050980
0.803922 0.000000 0.047059
0.847059 0.000000 0.043137
0.890196 0.000000 0.039216
0.933333 0.000000 0.035294
0.976471 0.000000 0.035294
1.000000 0.000000 0.031373
1.000000 0.000000 0.027451
1.000000 0.000000 0.027451
1.000000 0.000000 0.023529
1.000000 0.000000 0.023529
0.086275 0.074510 0.003922
0.117647 0.070588 0.011765
0.152941 0.066667 0.023529
0.180392 0.078431 0.031373
0.207843 0.094118 0.039216
0.258824 0.098039 0.047059
0.321569 0.098039 0.054902
0.380392 0.086275 0.054902
0.431373 0.066667 0.054902
0.486275 0.035294 0.050980
0.545098 0.007843 0.054902
0.603922 0.000000 0.054902
0.654902 0.000000 0.054902
0.705882 0.000000 0.050980
0.752941 0.000000 0.047059
0.796078 0.000000 0.043137
0.839216 0.000000 0.039216
0.882353 0.000000 0.035294
0.925490 0.000000 0.031373
0.968627 0.000000 0.031373
1.000000 0.000000 0.027451
1.000000 0.000000 0.027451
1.000000 0.000000 0.023529
1.000000 0.000000 0.023529
1.000000 0.000000 0.019608
0.086275 0.133333 0.023529
0.129412 0.133333 0.035294
0.176471 0.125490 0.058824
0.219608 0.125490 0.074510
0.250980 0.137255 0.074510
0.286275 0.145098 0.066667
0.329412 0.145098 0.062745
0.380392 0.137255 0.058824
0.431373 0.129412 0.054902
0.490196 0.121569 0.054902
0.549020 0.109804 0.058824
0.600000 0.090196 0.054902
0.654902 0.058824 0.054902
0.701961 0.000000 0.050980
0.749020 0.000000 0.047059
0.792157 0.000000 0.039216
0.835294 0.000000 0.035294
0.878431 0.000000 0.031373
0.921569 0.000000 0.031373
0.964706 0.000000 0.027451
1.000000 0.000000 0.023529
1.000000 0.000000 0.019608
1.000000 0.000000 0.019608
1.000000 0.000000 0.015686
1.000000 0.000000 0.015686
0.098039 0.203922 0.043137
0.141176 0.200000 0.050980
0.188235 0.196078 0.062745
0.231373 0.188235 0.074510
0.270588 0.188235 0.082353
0.305882 0.188235 0.074510
0.345098 0.188235 0.066667
0.392157 0.192157 0.066667
0.443137 0.192157 0.066667
0.498039 0.188235 0.066667
0.552941 0.180392 0.062745
0.603922 0.168627 0.062745
0.650980 0.152941 0.058824
0.701961 0.125490 0.050980
0.745098 0.086275 0.047059
0.788235 0.015686 0.043137
0.831373 0.000000 0.039216
0.874510 0.000000 0.031373
0.917647 0.000000 0.027451
0.960784 0.000000 0.023529
1.000000 0.000000 0.019608
1.000000 0.000000 0.015686
1.000000 0.000000 0.011765
1.000000 0.000000 0.007843
1.000000 0.000000 0.007843
0.109804 0.254902 0.043137
0.149020 0.254902 0.047059
0.188235 0.250980 0.054902
0.235294 0.247059 0.062745
0.278431 0.243137 0.074510
0.321569 0.243137 0.082353
0.364706 0.247059 0.082353
0.411765 0.247059 0.082353
0.454902 0.247059 0.078431
0.501961 0.243137 0.074510
0.552941 0.239216 0.070588
0.600000 0.227451 0.062745
0.647059 0.211765 0.058824
0.690196 0.196078 0.050980
0.733333 0.172549 0.047059
0.780392 0.141176 0.039216
0.823529 0.101961 0.035294
0.866667 0.023529 0.027451
0.909804 0.000000 0.023529
0.952941 0.000000 0.019608
0.996078 0.000000 0.015686
1.000000 0.000000 0.011765
1.000000 0.000000 0.007843
1.000000 0.000000 0.003922
1.000000 0.000000 0.003922
0.117647 0.305882 0.035294
0.152941 0.305882 0.043137
0.192157 0.301961 0.047059
0.235294 0.301961 0.058824
0.282353 0.298039 0.066667
0.325490 0.294118 0.074510
0.368627 0.294118 0.082353
0.411765 0.290196 0.082353
0.454902 0.290196 0.078431
0.498039 0.286275 0.074510
0.541176 0.278431 0.066667
0.584314 0.270588 0.062745
0.631373 0.258824 0.054902
0.674510 0.247059 0.047059
0.721569 0.227451 0.039216
0.764706 0.207843 0.035294
0.811765 0.184314 0.027451
0.854902 0.152941 0.023529
0.898039 0.109804 0.015686
0.945098 0.035294 0.011765
0.988235 0.000000 0.007843
1.000000 0.000000 0.003922
1.000000 0.000000 0.000000
1.000000 0.000000 0.000000
1.000000 0.000000 0.000000
0.117647 0.352941 0.031373
0.152941 0.352941 0.035294
0.188235 0.349020 0.039216
0.231373 0.349020 0.047059
0.274510 0.345098 0.054902
0.321569 0.341176 0.066667
0.364706 0.337255 0.074510
0.407843 0.333333 0.078431
0.450980 0.329412 0.078431
0.490196 0.325490 0.074510
0.533333 0.317647 0.066667
0.572549 0.309804 0.058824
0.619608 0.301961 0.050980
0.662745 0.294118 0.047059
0.705882 0.282353 0.035294
0.752941 0.266667 0.027451
0.800000 0.247059 0.023529
0.843137 0.227451 0.015686
0.890196 0.203922 0.007843
0.933333 0.172549 0.003922
0.980392 0.129412 0.000000
1.000000 0.066667 0.000000
1.000000 0.000000 0.000000
1.000000 0.000000 0.000000
1.000000 0.000000 0.000000
0.109804 0.396078 0.023529
0.141176 0.396078 0.027451
0.176471 0.396078 0.031373
0.219608 0.392157 0.039216
0.266667 0.388235 0.047059
0.313725 0.384314 0.054902
0.356863 0.380392 0.062745
0.403922 0.376471 0.070588
0.443137 0.372549 0.070588
0.486275 0.364706 0.070588
0.525490 0.360784 0.066667
0.568627 0.356863 0.062745
0.611765 0.349020 0.054902
0.654902 0.341176 0.047059
0.698039 0.329412 0.035294
0.741176 0.317647 0.027451
0.788235 0.305882 0.015686
0.831373 0.286275 0.007843
0.878431 0.270588 0.000000
0.925490 0.247059 0.000000
0.968627 0.223529 0.000000
1.000000 0.192157 0.000000
1.000000 0.152941 0.000000
1.000000 0.098039 0.000000
1.000000 0.000000 0.000000
0.086275 0.439216 0.011765
0.125490 0.439216 0.015686
0.160784 0.435294 0.019608
0.203922 0.435294 0.023529
0.250980 0.431373 0.031373
0.298039 0.427451 0.039216
0.345098 0.423529 0.047059
0.392157 0.419608 0.054902
0.439216 0.411765 0.062745
0.478431 0.407843 0.062745
0.521569 0.403922 0.062745
0.564706 0.396078 0.058824
0.603922 0.392157 0.050980
0.647059 0.384314 0.043137
0.690196 0.376471 0.031373
0.733333 0.364706 0.019608
0.776471 0.352941 0.011765
0.823529 0.341176 0.000000
0.866667 0.325490 0.000000
0.913725 0.309804 0.000000
0.956863 0.290196 0.000000
1.000000 0.270588 0.000000
1.000000 0.243137 0.000000
1.000000 0.219608 0.000000
1.000000 0.188235 0.000000
0.054902 0.482353 0.000000
0.101961 0.478431 0.000000
0.141176 0.478431 0.003922
0.188235 0.474510 0.007843
0.235294 0.474510 0.011765
0.286275 0.470588 0.019608
0.333333 0.462745 0.027451
0.380392 0.458824 0.035294
0.427451 0.454902 0.043137
0.470588 0.450980 0.047059
0.513725 0.443137 0.050980
0.556863 0.439216 0.050980
0.600000 0.431373 0.043137
0.639216 0.427451 0.035294
0.682353 0.419608 0.027451
0.725490 0.411765 0.015686
0.772549 0.403922 0.007843
0.815686 0.392157 0.000000
0.862745 0.380392 0.000000
0.905882 0.368627 0.000000
0.956863 0.356863 0.000000
1.000000 0.341176 0.000000
1.000000 0.325490 0.000000
1.000000 0.309804 0.000000
1.000000 0.290196 0.000000
0.000000 0.513725 0.000000
0.035294 0.509804 0.000000
0.098039 0.509804 0.000000
0.152941 0.509804 0.000000
0.207843 0.505882 0.000000
0.258824 0.501961 0.000000
0.309804 0.498039 0.000000
0.360784 0.494118 0.000000
0.407843 0.490196 0.007843
0.454902 0.486275 0.015686
0.501961 0.482353 0.023529
0.545098 0.478431 0.027451
0.588235 0.470588 0.023529
0.631373 0.466667 0.023529
0.674510 0.462745 0.015686
0.717647 0.454902 0.007843
0.764706 0.447059 0.000000
0.807843 0.439216 0.000000
0.854902 0.431373 0.000000
0.901961 0.423529 0.000000
0.949020 0.411765 0.000000
1.000000 0.403922 0.000000
1.000000 0.392157 0.000000
1.000000 0.380392 0.000000
1.000000 0.360784 0.000000
0.000000 0.545098 0.000000
0.000000 0.545098 0.000000
0.023529 0.545098 0.000000
0.113725 0.545098 0.000000
0.176471 0.541176 0.000000
0.235294 0.541176 0.000000
0.290196 0.537255 0.000000
0.341176 0.533333 0.000000
0.392157 0.529412 0.000000
0.439216 0.525490 0.000000
0.486275 0.521569 0.000000
0.533333 0.517647 0.000000
0.580392 0.513725 0.003922
0.623529 0.509804 0.003922
0.666667 0.501961 0.000000
0.713725 0.498039 0.000000
0.756863 0.494118 0.000000
0.803922 0.486275 0.000000
0.850980 0.482353 0.000000
0.898039 0.474510 0.000000
0.945098 0.466667 0.000000
0.996078 0.458824 0.000000
1.000000 0.447059 0.000000
1.000000 0.435294 0.000000
1.000000 0.423529 0.000000
0.000000 0.584314 0.000000
0.000000 0.580392 0.000000
0.000000 0.580392 0.000000
0.047059 0.580392 0.000000
0.137255 0.580392 0.000000
0.203922 0.576471 0.000000
0.262745 0.576471 0.000000
0.321569 0.572549 0.000000
0.372549 0.568627 0.000000
0.423529 0.564706 0.000000
0.474510 0.560784 0.000000
0.521569 0.556863 0.000000
0.568627 0.552941 0.000000
0.615686 0.549020 0.000000
0.658824 0.545098 0.000000
0.705882 0.541176 0.000000
0.749020 0.537255 0.000000
0.796078 0.533333 0.000000
0.843137 0.529412 0.000000
0.894118 0.525490 0.000000
0.941176 0.517647 0.000000
0.988235 0.509804 0.000000
1.000000 0.498039 0.000000
1.000000 0.490196 0.000000
1.000000 0.482353 0.000000
0.000000 0.619608 0.000000
0.000000 0.619608 0.000000
0.000000 0.619608 0.000000
0.000000 0.615686 0.000000
0.078431 0.615686 0.000000
0.168627 0.615686 0.000000
0.235294 0.611765 0.000000
0.294118 0.607843 0.000000
0.352941 0.607843 0.000000
0.403922 0.603922 0.000000
0.454902 0.600000 0.000000
0.505882 0.596078 0.000000
0.556863 0.592157 0.000000
0.603922 0.588235 0.000000
0.650980 0.584314 0.000000
0.698039 0.584314 0.000000
0.745098 0.580392 0.000000
0.792157 0.580392 0.000000
0.839216 0.572549 0.000000
0.882353 0.568627 0.000000
0.929412 0.560784 0.000000
0.976471 0.552941 0.000000
1.000000 0.549020 0.000000
1.000000 0.541176 0.000000
1.000000 0.529412 0.000000
0.000000 0.658824 0.000000
0.000000 0.658824 0.000000
0.000000 0.658824 0.000000
0.000000 0.654902 0.000000
0.000000 0.654902 0.000000
0.121569 0.654902 0.000000
0.203922 0.654902 0.000000
0.270588 0.650980 0.000000
0.333333 0.650980 0.000000
0.388235 0.647059 0.000000
0.443137 0.647059 0.000000
0.498039 0.643137 0.000000
0.549020 0.643137 0.000000
0.600000 0.639216 0.000000
0.650980 0.639216 0.000000
0.698039 0.635294 0.000000
0.745098 0.631373 0.000000
0.788235 0.623529 0.000000
0.835294 0.619608 0.000000
0.882353 0.615686 0.000000
0.933333 0.615686 0.000000
0.980392 0.607843 0.000000
1.000000 0.603922 0.000000
1.000000 0.596078 0.000000
1.000000 0.588235 0.000000
0.000000 0.701961 0.000000
0.000000 0.701961 0.000000
0.000000 0.701961 0.000000
0.000000 0.701961 0.000000
0.000000 0.701961 0.000000
0.062745 0.701961 0.000000
0.176471 0.701961 0.000000
0.254902 0.701961 0.000000
0.317647 0.698039 0.000000
0.380392 0.698039 0.000000
0.435294 0.698039 0.000000
0.490196 0.694118 0.000000
0.541176 0.690196 0.000000
0.592157 0.686275 0.000000
0.639216 0.682353 0.000000
0.690196 0.678431 0.000000
0.737255 0.674510 0.000000
0.788235 0.674510 0.000000
0.835294 0.670588 0.000000
0.882353 0.666667 0.000000
0.929412 0.662745 0.000000
0.976471 0.658824 0.000000
1.000000 0.654902 0.000000
1.000000 0.647059 0.000000
1.000000 0.639216 0.000000
0.000000 0.749020 0.000000
0.000000 0.749020 0.000000
0.000000 0.749020 0.000000
0.000000 0.749020 0.000000
0.000000 0.749020 0.000000
0.000000 0.749020 0.000000
0.129412 0.745098 0.000000
0.223529 0.745098 0.000000
0.294118 0.741176 0.000000
0.356863 0.741176 0.000000
0.415686 0.737255 0.000000
0.474510 0.737255 0.000000
0.529412 0.733333 0.000000
0.580392 0.733333 0.000000
0.631373 0.729412 0.000000
0.682353 0.725490 0.000000
0.733333 0.721569 0.000000
0.780392 0.717647 0.000000
0.827451 0.717647 0.000000
0.874510 0.713725 0.000000
0.925490 0.709804 0.000000
0.972549 0.705882 0.000000
1.000000 0.701961 0.000000
1.000000 0.694118 0.000000
1.000000 0.690196 0.000000
0.000000 0.792157 0.000000
0.000000 0.788235 0.000000
0.000000 0.788235 0.000000
0.000000 0.788235 0.000000
0.000000 0.788235 0.000000
0.000000 0.788235 0.000000
0.031373 0.788235 0.000000
0.180392 0.788235 0.000000
0.266667 0.784314 0.000000
0.333333 0.784314 0.000000
0.400000 0.784314 0.000000
0.454902 0.780392 0.000000
0.513725 0.776471 0.000000
0.564706 0.776471 0.000000
0.619608 0.772549 0.000000
0.670588 0.768627 0.000000
0.721569 0.768627 0.000000
0.772549 0.764706 0.000000
0.819608 0.760784 0.000000
0.866667 0.756863 0.000000
0.913725 0.752941 0.000000
0.964706 0.749020 0.000000
1.000000 0.745098 0.000000
1.000000 0.741176 0.000000
1.000000 0.737255 0.000000
0.000000 0.831373 0.000000
0.000000 0.831373 0.000000
0.000000 0.831373 0.000000
0.000000 0.831373 0.000000
0.000000 0.831373 0.000000
0.000000 0.831373 0.000000
0.000000 0.827451 0.000000
0.113725 0.827451 0.000000
0.223529 0.827451 0.000000
0.301961 0.823529 0.000000
0.372549 0.823529 0.000000
0.435294 0.823529 0.000000
0.494118 0.819608 0.000000
0.552941 0.819608 0.000000
0.603922 0.815686 0.000000
0.658824 0.811765 0.000000
0.709804 0.807843 0.000000
0.756863 0.803922 0.000000
0.807843 0.803922 0.000000
0.858824 0.800000 0.000000
0.905882 0.796078 0.000000
0.956863 0.792157 0.000000
1.000000 0.792157 0.000000
1.000000 0.792157 0.000000
1.000000 0.788235 0.000000
0.000000 0.878431 0.000000
0.000000 0.878431 0.000000
0.000000 0.878431 0.000000
0.000000 0.878431 0.000000
0.000000 0.874510 0.000000
0.000000 0.874510 0.000000
0.000000 0.874510 0.000000
0.000000 0.874510 0.000000
0.180392 0.874510 0.000000
0.274510 0.870588 0.000000
0.349020 0.870588 0.000000
0.415686 0.866667 0.000000
0.478431 0.866667 0.000000
0.537255 0.862745 0.000000
0.592157 0.862745 0.000000
0.647059 0.858824 0.000000
0.701961 0.858824 0.000000
0.752941 0.854902 0.000000
0.803922 0.854902 0.000000
0.858824 0.854902 0.000000
0.909804 0.850980 0.000000
0.960784 0.850980 0.000000
1.000000 0.850980 0.000000
1.000000 0.843137 0.000000
1.000000 0.839216 0.000000
0.000000 0.921569 0.000000
0.000000 0.921569 0.000000
0.000000 0.921569 0.000000
0.000000 0.921569 0.000000
0.000000 0.921569 0.000000
0.000000 0.921569 0.000000
0.000000 0.921569 0.000000
0.000000 0.921569 0.000000
0.117647 0.917647 0.000000
0.239216 0.917647 0.000000
0.325490 0.917647 0.000000
0.396078 0.913725 0.000000
0.462745 0.913725 0.000000
0.521569 0.913725 0.000000
0.580392 0.909804 0.000000
0.639216 0.909804 0.000000
0.694118 0.909804 0.000000
0.749020 0.909804 0.000000
0.803922 0.905882 0.000000
0.854902 0.905882 0.000000
0.905882 0.901961 0.000000
0.952941 0.898039 0.000000
1.000000 0.890196 0.000000
1.000000 0.886275 0.000000
1.000000 0.878431 0.000000
0.000000 0.968627 0.000000
0.000000 0.968627 0.000000
0.000000 0.968627 0.000000
0.000000 0.968627 0.000000
0.000000 0.968627 0.000000
0.000000 0.968627 0.000000
0.000000 0.968627 0.000000
0.000000 0.968627 0.000000
0.000000 0.968627 0.000000
0.196078 0.964706 0.000000
0.298039 0.964706 0.000000
0.376471 0.964706 0.000000
0.447059 0.964706 0.000000
0.509804 0.964706 0.000000
0.572549 0.964706 0.000000
0.627451 0.960784 0.000000
0.686275 0.960784 0.000000
0.737255 0.952941 0.000000
0.788235 0.949020 0.000000
0.839216 0.945098 0.000000
0.886275 0.941176 0.000000
0.937255 0.933333 0.000000
0.984314 0.929412 0.000000
1.000000 0.921569 0.000000
1.000000 0.917647 0.000000
0.000000 1.000000 0.000000
0.000000 1.000000 0.000000
0.000000 1.000000 0.000000
0.000000 1.000000 0.000000
0.000000 1.000000 0.000000
0.000000 1.000000 0.000000
0.000000 1.000000 0.000000
0.000000 1.000000 0.000000
0.000000 1.000000 0.000000
0.129412 1.000000 0.000000
0.258824 1.000000 0.000000
0.345098 1.000000 0.000000
0.419608 1.000000 0.000000
0.486275 1.000000 0.000000
0.545098 1.000000 0.000000
0.603922 0.996078 0.000000
0.658824 0.992157 0.000000
0.713725 0.988235 0.000000
0.764706 0.984314 0.000000
0.815686 0.980392 0.000000
0.866667 0.972549 0.000000
0.913725 0.968627 0.000000
0.960784 0.960784 0.000000
1.000000 0.956863 0.000000
1.000000 0.949020 0.000000
0.000000 1.000000 0.000000
0.000000 1.000000 0.000000
0.000000 1.000000 0.000000
0.000000 1.000000 0.000000
0.000000 1.000000 0.000000
0.000000 1.000000 0.000000
0.000000 1.000000 0.000000
0.000000 1.000000 0.000000
0.000000 1.000000 0.000000
0.000000 1.000000 0.000000
0.172549 1.000000 0.000000
0.286275 1.000000 0.000000
0.372549 1.000000 0.000000
0.443137 1.000000 0.000000
0.509804 1.000000 0.000000
0.568627 1.000000 0.000000
0.627451 1.000000 0.000000
0.682353 1.000000 0.000000
0.733333 1.000000 0.000000
0.784314 1.000000 0.000000
0.835294 1.000000 0.000000
0.886275 0.996078 0.000000
0.933333 0.988235 0.000000
0.980392 0.984314 0.000000
1.000000 0.976471 0.000000
0.082353 0.000000 0.070588
0.113725 0.000000 0.070588
0.141176 0.000000 0.054902
0.160784 0.000000 0.031373
0.200000 0.000000 0.031373
0.258824 0.000000 0.050980
0.321569 0.000000 0.066667
0.392157 0.000000 0.082353
0.447059 0.000000 0.086275
0.498039 0.000000 0.086275
0.552941 0.000000 0.086275
0.615686 0.000000 0.090196
0.670588 0.000000 0.094118
0.717647 0.000000 0.094118
0.768627 0.000000 0.090196
0.811765 0.000000 0.090196
0.850980 0.000000 0.086275
0.894118 0.000000 0.082353
0.937255 0.000000 0.078431
0.976471 0.000000 0.074510
1.000000 0.000000 0.070588
1.000000 0.000000 0.066667
1.000000 0.000000 0.066667
1.000000 0.000000 0.062745
1.000000 0.000000 0.062745
0.043137 0.039216 0.082353
0.086275 0.027451 0.082353
0.133333 0.015686 0.058824
0.160784 0.031373 0.039216
0.192157 0.047059 0.050980
0.250980 0.043137 0.062745
0.317647 0.031373 0.074510
0.380392 0.015686 0.082353
0.435294 0.000000 0.082353
0.490196 0.000000 0.082353
0.545098 0.000000 0.082353
0.603922 0.000000 0.086275
0.658824 0.000000 0.090196
0.709804 0.000000 0.090196
0.756863 0.000000 0.086275
0.800000 0.000000 0.082353
0.843137 0.000000 0.078431
0.886275 0.000000 0.078431
0.929412 0.000000 0.074510
0.972549 0.000000 0.070588
1.000000 0.000000 0.070588
1.000000 0.000000 0.066667
1.000000 0.000000 0.062745
1.000000 0.000000 0.062745
1.000000 0.000000 0.058824
0.054902 0.086275 0.054902
0.094118 0.082353 0.058824
0.137255 0.078431 0.058824
0.180392 0.078431 0.058824
0.200000 0.101961 0.066667
0.250980 0.105882 0.074510
0.317647 0.101961 0.082353
0.376471 0.090196 0.082353
0.427451 0.066667 0.082353
0.482353 0.039216 0.082353
0.545098 0.007843 0.086275
0.600000 0.000000 0.086275
0.650980 0.000000 0.086275
0.701961 0.000000 0.086275
0.749020 0.000000 0.082353
0.792157 0.000000 0.078431
0.835294 0.000000 0.078431
0.882353 0.000000 0.074510
0.925490 0.000000 0.070588
0.968627 0.000000 0.070588
1.000000 0.000000 0.066667
1.000000 0.000000 0.062745
1.000000 0.000000 0.062745
1.000000 0.000000 0.058824
1.000000 0.000000 0.058824
0.078431 0.137255 0.058824
0.125490 0.133333 0.066667
0.180392 0.125490 0.078431
0.223529 0.125490 0.094118
0.250980 0.137255 0.094118
0.282353 0.145098 0.086275
0.325490 0.149020 0.086275
0.372549 0.141176 0.086275
0.427451 0.133333 0.082353
0.486275 0.125490 0.086275
0.545098 0.113725 0.090196
0.596078 0.090196 0.090196
0.650980 0.058824 0.090196
0.698039 0.000000 0.086275
0.745098 0.000000 0.082353
0.788235 0.000000 0.078431
0.831373 0.000000 0.078431
0.878431 0.000000 0.074510
0.921569 0.000000 0.070588
0.964706 0.000000 0.066667
1.000000 0.000000 0.062745
1.000000 0.000000 0.058824
1.000000 0.000000 0.058824
1.000000 0.000000 0.054902
1.000000 0.000000 0.050980
0.098039 0.200000 0.074510
0.145098 0.196078 0.078431
0.192157 0.192157 0.090196
0.239216 0.184314 0.101961
0.274510 0.184314 0.113725
0.305882 0.188235 0.105882
0.341176 0.188235 0.098039
0.384314 0.192157 0.094118
0.439216 0.192157 0.098039
0.494118 0.192157 0.098039
0.545098 0.184314 0.098039
0.600000 0.168627 0.098039
0.647059 0.152941 0.094118
0.698039 0.125490 0.090196
0.741176 0.090196 0.086275
0.784314 0.015686 0.082353
0.831373 0.000000 0.078431
0.874510 0.000000 0.074510
0.917647 0.000000 0.070588
0.960784 0.000000 0.062745
1.000000 0.000000 0.058824
1.000000 0.000000 0.054902
1.000000 0.000000 0.050980
1.000000 0.000000 0.047059
1.000000 0.000000 0.043137
0.113725 0.254902 0.078431
0.152941 0.250980 0.082353
0.192157 0.247059 0.086275
0.239216 0.243137 0.098039
0.286275 0.239216 0.109804
0.325490 0.239216 0.117647
0.364706 0.243137 0.117647
0.407843 0.247059 0.113725
0.450980 0.247059 0.109804
0.498039 0.243137 0.109804
0.545098 0.239216 0.105882
0.596078 0.227451 0.101961
0.643137 0.215686 0.098039
0.686275 0.196078 0.090196
0.733333 0.172549 0.086275
0.776471 0.141176 0.082353
0.819608 0.101961 0.074510
0.866667 0.027451 0.070588
0.909804 0.000000 0.066667
0.952941 0.000000 0.062745
0.996078 0.000000 0.054902
1.000000 0.000000 0.050980
1.000000 0.000000 0.050980
1.000000 0.000000 0.047059
1.000000 0.000000 0.043137
0.117647 0.305882 0.078431
0.152941 0.301961 0.082353
0.192157 0.301961 0.086275
0.239216 0.298039 0.094118
0.286275 0.294118 0.105882
0.329412 0.290196 0.113725
0.368627 0.290196 0.117647
0.407843 0.290196 0.117647
0.450980 0.286275 0.113725
0.494118 0.282353 0.109804
0.537255 0.278431 0.105882
0.580392 0.270588 0.098039
0.627451 0.258824 0.094118
0.670588 0.247059 0.086275
0.717647 0.227451 0.082353
0.760784 0.207843 0.074510
0.807843 0.184314 0.070588
0.854902 0.152941 0.066667
0.898039 0.113725 0.058824
0.945098 0.039216 0.054902
0.988235 0.000000 0.050980
1.000000 0.000000 0.047059
1.000000 0.000000 0.043137
1.000000 0.000000 0.039216
1.000000 0.000000 0.039216
0.117647 0.352941 0.078431
0.149020 0.349020 0.082353
0.188235 0.349020 0.086275
0.231373 0.345098 0.090196
0.274510 0.341176 0.098039
0.321569 0.337255 0.105882
0.368627 0.333333 0.113725
0.407843 0.329412 0.113725
0.447059 0.325490 0.113725
0.486275 0.321569 0.109804
0.529412 0.317647 0.101961
0.568627 0.309804 0.098039
0.615686 0.301961 0.090196
0.658824 0.294118 0.082353
0.705882 0.282353 0.078431
0.749020 0.266667 0.070588
0.796078 0.250980 0.066667
0.843137 0.227451 0.058824
0.886275 0.203922 0.054902
0.933333 0.172549 0.047059
0.980392 0.133333 0.043137
1.000000 0.070588 0.039216
1.000000 0.000000 0.035294
1.000000 0.000000 0.031373
1.000000 0.000000 0.027451
0.105882 0.396078 0.074510
0.141176 0.396078 0.074510
0.176471 0.392157 0.078431
0.219608 0.392157 0.082353
0.266667 0.388235 0.090196
0.313725 0.384314 0.094118
0.356863 0.376471 0.101961
0.403922 0.372549 0.105882
0.443137 0.368627 0.109804
0.482353 0.364706 0.105882
0.525490 0.360784 0.101961
0.564706 0.352941 0.098039
0.607843 0.349020 0.090196
0.650980 0.341176 0.082353
0.698039 0.329412 0.078431
0.741176 0.317647 0.070588
0.788235 0.305882 0.062745
0.831373 0.290196 0.054902
0.878431 0.270588 0.047059
0.925490 0.250980 0.039216
0.968627 0.223529 0.031373
1.000000 0.196078 0.027451
1.000000 0.156863 0.023529
1.000000 0.101961 0.015686
1.000000 0.000000 0.015686
0.086275 0.435294 0.062745
0.121569 0.435294 0.066667
0.160784 0.435294 0.066667
0.203922 0.431373 0.070588
0.250980 0.427451 0.074510
0.298039 0.423529 0.082353
0.345098 0.419608 0.090196
0.392157 0.415686 0.094118
0.439216 0.411765 0.098039
0.478431 0.407843 0.101961
0.521569 0.400000 0.098039
0.564706 0.396078 0.098039
0.603922 0.392157 0.090196
0.647059 0.384314 0.082353
0.690196 0.376471 0.074510
0.733333 0.364706 0.066667
0.776471 0.352941 0.058824
0.819608 0.341176 0.047059
0.866667 0.325490 0.039216
0.913725 0.309804 0.027451
0.956863 0.294118 0.019608
1.000000 0.270588 0.011765
1.000000 0.247059 0.007843
1.000000 0.219608 0.003922
1.000000 0.188235 0.003922
0.054902 0.478431 0.050980
0.101961 0.478431 0.054902
0.141176 0.478431 0.054902
0.188235 0.474510 0.058824
0.235294 0.470588 0.062745
0.286275 0.466667 0.066667
0.333333 0.462745 0.074510
0.380392 0.458824 0.078431
0.427451 0.454902 0.086275
0.470588 0.447059 0.090196
0.513725 0.443137 0.090196
0.556863 0.439216 0.090196
