lut/65516fe1-fc69-419a-893f-192438a187db.cube
TITLE "Magenta Dawn"
LUT_3D_SIZE 5
0.062745 0.000000 0.058824
0.317647 0.000000 0.031373
0.670588 0.000000 0.062745
0.937255 0.000000 0.039216
1.000000 0.000000 0.023529
0.117647 0.305882 0.035294
0.368627 0.294118 0.082353
0.631373 0.258824 0.054902
0.898039 0.109804 0.015686
1.000000 0.000000 0.000000
0.000000 0.545098 0.000000
0.290196 0.537255 0.000000
0.580392 0.513725 0.003922
0.850980 0.482353 0.000000
1.000000 0.423529 0.000000
0.000000 0.792157 0.000000
0.031373 0.788235 0.000000
0.513725 0.776471 0.000000
0.819608 0.760784 0.000000
1.000000 0.737255 0.000000
0.000000 1.000000 0.000000
0.000000 1.000000 0.000000
0.372549 1.000000 0.000000
0.733333 1.000000 0.000000
1.000000 0.976471 0.000000
0.086275 0.000000 0.317647
0.396078 0.000000 0.317647
0.682353 0.000000 0.305882
0.937255 0.000000 0.278431
1.000000 0.000000 0.258824
0.000000 0.309804 0.313725
0.337255 0.286275 0.333333
0.596078 0.262745 0.286275
0.894118 0.113725 0.266667
1.000000 0.000000 0.254902
0.000000 0.545098 0.254902
0.301961 0.533333 0.258824
0.592157 0.509804 0.286275
0.847059 0.490196 0.266667
1.000000 0.435294 0.247059
0.000000 0.796078 0.200000
0.090196 0.792157 0.207843
0.525490 0.780392 0.223529
0.831373 0.760784 0.243137
1.000000 0.741176 0.235294
0.000000 1.000000 0.101961
0.000000 1.000000 0.101961
0.384314 1.000000 0.109804
0.745098 1.000000 0.121569
1.000000 0.984314 0.109804
0.250980 0.000000 0.635294
0.443137 0.000000 0.631373
0.729412 0.000000 0.611765
0.972549 0.000000 0.560784
1.000000 0.000000 0.529412
0.129412 0.278431 0.639216
0.388235 0.247059 0.627451
0.674510 0.141176 0.576471
0.933333 0.000000 0.541176
1.000000 0.000000 0.521569
0.000000 0.549020 0.549020
0.176471 0.545098 0.545098
0.572549 0.513725 0.564706
0.827451 0.505882 0.517647
1.000000 0.435294 0.513725
0.000000 0.800000 0.498039
0.070588 0.792157 0.498039
0.545098 0.776471 0.505882
0.847059 0.756863 0.537255
1.000000 0.745098 0.521569
0.000000 1.000000 0.462745
0.000000 1.000000 0.462745
0.403922 1.000000 0.462745
0.764706 1.000000 0.466667
1.000000 0.980392 0.466667
0.372549 0.000000 0.945098
0.513725 0.000000 0.945098
0.756863 0.000000 0.913725
1.000000 0.000000 0.858824
1.000000 0.000000 0.815686
0.286275 0.227451 0.933333
0.443137 0.188235 0.917647
0.705882 0.000000 0.886275
0.976471 0.000000 0.843137
1.000000 0.000000 0.807843
0.000000 0.533333 0.874510
0.231373 0.521569 0.870588
0.615686 0.486275 0.854902
0.921569 0.427451 0.815686
1.000000 0.360784 0.788235
0.000000 0.800000 0.796078
0.000000 0.800000 0.796078
0.443137 0.788235 0.792157
0.819608 0.756863 0.811765
1.000000 0.760784 0.768627
0.000000 1.000000 0.745098
0.000000 1.000000 0.745098
0.384314 1.000000 0.737255
0.776471 1.000000 0.737255
1.000000 0.964706 0.752941
0.494118 0.000000 1.000000
0.584314 0.000000 1.000000
0.784314 0.000000 1.000000
1.000000 0.000000 1.000000
1.000000 0.000000 1.000000
0.396078 0.101961 1.000000
0.505882 0.000000 1.000000
0.733333 0.000000 1.000000
0.996078 0.000000 1.000000
1.000000 0.000000 1.000000
0.054902 0.498039 1.000000
0.333333 0.486275 1.000000
0.639216 0.447059 1.000000
0.945098 0.380392 1.000000
1.000000 0.250980 1.000000
0.000000 0.788235 1.000000
0.000000 0.784314 1.000000
0.474510 0.768627 1.000000
0.858824 0.729412 1.000000
1.000000 0.694118 1.000000
0.000000 1.000000 1.000000
0.000000 1.000000 1.000000
0.168627 1.000000 1.000000
0.670588 1.000000 1.000000
1.000000 0.956863 1.000000
