lut/65516fe1-fc69-419a-893f-192438a187db.cube
TITLE "Magenta Dawn"
LUT_3D_SIZE 9
0.062745 0.000000 0.058824
0.141176 0.000000 0.000000
0.317647 0.000000 0.031373
0.498039 0.000000 0.058824
0.670588 0.000000 0.062745
0.811765 0.000000 0.054902
0.937255 0.000000 0.039216
1.000000 0.000000 0.031373
1.000000 0.000000 0.023529
0.086275 0.133333 0.023529
0.219608 0.125490 0.074510
0.329412 0.145098 0.062745
0.490196 0.121569 0.054902
0.654902 0.058824 0.054902
0.792157 0.000000 0.039216
0.921569 0.000000 0.031373
1.000000 0.000000 0.019608
1.000000 0.000000 0.015686
0.117647 0.305882 0.035294
0.235294 0.301961 0.058824
0.368627 0.294118 0.082353
0.498039 0.286275 0.074510
0.631373 0.258824 0.054902
0.764706 0.207843 0.035294
0.898039 0.109804 0.015686
1.000000 0.000000 0.003922
1.000000 0.000000 0.000000
0.086275 0.439216 0.011765
0.203922 0.435294 0.023529
0.345098 0.423529 0.047059
0.478431 0.407843 0.062745
0.603922 0.392157 0.050980
0.733333 0.364706 0.019608
0.866667 0.325490 0.000000
1.000000 0.270588 0.000000
1.000000 0.188235 0.000000
0.000000 0.545098 0.000000
0.113725 0.545098 0.000000
0.290196 0.537255 0.000000
0.439216 0.525490 0.000000
0.580392 0.513725 0.003922
0.713725 0.498039 0.000000
0.850980 0.482353 0.000000
0.996078 0.458824 0.000000
1.000000 0.423529 0.000000
0.000000 0.658824 0.000000
0.000000 0.654902 0.000000
0.203922 0.654902 0.000000
0.388235 0.647059 0.000000
0.549020 0.643137 0.000000
0.698039 0.635294 0.000000
0.835294 0.619608 0.000000
0.980392 0.607843 0.000000
1.000000 0.588235 0.000000
0.000000 0.792157 0.000000
0.000000 0.788235 0.000000
0.031373 0.788235 0.000000
0.333333 0.784314 0.000000
0.513725 0.776471 0.000000
0.670588 0.768627 0.000000
0.819608 0.760784 0.000000
0.964706 0.749020 0.000000
1.000000 0.737255 0.000000
0.000000 0.921569 0.000000
0.000000 0.921569 0.000000
0.000000 0.921569 0.000000
0.239216 0.917647 0.000000
0.462745 0.913725 0.000000
0.639216 0.909804 0.000000
0.803922 0.905882 0.000000
0.952941 0.898039 0.000000
1.000000 0.878431 0.000000
0.000000 1.000000 0.000000
0.000000 1.000000 0.000000
0.000000 1.000000 0.000000
0.000000 1.000000 0.000000
0.372549 1.000000 0.000000
0.568627 1.000000 0.000000
0.733333 1.000000 0.000000
0.886275 0.996078 0.000000
1.000000 0.976471 0.000000
0.082353 0.000000 0.168627
0.192157 0.000000 0.145098
0.349020 0.000000 0.149020
0.501961 0.000000 0.160784
0.666667 0.000000 0.172549
0.807843 0.000000 0.164706
0.933333 0.000000 0.152941
1.000000 0.000000 0.141176
1.000000 0.000000 0.133333
0.000000 0.149020 0.156863
0.188235 0.141176 0.184314
0.301961 0.156863 0.152941
0.474510 0.129412 0.160784
0.643137 0.054902 0.164706
0.780392 0.000000 0.156863
0.917647 0.000000 0.145098
1.000000 0.000000 0.137255
1.000000 0.000000 0.129412
0.105882 0.301961 0.160784
0.239216 0.294118 0.172549
0.380392 0.278431 0.203922
0.478431 0.286275 0.184314
0.615686 0.262745 0.168627
0.756863 0.211765 0.152941
0.894118 0.117647 0.141176
1.000000 0.000000 0.129412
1.000000 0.000000 0.121569
0.082353 0.431373 0.149020
0.203922 0.427451 0.152941
0.349020 0.415686 0.164706
0.482353 0.403922 0.180392
0.600000 0.388235 0.168627
0.729412 0.368627 0.145098
0.862745 0.329412 0.129412
1.000000 0.274510 0.113725
1.000000 0.192157 0.105882
0.000000 0.545098 0.109804
0.117647 0.541176 0.109804
0.294118 0.533333 0.121569
0.447059 0.525490 0.133333
0.584314 0.513725 0.145098
0.713725 0.501961 0.141176
0.850980 0.486275 0.125490
0.996078 0.462745 0.117647
1.000000 0.427451 0.101961
0.000000 0.658824 0.035294
0.000000 0.658824 0.039216
0.211765 0.654902 0.050980
0.396078 0.647059 0.074510
0.556863 0.643137 0.098039
0.701961 0.635294 0.113725
0.839216 0.623529 0.109804
0.980392 0.611765 0.101961
1.000000 0.592157 0.086275
0.000000 0.792157 0.000000
0.000000 0.792157 0.000000
0.058824 0.792157 0.000000
0.341176 0.788235 0.000000
0.517647 0.780392 0.007843
0.674510 0.772549 0.043137
0.823529 0.760784 0.066667
0.964706 0.749020 0.062745
1.000000 0.737255 0.050980
0.000000 0.925490 0.000000
0.000000 0.925490 0.000000
0.000000 0.921569 0.000000
0.247059 0.921569 0.000000
0.466667 0.917647 0.000000
0.643137 0.913725 0.000000
0.803922 0.905882 0.000000
0.956863 0.898039 0.000000
1.000000 0.882353 0.000000
0.000000 1.000000 0.000000
0.000000 1.000000 0.000000
0.000000 1.000000 0.000000
0.000000 1.000000 0.000000
0.376471 1.000000 0.000000
0.572549 1.000000 0.000000
0.741176 1.000000 0.000000
0.890196 1.000000 0.000000
1.000000 0.980392 0.000000
0.086275 0.000000 0.317647
0.227451 0.000000 0.309804
0.396078 0.000000 0.317647
0.537255 0.000000 0.305882
0.682353 0.000000 0.305882
0.811765 0.000000 0.294118
0.937255 0.000000 0.278431
1.000000 0.000000 0.266667
1.000000 0.000000 0.258824
0.058824 0.137255 0.333333
0.223529 0.117647 0.333333
0.380392 0.066667 0.309804
0.513725 0.035294 0.298039
0.650980 0.000000 0.294118
0.780392 0.000000 0.282353
0.917647 0.000000 0.270588
1.000000 0.000000 0.262745
1.000000 0.000000 0.254902
0.000000 0.309804 0.313725
0.152941 0.305882 0.313725
0.337255 0.286275 0.333333
0.447059 0.294118 0.290196
0.596078 0.262745 0.286275
0.749020 0.207843 0.278431
0.894118 0.113725 0.266667
1.000000 0.000000 0.258824
1.000000 0.000000 0.254902
0.007843 0.427451 0.278431
0.184314 0.423529 0.278431
0.356863 0.407843 0.286275
0.498039 0.388235 0.317647
0.584314 0.392157 0.290196
0.713725 0.372549 0.274510
0.858824 0.337255 0.258824
1.000000 0.278431 0.247059
1.000000 0.200000 0.243137
0.000000 0.545098 0.254902
0.117647 0.541176 0.254902
0.301961 0.533333 0.258824
0.458824 0.521569 0.274510
0.592157 0.509804 0.286275
0.713725 0.501961 0.278431
0.847059 0.490196 0.266667
0.996078 0.470588 0.254902
1.000000 0.435294 0.247059
0.000000 0.662745 0.223529
0.000000 0.658824 0.223529
0.223529 0.654902 0.231373
0.407843 0.650980 0.239216
0.564706 0.643137 0.254902
0.709804 0.635294 0.266667
0.839216 0.623529 0.262745
0.980392 0.615686 0.254902
1.000000 0.596078 0.243137
0.000000 0.796078 0.200000
0.000000 0.796078 0.203922
0.090196 0.792157 0.207843
0.352941 0.788235 0.211765
0.525490 0.780392 0.223529
0.682353 0.772549 0.235294
0.831373 0.760784 0.243137
0.968627 0.752941 0.239216
1.000000 0.741176 0.235294
0.000000 0.925490 0.164706
0.000000 0.925490 0.168627
0.000000 0.925490 0.172549
0.262745 0.921569 0.176471
0.474510 0.917647 0.188235
0.650980 0.913725 0.200000
0.811765 0.905882 0.215686
0.960784 0.898039 0.223529
1.000000 0.882353 0.219608
0.000000 1.000000 0.101961
0.000000 1.000000 0.101961
0.000000 1.000000 0.101961
0.000000 1.000000 0.105882
0.384314 1.000000 0.109804
0.580392 1.000000 0.113725
0.745098 1.000000 0.121569
0.898039 1.000000 0.121569
1.000000 0.984314 0.109804
0.172549 0.000000 0.466667
0.270588 0.000000 0.470588
0.423529 0.000000 0.478431
0.564706 0.000000 0.466667
0.709804 0.000000 0.458824
0.831373 0.000000 0.435294
0.952941 0.000000 0.415686
1.000000 0.000000 0.400000
1.000000 0.000000 0.392157
0.149020 0.109804 0.486275
0.250980 0.086275 0.482353
0.396078 0.000000 0.466667
0.545098 0.000000 0.454902
0.682353 0.000000 0.439216
0.803922 0.000000 0.419608
0.933333 0.000000 0.407843
1.000000 0.000000 0.396078
1.000000 0.000000 0.384314
0.000000 0.301961 0.486275
0.184314 0.290196 0.486275
0.368627 0.266667 0.478431
0.525490 0.231373 0.450980
0.643137 0.207843 0.423529
0.772549 0.164706 0.407843
0.905882 0.043137 0.400000
1.000000 0.000000 0.392157
1.000000 0.000000 0.388235
0.000000 0.431373 0.431373
0.011765 0.427451 0.431373
0.270588 0.423529 0.431373
0.454902 0.400000 0.450980
0.560784 0.403922 0.400000
0.705882 0.380392 0.396078
0.858824 0.333333 0.388235
1.000000 0.274510 0.380392
1.000000 0.192157 0.376471
0.000000 0.545098 0.392157
0.035294 0.541176 0.392157
0.282353 0.533333 0.392157
0.470588 0.517647 0.400000
0.615686 0.498039 0.431373
0.701961 0.509804 0.407843
0.835294 0.498039 0.396078
0.988235 0.474510 0.388235
1.000000 0.439216 0.380392
0.000000 0.662745 0.368627
0.000000 0.662745 0.368627
0.223529 0.654902 0.372549
0.415686 0.647059 0.376471
0.584314 0.639216 0.396078
0.717647 0.631373 0.411765
0.839216 0.627451 0.403922
0.976471 0.619608 0.392157
1.000000 0.603922 0.384314
0.000000 0.796078 0.356863
0.000000 0.796078 0.356863
0.101961 0.792157 0.356863
0.360784 0.788235 0.360784
0.537255 0.776471 0.368627
0.694118 0.768627 0.380392
0.835294 0.760784 0.392157
0.968627 0.752941 0.388235
1.000000 0.741176 0.380392
0.000000 0.929412 0.337255
0.000000 0.929412 0.337255
0.000000 0.925490 0.337255
0.274510 0.921569 0.341176
0.486275 0.917647 0.349020
0.658824 0.913725 0.360784
0.819608 0.905882 0.372549
0.964706 0.894118 0.376471
1.000000 0.882353 0.372549
0.000000 1.000000 0.309804
0.000000 1.000000 0.305882
0.000000 1.000000 0.305882
0.000000 1.000000 0.309804
0.396078 1.000000 0.309804
0.588235 1.000000 0.309804
0.756863 1.000000 0.313725
0.905882 1.000000 0.313725
1.000000 0.980392 0.309804
0.250980 0.000000 0.635294
0.329412 0.000000 0.639216
0.443137 0.000000 0.631373
0.588235 0.000000 0.627451
0.729412 0.000000 0.611765
0.850980 0.000000 0.584314
0.972549 0.000000 0.560784
1.000000 0.000000 0.541176
1.000000 0.000000 0.529412
0.207843 0.047059 0.631373
0.286275 0.003922 0.627451
0.415686 0.000000 0.619608
0.560784 0.000000 0.611765
0.701961 0.000000 0.592157
0.827451 0.000000 0.568627
0.952941 0.000000 0.549020
1.000000 0.000000 0.533333
1.000000 0.000000 0.521569
0.129412 0.278431 0.639216
0.239216 0.270588 0.635294
0.388235 0.247059 0.627451
0.537255 0.203922 0.603922
0.674510 0.141176 0.576471
0.803922 0.027451 0.556863
0.933333 0.000000 0.541176
1.000000 0.000000 0.529412
1.000000 0.000000 0.521569
0.000000 0.423529 0.600000
0.000000 0.419608 0.603922
0.290196 0.407843 0.600000
0.482353 0.380392 0.588235
0.643137 0.349020 0.560784
0.760784 0.329412 0.533333
0.886275 0.301961 0.521569
1.000000 0.243137 0.513725
1.000000 0.152941 0.509804
0.000000 0.549020 0.549020
0.000000 0.549020 0.549020
0.176471 0.545098 0.545098
0.388235 0.533333 0.545098
0.572549 0.513725 0.564706
0.682353 0.521569 0.517647
0.827451 0.505882 0.517647
0.992157 0.474510 0.517647
1.000000 0.435294 0.513725
0.000000 0.666667 0.509804
0.000000 0.662745 0.509804
0.172549 0.658824 0.509804
0.396078 0.654902 0.509804
0.596078 0.635294 0.521569
0.745098 0.619608 0.556863
0.827451 0.631373 0.533333
0.960784 0.627451 0.525490
1.000000 0.607843 0.517647
0.000000 0.800000 0.498039
0.000000 0.796078 0.498039
0.070588 0.792157 0.498039
0.356863 0.788235 0.501961
0.545098 0.776471 0.505882
0.713725 0.764706 0.521569
0.847059 0.756863 0.537255
0.968627 0.752941 0.529412
1.000000 0.745098 0.521569
0.000000 0.929412 0.482353
0.000000 0.929412 0.482353
0.000000 0.925490 0.486275
0.278431 0.921569 0.490196
0.494118 0.917647 0.494118
0.670588 0.909804 0.501961
0.831373 0.901961 0.517647
0.972549 0.890196 0.525490
1.000000 0.882353 0.521569
0.000000 1.000000 0.462745
0.000000 1.000000 0.462745
0.000000 1.000000 0.462745
0.027451 1.000000 0.462745
0.403922 1.000000 0.462745
0.600000 1.000000 0.462745
0.764706 1.000000 0.466667
0.913725 0.996078 0.466667
1.000000 0.980392 0.466667
0.317647 0.000000 0.796078
0.368627 0.000000 0.792157
0.470588 0.000000 0.784314
0.611765 0.000000 0.784314
0.745098 0.000000 0.764706
0.866667 0.000000 0.733333
0.992157 0.000000 0.709804
1.000000 0.000000 0.686275
1.000000 0.000000 0.670588
0.266667 0.000000 0.776471
0.329412 0.000000 0.776471
0.447059 0.000000 0.772549
0.580392 0.000000 0.764706
0.713725 0.000000 0.745098
0.847059 0.000000 0.721569
0.976471 0.000000 0.698039
1.000000 0.000000 0.678431
1.000000 0.000000 0.662745
0.219608 0.258824 0.788235
0.290196 0.247059 0.784314
0.411765 0.223529 0.772549
0.552941 0.172549 0.756863
0.694118 0.078431 0.733333
0.827451 0.000000 0.709804
0.960784 0.000000 0.690196
1.000000 0.000000 0.674510
1.000000 0.000000 0.662745
0.000000 0.407843 0.756863
0.149020 0.403922 0.756863
0.329412 0.392157 0.752941
0.498039 0.368627 0.741176
0.654902 0.329412 0.717647
0.792157 0.286275 0.690196
0.921569 0.239216 0.670588
1.000000 0.168627 0.654902
1.000000 0.000000 0.647059
0.000000 0.545098 0.717647
0.000000 0.545098 0.717647
0.164706 0.537255 0.717647
0.403922 0.525490 0.713725
0.600000 0.498039 0.705882
0.764706 0.470588 0.678431
0.890196 0.462745 0.658824
1.000000 0.443137 0.650980
1.000000 0.407843 0.647059
0.000000 0.666667 0.662745
0.000000 0.666667 0.662745
0.000000 0.666667 0.666667
0.309804 0.662745 0.666667
0.509804 0.654902 0.666667
0.694118 0.635294 0.686275
0.811765 0.643137 0.639216
0.949020 0.631373 0.643137
1.000000 0.603922 0.643137
0.000000 0.800000 0.643137
0.000000 0.800000 0.639216
0.000000 0.796078 0.639216
0.313725 0.788235 0.639216
0.521569 0.780392 0.635294
0.721569 0.760784 0.647059
0.874510 0.741176 0.678431
0.952941 0.756863 0.654902
1.000000 0.752941 0.650980
0.000000 0.929412 0.623529
0.000000 0.929412 0.623529
0.000000 0.925490 0.627451
0.258824 0.921569 0.627451
0.490196 0.917647 0.631373
0.678431 0.905882 0.639216
0.847059 0.894118 0.654902
0.980392 0.886275 0.670588
1.000000 0.878431 0.658824
0.000000 1.000000 0.603922
0.000000 1.000000 0.603922
0.000000 1.000000 0.603922
0.000000 1.000000 0.603922
0.403922 1.000000 0.600000
0.603922 1.000000 0.600000
0.772549 1.000000 0.603922
0.921569 0.992157 0.607843
1.000000 0.972549 0.607843
0.372549 0.000000 0.945098
0.419608 0.000000 0.945098
0.513725 0.000000 0.945098
0.631373 0.000000 0.933333
0.756863 0.000000 0.913725
0.878431 0.000000 0.886275
1.000000 0.000000 0.858824
1.000000 0.000000 0.835294
1.000000 0.000000 0.815686
0.333333 0.000000 0.929412
0.384314 0.000000 0.929412
0.478431 0.000000 0.925490
0.600000 0.000000 0.913725
0.729412 0.000000 0.894118
0.858824 0.000000 0.870588
0.988235 0.000000 0.847059
1.000000 0.000000 0.827451
1.000000 0.000000 0.807843
0.286275 0.227451 0.933333
0.337255 0.215686 0.929412
0.443137 0.188235 0.917647
0.568627 0.125490 0.901961
0.705882 0.000000 0.886275
0.843137 0.000000 0.862745
0.976471 0.000000 0.843137
1.000000 0.000000 0.823529
1.000000 0.000000 0.807843
0.125490 0.388235 0.901961
0.223529 0.384314 0.901961
0.364706 0.372549 0.894118
0.513725 0.349020 0.882353
0.662745 0.309804 0.866667
0.807843 0.254902 0.843137
0.941176 0.180392 0.819608
1.000000 0.003922 0.803922
1.000000 0.000000 0.792157
0.000000 0.533333 0.874510
0.000000 0.529412 0.874510
0.231373 0.521569 0.870588
0.435294 0.509804 0.866667
0.615686 0.486275 0.854902
0.776471 0.454902 0.835294
0.921569 0.427451 0.815686
1.000000 0.396078 0.800000
1.000000 0.360784 0.788235
0.000000 0.666667 0.831373
0.000000 0.666667 0.831373
0.000000 0.662745 0.835294
0.301961 0.658824 0.839216
0.525490 0.647059 0.835294
0.721569 0.619608 0.827451
0.894118 0.596078 0.803922
1.000000 0.588235 0.780392
1.000000 0.576471 0.776471
0.000000 0.800000 0.796078
0.000000 0.800000 0.796078
0.000000 0.800000 0.796078
0.196078 0.796078 0.792157
0.443137 0.788235 0.792157
0.635294 0.780392 0.788235
0.819608 0.756863 0.811765
0.937255 0.760784 0.760784
1.000000 0.760784 0.768627
0.000000 0.929412 0.768627
0.000000 0.929412 0.768627
0.000000 0.929412 0.768627
0.172549 0.925490 0.768627
0.450980 0.921569 0.768627
0.654902 0.909804 0.768627
0.854902 0.890196 0.776471
1.000000 0.870588 0.811765
1.000000 0.882353 0.784314
0.000000 1.000000 0.745098
0.000000 1.000000 0.745098
0.000000 1.000000 0.745098
0.000000 1.000000 0.741176
0.384314 1.000000 0.737255
0.596078 1.000000 0.733333
0.776471 1.000000 0.737255
0.937255 0.980392 0.745098
1.000000 0.964706 0.752941
0.439216 0.000000 1.000000
0.474510 0.000000 1.000000
0.552941 0.000000 1.000000
0.654902 0.000000 1.000000
0.768627 0.000000 1.000000
0.890196 0.000000 1.000000
1.000000 0.000000 1.000000
1.000000 0.000000 0.980392
1.000000 0.000000 0.960784
0.396078 0.000000 1.000000
0.435294 0.000000 1.000000
0.517647 0.000000 1.000000
0.623529 0.000000 1.000000
0.745098 0.000000 1.000000
0.874510 0.000000 1.000000
1.000000 0.000000 0.996078
1.000000 0.000000 0.972549
1.000000 0.000000 0.956863
0.345098 0.180392 1.000000
0.384314 0.168627 1.000000
0.474510 0.129412 1.000000
0.592157 0.023529 1.000000
0.721569 0.000000 1.000000
0.854902 0.000000 1.000000
0.988235 0.000000 0.992157
1.000000 0.000000 0.972549
1.000000 0.000000 0.956863
0.219608 0.368627 1.000000
0.286275 0.364706 1.000000
0.400000 0.349020 1.000000
0.533333 0.325490 1.000000
0.674510 0.282353 1.000000
0.815686 0.219608 0.992157
0.952941 0.105882 0.972549
1.000000 0.000000 0.952941
1.000000 0.000000 0.941176
0.000000 0.517647 1.000000
0.062745 0.513725 1.000000
0.290196 0.505882 1.000000
0.462745 0.490196 1.000000
0.627451 0.470588 1.000000
0.784314 0.439216 0.984314
0.937255 0.403922 0.968627
1.000000 0.356863 0.949020
1.000000 0.309804 0.937255
0.000000 0.658824 0.992157
0.000000 0.654902 0.992157
0.000000 0.654902 0.992157
0.349020 0.647059 0.992157
0.552941 0.627451 0.988235
0.733333 0.603922 0.976471
0.901961 0.580392 0.960784
1.000000 0.556863 0.941176
1.000000 0.537255 0.925490
0.000000 0.800000 0.956863
0.000000 0.796078 0.956863
0.000000 0.796078 0.956863
0.129412 0.788235 0.960784
0.435294 0.784314 0.960784
0.650980 0.768627 0.960784
0.847059 0.741176 0.949020
1.000000 0.721569 0.925490
1.000000 0.717647 0.909804
0.000000 0.929412 0.921569
0.000000 0.929412 0.921569
0.000000 0.929412 0.921569
0.000000 0.929412 0.921569
0.364706 0.925490 0.925490
0.584314 0.921569 0.925490
0.768627 0.913725 0.921569
0.949020 0.886275 0.941176
1.000000 0.882353 0.882353
0.000000 1.000000 0.890196
0.000000 1.000000 0.886275
0.000000 1.000000 0.886275
0.000000 1.000000 0.882353
0.317647 1.000000 0.874510
0.552941 1.000000 0.866667
0.749020 1.000000 0.858824
0.941176 0.972549 0.858824
1.000000 0.945098 0.886275
0.494118 0.000000 1.000000
0.521569 0.000000 1.000000
0.584314 0.000000 1.000000
0.674510 0.000000 1.000000
0.784314 0.000000 1.000000
0.901961 0.000000 1.000000
1.000000 0.000000 1.000000
1.000000 0.000000 1.000000
1.000000 0.000000 1.000000
0.450980 0.000000 1.000000
0.482353 0.000000 1.000000
0.549020 0.000000 1.000000
0.647059 0.000000 1.000000
0.760784 0.000000 1.000000
0.886275 0.000000 1.000000
1.000000 0.000000 1.000000
1.000000 0.000000 1.000000
1.000000 0.000000 1.000000
0.396078 0.101961 1.000000
0.431373 0.078431 1.000000
0.505882 0.000000 1.000000
0.611765 0.000000 1.000000
0.733333 0.000000 1.000000
0.862745 0.000000 1.000000
0.996078 0.000000 1.000000
1.000000 0.000000 1.000000
1.000000 0.000000 1.000000
0.286275 0.341176 1.000000
0.337255 0.333333 1.000000
0.431373 0.321569 1.000000
0.552941 0.290196 1.000000
0.686275 0.247059 1.000000
0.823529 0.168627 1.000000
0.964706 0.000000 1.000000
1.000000 0.000000 1.000000
1.000000 0.000000 1.000000
0.054902 0.498039 1.000000
0.184314 0.494118 1.000000
0.333333 0.486275 1.000000
0.486275 0.470588 1.000000
0.639216 0.447059 1.000000
0.792157 0.419608 1.000000
0.945098 0.380392 1.000000
1.000000 0.325490 1.000000
1.000000 0.250980 1.000000
0.000000 0.647059 1.000000
0.000000 0.643137 1.000000
0.152941 0.639216 1.000000
0.392157 0.631373 1.000000
0.572549 0.611765 1.000000
0.749020 0.592157 1.000000
0.909804 0.568627 1.000000
1.000000 0.537255 1.000000
1.000000 0.505882 1.000000
0.000000 0.788235 1.000000
0.000000 0.788235 1.000000
0.000000 0.784314 1.000000
0.203922 0.780392 1.000000
0.474510 0.768627 1.000000
0.674510 0.752941 1.000000
0.858824 0.729412 1.000000
1.000000 0.709804 1.000000
1.000000 0.694118 1.000000
0.000000 0.929412 1.000000
0.000000 0.929412 1.000000
0.000000 0.929412 1.000000
0.000000 0.925490 1.000000
0.333333 0.925490 1.000000
0.576471 0.917647 1.000000
0.780392 0.898039 1.000000
0.976471 0.866667 1.000000
1.000000 0.835294 1.000000
0.000000 1.000000 1.000000
0.000000 1.000000 1.000000
0.000000 1.000000 1.000000
0.000000 1.000000 1.000000
0.168627 1.000000 1.000000
0.474510 1.000000 1.000000
0.670588 1.000000 1.000000
0.847059 0.988235 1.000000
1.000000 0.956863 1.000000
