lut/6607e298-e1ec-440e-b755-349dd54d58bd.cube
TITLE "Vibrant Warm Enhancer"
LUT_3D_SIZE 5
0 0 0
0.249378 0.0481117 0.0386664
0.493263 0 0
0.757595 0 0
0.93167 0 0
0.0449378 0.214572 0.0389563
0.28716 0.225269 0.0719768
0.524376 0.194049 0.00616464
0.799451 0.192599 0
0.999313 0.230213 0.0272068
0 0.482277 0
0.212741 0.504952 0.00665293
0.520256 0.513695 0
0.809277 0.525124 0
1 0.556924 0.0312352
0 0.802533 0
0.218158 0.82501 0.0151675
0.534478 0.818631 0.0087892
0.815625 0.815625 0.00578317
0.995102 0.832837 0.0229953
0.0813611 1 0.0813611
0.290791 1 0.0878004
0.589288 1 0.0635996
0.85391 1 0.0440681
1 1 0.0411536
0 0 0.20087
0.207706 0.00505074 0.193179
0.495262 0 0.165774
0.758053 0 0.151202
0.934173 0 0.165072
0 0.197147 0.194263
0.202991 0.202991 0.202991
0.550881 0.211292 0.173892
0.808728 0.202335 0.201266
1 0.24062 0.24062
0 0.491325 0.168811
0.252308 0.508614 0.187579
0.580072 0.496315 0.176623
0.818769 0.523995 0.202213
1 0.564385 0.241688
0.000503548 0.810346 0.203494
0.226276 0.831342 0.225086
0.554208 0.802945 0.211093
0.819181 0.819181 0.212329
0.996704 0.834455 0.227604
0.0842908 1 0.287282
0.29163 1 0.29163
0.588922 1 0.266224
0.851545 1 0.244694
1 1 0.237522
0 0 0.514
0.187564 0 0.510216
0.482322 0 0.481971
0.750362 0 0.466224
0.929061 0 0.482658
0 0.188128 0.510826
0.198779 0.198779 0.521477
0.522042 0.196246 0.502693
0.810513 0.205661 0.517296
1 0.242161 0.564858
0 0.49395 0.493843
0.206302 0.522774 0.519005
0.525689 0.525689 0.525689
0.820478 0.512871 0.46392
1 0.562234 0.56083
0 0.809567 0.525414
0.228656 0.825071 0.53994
0.543954 0.809064 0.522652
0.813382 0.813382 0.529229
0.989044 0.826795 0.542641
0.0776837 1 0.603372
0.283436 1 0.606134
0.579507 1 0.579507
0.838605 1 0.554452
0.990738 0.990738 0.544335
0 0 0.790906
0.180529 0 0.787366
0.476265 0 0.760418
0.74638 0 0.74638
0.927565 0 0.765301
0 0.185077 0.791913
0.198489 0.198489 0.805341
0.518639 0.195941 0.802747
0.814328 0.207538 0.813931
1 0.246494 0.853346
0 0.498482 0.78262
0.20499 0.527687 0.811841
0.528176 0.528176 0.812329
0.819242 0.530785 0.797955
1 0.563287 0.845792
0.00112917 0.810971 0.810971
0.223255 0.829847 0.829725
0.535531 0.817182 0.815732
0.809842 0.809842 0.809842
0.983413 0.821164 0.821164
0.0733501 1 0.883192
0.277577 1 0.884428
0.57229 1 0.856443
0.827543 0.989792 0.827543
0.977508 0.977508 0.815259
0 0 0.954864
0.182559 0 0.951675
0.479469 0 0.925887
0.751858 0 0.914107
0.93611 0 0.93611
0 0.191714 0.96083
0.207996 0.207996 0.977111
0.530861 0.208164 0.977264
0.827771 0.22092 0.990021
1 0.258961 1
0 0.511833 0.958236
0.217197 0.539895 0.986313
0.539345 0.539345 0.985748
0.828641 0.544488 0.99086
1 0.572259 1
0.0110018 0.820844 0.983093
0.231571 0.838407 1
0.540841 0.824994 0.987259
0.814206 0.814206 0.976455
0.986389 0.82414 0.986389
0.0771191 1 1
0.28014 1 1
0.572778 1 1
0.823789 0.986038 0.986038
0.972107 0.972107 0.972107
