lut/6607e298-e1ec-440e-b755-349dd54d58bd.cube
TITLE "Vibrant Warm Enhancer"
LUT_3D_SIZE 9
0 0 0
0.103105 0.00952163 0.00775158
0.249378 0.0481117 0.0386664
0.362692 0.0134279 0.0077821
0.493263 0 0
0.634134 0 0
0.757595 0 0
0.860273 0 0
0.93167 0 0
0.0465095 0.12462 0.0411536
0.176425 0.141695 0.0649577
0.278462 0.139544 0.0641947
0.387884 0.114092 0.0342565
0.506004 0.074052 0
0.644038 0.0570993 0
0.773083 0.0559854 0
0.881712 0.0627909 0
0.960388 0.0810559 0
0.0449378 0.214572 0.0389563
0.171969 0.222385 0.060853
0.28716 0.225269 0.0719768
0.404074 0.213336 0.0509957
0.524376 0.194049 0.00616464
0.66276 0.186053 0
0.799451 0.192599 0
0.915206 0.206531 0.00352483
0.999313 0.230213 0.0272068
0 0.326741 0
0.130922 0.335409 0.0253147
0.25745 0.341939 0.0452735
0.390921 0.342733 0.0371099
0.527993 0.344289 0.00880446
0.672679 0.349462 0
0.811902 0.358557 0.00205997
0.928267 0.373083 0.0165866
1 0.395666 0.0391699
0 0.482277 0
0.0794537 0.495552 0
0.212741 0.504952 0.00665293
0.364584 0.508949 0.00907912
0.520256 0.513695 0
0.672541 0.518532 0
0.809277 0.525124 0
0.922988 0.536995 0.0113069
1 0.556924 0.0312352
0 0.649165 0
0.0781567 0.66511 0
0.199619 0.676326 0
0.35433 0.677546 0
0.520653 0.674662 0
0.674968 0.674968 0
0.809415 0.679286 0
0.920424 0.688441 0.00874342
0.997925 0.705531 0.0258335
0 0.802533 0
0.0988327 0.815915 0.00607309
0.218158 0.82501 0.0151675
0.370932 0.824277 0.014435
0.534478 0.818631 0.0087892
0.685283 0.815412 0.00556954
0.815625 0.815625 0.00578317
0.922271 0.820432 0.0105898
0.995102 0.832837 0.0229953
0.0282902 0.939971 0.0282902
0.131701 0.950622 0.038941
0.247318 0.956008 0.0443275
0.39556 0.950744 0.0390631
0.55491 0.940902 0.029221
0.700847 0.932815 0.0211337
0.82652 0.928359 0.0166781
0.928588 0.928588 0.016907
0.99733 0.936919 0.0252384
0.0813611 1 0.0813611
0.179919 1 0.0871595
0.290791 1 0.0878004
0.434287 1 0.0777905
0.589288 1 0.0635996
0.731441 1 0.0517281
0.85391 1 0.0440681
0.951431 1 0.0397498
1 1 0.0411536
0 0 0.0916457
0.102831 0.00929274 0.0937667
0.229725 0.0277562 0.0923171
0.362799 0.0132906 0.0786603
0.4963 0 0.0603037
0.634379 0 0.047425
0.758389 0 0.0413062
0.861463 0 0.0425422
0.933394 0 0.0540475
0.00390631 0.0953078 0.093431
0.0927596 0.0927596 0.0927596
0.252415 0.12372 0.0992752
0.38938 0.115785 0.0881819
0.517647 0.0868849 0.0713512
0.646601 0.0602121 0.0594186
0.77583 0.0587472 0.0587472
0.885237 0.066331 0.066331
0.964477 0.0851453 0.0851453
0.0185702 0.205539 0.092607
0.140093 0.214954 0.0996719
0.278431 0.225803 0.106874
0.41648 0.220905 0.101244
0.547982 0.208057 0.090837
0.671809 0.194781 0.0827955
0.804501 0.197665 0.0874189
0.921004 0.212314 0.102083
1 0.235935 0.125704
0 0.330526 0.0721294
0.132631 0.34052 0.0875257
0.271687 0.34876 0.101289
0.424353 0.349142 0.104906
0.562509 0.348455 0.100664
0.687007 0.354192 0.0963912
0.817639 0.364279 0.100557
0.933776 0.378576 0.114855
1 0.400595 0.136858
0 0.487221 0.0572824
0.1037 0.497826 0.0793164
0.250172 0.502434 0.0978103
0.409201 0.499916 0.103471
0.555611 0.501945 0.100038
0.685222 0.515206 0.0950942
0.813886 0.529732 0.0968032
0.927459 0.541482 0.108537
1 0.561395 0.128466
0 0.654688 0.0677348
0.0843519 0.669703 0.0835279
0.21677 0.67425 0.0972152
0.378271 0.667979 0.10045
0.53814 0.665431 0.096788
0.681407 0.674464 0.0935225
0.813474 0.683345 0.0963912
0.923995 0.692027 0.105074
1 0.708751 0.121813
0 0.807172 0.0900893
0.103365 0.820447 0.103365
0.2224 0.829252 0.112169
0.374609 0.82797 0.110887
0.537972 0.822126 0.105028
0.688075 0.818219 0.101137
0.818128 0.818128 0.101045
0.924315 0.822477 0.105394
0.996628 0.834379 0.117296
0.0320439 0.943725 0.124804
0.135027 0.953948 0.135027
0.250141 0.958816 0.13991
0.39791 0.953094 0.134173
0.556802 0.942794 0.123873
0.702052 0.934035 0.115114
0.827222 0.929061 0.11014
0.929168 0.929168 0.110246
0.99765 0.937224 0.118303
0.0835126 1 0.176272
0.181613 1 0.181613
0.292027 1 0.181781
0.435126 1 0.171389
0.589776 1 0.156847
0.73164 1 0.144686
0.853468 1 0.136385
0.949798 1 0.130877
1 1 0.131334
0 0 0.20087
0.0910048 0 0.201175
0.207706 0.00505074 0.193179
0.351675 0 0.177234
0.495262 0 0.165774
0.633585 0 0.156863
0.758053 0 0.151202
0.86154 0 0.152865
0.934173 0 0.165072
0 0.0910048 0.201236
0.091722 0.091722 0.201953
0.209598 0.0959182 0.196582
0.369467 0.100206 0.177844
0.517906 0.087068 0.165637
0.649363 0.0649271 0.167681
0.777417 0.0603342 0.170565
0.887861 0.0689403 0.179171
0.967636 0.088304 0.198535
0 0.197147 0.194263
0.0943465 0.201312 0.198764
0.202991 0.202991 0.202991
0.395819 0.215228 0.182116
0.550881 0.211292 0.173892
0.681331 0.203922 0.182864
0.808728 0.202335 0.201266
0.925139 0.216449 0.216449
1 0.24062 0.24062
0 0.331121 0.174197
0.105959 0.342855 0.182498
0.244892 0.353201 0.186908
0.418952 0.354955 0.179416
0.573861 0.353979 0.176516
0.702846 0.358007 0.18674
0.822568 0.3682 0.210239
0.937667 0.382467 0.228977
1 0.404349 0.250843
0 0.491325 0.168811
0.106126 0.503441 0.181567
0.252308 0.508614 0.187579
0.420691 0.502983 0.182788
0.580072 0.496315 0.176623
0.706065 0.502586 0.182345
0.818769 0.523995 0.202213
0.93051 0.544533 0.221836
1 0.564385 0.241688
0 0.658747 0.182025
0.0938888 0.671031 0.196262
0.236484 0.668864 0.201495
0.407431 0.653208 0.194827
0.570275 0.639796 0.186725
0.701289 0.646754 0.189303
0.817548 0.67068 0.202258
0.926238 0.694255 0.217548
1 0.710445 0.233738
0.000503548 0.810346 0.203494
0.106508 0.82359 0.216739
0.226276 0.831342 0.225086
0.386892 0.819516 0.220325
0.554208 0.802945 0.211093
0.692515 0.812238 0.210681
0.819181 0.819181 0.212329
0.924956 0.823117 0.216281
0.996704 0.834455 0.227604
0.0344396 0.94612 0.23743
0.136767 0.955688 0.247013
0.251499 0.960189 0.251499
0.39881 0.953994 0.245304
0.557229 0.943221 0.234531
0.702037 0.93402 0.22533
0.82678 0.928603 0.219928
0.92842 0.92842 0.21973
0.996658 0.936233 0.227558
0.0842908 1 0.287282
0.18172 1 0.291951
0.29163 1 0.29163
0.434562 1 0.281071
0.588922 1 0.266224
0.730388 1 0.253681
0.851545 1 0.244694
0.946761 1 0.238071
1 1 0.237522
0 0 0.350179
0.0864271 0 0.350164
0.194598 0 0.34522
0.338262 0 0.328832
0.489052 0 0.315709
0.629831 0 0.306615
0.754803 0 0.301457
0.858854 0 0.303655
0.932067 0 0.316457
0 0.0869917 0.350729
0.0876173 0.0876173 0.351339
0.196109 0.0858625 0.349508
0.348623 0.0830854 0.331197
0.507744 0.0759899 0.313588
0.647532 0.0630198 0.316136
0.776379 0.0592966 0.323033
0.887648 0.0687266 0.332464
0.9682 0.0888533 0.35259
0 0.192111 0.345602
0.0873121 0.197559 0.351049
0.201282 0.201282 0.354772
0.359777 0.201236 0.344167
0.536019 0.203845 0.321386
0.682155 0.204776 0.323354
0.810193 0.205402 0.350637
0.926574 0.217884 0.371389
1 0.241871 0.395361
0 0.329244 0.327337
0.0835126 0.342016 0.338628
0.203769 0.353079 0.350072
0.356497 0.356497 0.356497
0.558511 0.35668 0.317571
0.704494 0.360098 0.315938
0.824582 0.368963 0.344091
0.938201 0.383429 0.382177
1 0.404913 0.404913
0 0.493309 0.323293
0.0922408 0.507973 0.333913
0.226749 0.517555 0.338628
0.395956 0.513756 0.326421
0.573297 0.502052 0.301579
0.710491 0.500587 0.297398
0.821286 0.513191 0.318791
0.926909 0.539635 0.364126
1 0.564126 0.394919
0 0.659785 0.336568
0.094255 0.671824 0.348119
0.234836 0.670863 0.345342
0.405371 0.655604 0.327764
0.572808 0.638804 0.308995
0.697978 0.653529 0.326116
0.816373 0.672557 0.347524
0.924605 0.691615 0.368154
1 0.708782 0.385565
0.000717174 0.810559 0.357198
0.106249 0.823331 0.369985
0.230961 0.826886 0.374746
0.399573 0.805142 0.35761
0.551705 0.804242 0.355306
0.689036 0.815381 0.362661
0.816846 0.816846 0.3635
0.922271 0.820447 0.367086
0.993423 0.831174 0.377813
0.0335241 0.945205 0.390021
0.135332 0.954253 0.399069
0.24947 0.95816 0.402975
0.397253 0.950545 0.395834
0.554192 0.940185 0.384985
0.698695 0.930663 0.375479
0.823087 0.924926 0.369741
0.924437 0.924437 0.369253
0.992355 0.93193 0.376745
0.081529 1 0.438025
0.178729 1 0.442451
0.288136 1 0.441627
0.430747 1 0.430747
0.584833 1 0.415641
0.725978 1 0.402762
0.845747 1 0.392401
0.9402 1 0.385016
0.999344 0.999344 0.383734
0 0 0.514
0.0809339 0 0.513863
0.187564 0 0.510216
0.329122 0 0.496864
0.482322 0 0.481971
0.625116 0 0.471107
0.750362 0 0.466224
0.854948 0 0.468971
0.929061 0 0.482658
0 0.0814221 0.514366
0.0827497 0.0827497 0.515694
0.191409 0.0811627 0.514107
0.337179 0.073167 0.503136
0.49749 0.0649424 0.487022
0.643549 0.0576028 0.484947
0.774411 0.0573281 0.490257
0.886152 0.0672313 0.50016
0.96788 0.0885481 0.521477
0 0.188128 0.510826
0.084184 0.19443 0.517128
0.198779 0.198779 0.521477
0.349996 0.196475 0.519097
0.522042 0.196246 0.502693
0.677394 0.200305 0.495781
0.810513 0.205661 0.517296
0.92694 0.21825 0.540948
1 0.242161 0.564858
0 0.327337 0.496422
0.0774395 0.341161 0.510369
0.199435 0.352941 0.522133
0.356435 0.356435 0.525643
0.532708 0.357427 0.515358
0.696147 0.361044 0.491875
0.824628 0.369085 0.50103
0.936095 0.382757 0.543145
1 0.404303 0.57351
0 0.49395 0.493843
0.0813764 0.510521 0.508415
0.206302 0.522774 0.519005
0.361364 0.525811 0.522469
0.525689 0.525689 0.525689
0.699825 0.509819 0.466453
0.820478 0.512871 0.46392
0.921645 0.532815 0.505425
1 0.562234 0.56083
0 0.659373 0.505348
0.0896162 0.673075 0.51809
0.22034 0.677394 0.51751
0.382254 0.670405 0.504616
0.555291 0.653971 0.478004
0.693095 0.658732 0.487511
0.814054 0.675807 0.516091
0.92285 0.690806 0.536721
0.998337 0.705943 0.551934
0 0.809567 0.525414
0.104967 0.822065 0.537911
0.228656 0.825071 0.53994
0.395773 0.80528 0.516609
0.543954 0.809064 0.522652
0.684916 0.814694 0.530495
0.813382 0.813382 0.529229
0.918273 0.816434 0.53228
0.989044 0.826795 0.542641
0.0313115 0.942992 0.557
0.132631 0.951553 0.56556
0.246311 0.954986 0.569009
0.393103 0.947433 0.561502
0.549996 0.935988 0.549996
0.693904 0.925887 0.539895
0.818158 0.919997 0.534005
0.919219 0.919219 0.533242
0.986847 0.926421 0.540444
0.0776837 1 0.603372
0.174411 1 0.607355
0.283436 1 0.606134
0.425727 1 0.594919
0.579507 1 0.579507
0.720119 1 0.566094
0.838605 1 0.554452
0.932082 0.992508 0.54609
0.990738 0.990738 0.544335
0 0 0.663493
0.0765087 0 0.663462
0.183154 0 0.659861
0.3243 0 0.647517
0.478325 0 0.632334
0.6215 0 0.6215
0.747433 0 0.617288
0.852628 0 0.620661
0.927398 0 0.635019
0 0.0772564 0.66421
0.0788739 0.0788739 0.665827
0.188098 0.0778668 0.664805
0.332952 0.0692149 0.656123
0.492531 0.0596323 0.644984
0.641169 0.0542916 0.640787
0.773877 0.0567941 0.643732
0.88632 0.0673991 0.654353
0.968566 0.0892348 0.676173
0 0.185595 0.662318
0.0823224 0.192554 0.669276
0.197742 0.197742 0.674449
0.349355 0.19585 0.672572
0.517067 0.193912 0.667613
0.674479 0.197635 0.663325
0.811231 0.205203 0.676234
0.928466 0.219776 0.696483
1 0.243488 0.720195
0 0.327352 0.650568
0.0781415 0.341878 0.66508
0.200732 0.354223 0.67744
0.357916 0.357916 0.681132
0.528069 0.358831 0.681956
0.689555 0.362448 0.668956
0.824826 0.37023 0.665476
0.936767 0.383383 0.695232
1 0.404471 0.727687
0 0.495491 0.649516
0.0796826 0.512474 0.666377
0.202426 0.525109 0.679118
0.358541 0.527733 0.681758
0.526223 0.526223 0.680247
0.684764 0.524056 0.666316
0.819028 0.521721 0.635706
0.92372 0.535714 0.661189
1 0.560906 0.709209
0 0.66006 0.66006
0.0875563 0.674281 0.674159
0.210529 0.682918 0.680659
0.365621 0.681987 0.677974
0.529625 0.678508 0.674952
0.679713 0.679713 0.679713
0.81268 0.678782 0.674174
0.921279 0.689311 0.689311
0.99646 0.704067 0.704067
0 0.809384 0.679255
0.104662 0.821744 0.6916
0.224323 0.827283 0.696056
0.383505 0.815671 0.67895
0.538293 0.813352 0.679973
0.682704 0.812848 0.682704
0.810849 0.810849 0.68072
0.915068 0.81323 0.683085
0.985336 0.823087 0.692943
0.0298161 0.941497 0.709529
0.130694 0.949615 0.717647
0.244038 0.952712 0.720745
0.38999 0.945174 0.713207
0.546807 0.932799 0.700832
0.690333 0.922301 0.690333
0.814221 0.91606 0.684092
0.915007 0.915007 0.683024
0.981949 0.921538 0.689555
0.0747387 1 0.754452
0.170809 1 0.757763
0.279713 1 0.75642
0.421698 1 0.744915
0.57499 1 0.729
0.7149 1 0.7149
0.83238 0.994644 0.702251
0.924865 0.98529 0.692897
0.983291 0.983291 0.690898
0 0 0.790906
0.0738079 0 0.79089
0.180529 0 0.787366
0.321859 0 0.775204
0.476265 0 0.760418
0.619959 0 0.750088
0.74638 0 0.74638
0.852293 0 0.750454
0.927565 0 0.765301
0 0.0749065 0.791989
0.0768597 0.0768597 0.793942
0.186725 0.0764935 0.793576
0.332082 0.0683604 0.785443
0.491951 0.0590219 0.776104
0.641779 0.0548257 0.771908
0.775189 0.0581064 0.775189
0.888563 0.0696422 0.78674
0.971283 0.0919356 0.809033
0 0.185077 0.791913
0.0821851 0.192432 0.799283
0.198489 0.198489 0.805341
0.351095 0.197604 0.80444
0.518639 0.195941 0.802747
0.675776 0.199039 0.804273
0.814328 0.207538 0.813931
0.931395 0.222705 0.829557
1 0.246494 0.853346
0 0.329335 0.782696
0.0806287 0.34435 0.797711
0.203311 0.356817 0.810162
0.361166 0.361166 0.814527
0.531136 0.361929 0.81529
0.689143 0.365347 0.815656
0.82678 0.373037 0.815274
0.940139 0.385687 0.83331
1 0.406561 0.859907
0 0.498482 0.78262
0.0825971 0.515526 0.79968
0.20499 0.527687 0.811841
0.360937 0.530129 0.814282
0.528176 0.528176 0.812329
0.682963 0.528908 0.81297
0.819242 0.530785 0.797955
0.927321 0.540047 0.800504
1 0.563287 0.845792
0 0.662364 0.792493
0.0895247 0.676478 0.806607
0.209506 0.686061 0.816083
0.363272 0.686488 0.816617
0.528466 0.682475 0.812619
0.6804 0.6804 0.810544
0.81297 0.681895 0.810422
0.921416 0.689448 0.819577
0.996078 0.703685 0.833829
0.00112917 0.810971 0.810971
0.105882 0.822965 0.822965
0.223255 0.829847 0.829725
0.375647 0.824338 0.821973
0.535531 0.817182 0.815732
0.68217 0.812299 0.812299
0.809842 0.809842 0.809842
0.913588 0.811749 0.811749
0.983413 0.821164 0.821164
0.0301213 0.941802 0.839963
0.13048 0.949401 0.847562
0.243366 0.952056 0.850217
0.388632 0.943816 0.841978
0.545022 0.931014 0.829175
0.688319 0.920302 0.818463
0.811948 0.913771 0.811948
0.912352 0.912352 0.810529
0.978622 0.918212 0.816373
0.0733501 1 0.883192
0.169039 1 0.886122
0.277577 1 0.884428
0.419287 1 0.872633
0.57229 1 0.856443
0.710781 1 0.840909
0.827543 0.989792 0.827543
0.919142 0.979568 0.817319
0.977508 0.977508 0.815259
0 0 0.892103
0.0731823 0 0.892103
0.18024 0 0.88893
0.321447 0 0.876631
0.47631 0 0.862303
0.620462 0 0.852445
0.747402 0 0.849241
0.85417 0 0.85417
0.930251 0 0.869825
0 0.0749371 0.893858
0.0771954 0.0771954 0.896117
0.187579 0.077348 0.896269
0.333577 0.0698405 0.888762
0.493996 0.0610666 0.879988
0.644678 0.0577249 0.876646
0.778714 0.0616312 0.880537
0.893126 0.0742046 0.893126
0.976318 0.0969711 0.915892
0 0.186816 0.895506
0.0846876 0.194934 0.903609
0.201709 0.201709 0.910399
0.355108 0.201617 0.910292
0.523033 0.200336 0.909026
0.680552 0.203845 0.912535
0.819623 0.212772 0.921462
0.936553 0.227863 0.936553
1 0.251209 0.959884
0 0.333715 0.888899
0.085481 0.349218 0.904402
0.208438 0.361929 0.917113
0.366201 0.366201 0.921386
0.536217 0.36701 0.922194
0.693141 0.369924 0.925063
0.830716 0.377325 0.930907
0.944961 0.389822 0.944564
1 0.410498 0.965682
0 0.5037 0.889693
0.0872053 0.52015 0.906126
0.209781 0.532479 0.918456
0.36527 0.534478 0.920455
0.532357 0.532357 0.918334
0.686702 0.532692 0.918669
0.822339 0.537545 0.920501
0.933013 0.546517 0.92137
1 0.566232 0.952224
0 0.666636 0.898604
0.09337 0.680323 0.912291
0.213336 0.690044 0.922026
0.36672 0.689921 0.921904
0.531853 0.685863 0.91783
0.683421 0.683421 0.915389
0.815396 0.685267 0.917235
0.923445 0.691478 0.923445
0.997452 0.705058 0.937026
0.00469978 0.814557 0.916381
0.108736 0.825818 0.927657
0.225925 0.832776 0.934615
0.375662 0.82884 0.930556
0.536156 0.820294 0.922133
0.683543 0.813687 0.915526
0.810575 0.810575 0.912413
0.913985 0.812146 0.913985
0.983474 0.82121 0.923049
0.0322728 0.943954 0.943954
0.132158 0.95108 0.95108
0.244373 0.953063 0.953063
0.389364 0.944564 0.944564
0.54522 0.931197 0.931197
0.688243 0.920211 0.920211
0.811582 0.91342 0.91342
0.911681 0.911681 0.911681
0.976577 0.916152 0.916152
0.0738537 1 0.985534
0.169207 1 0.988128
0.277409 1 0.986099
0.418769 1 0.973953
0.571344 1 0.957336
0.708476 1 0.940459
0.824262 0.986526 0.926101
0.915526 0.975937 0.915526
0.9738 0.9738 0.913375
0 0 0.954864
0.0755779 0 0.954925
0.182559 0 0.951675
0.324407 0 0.940017
0.479469 0 0.925887
0.624338 0 0.916732
0.751858 0 0.914107
0.859281 0 0.919707
0.93611 0 0.93611
0 0.0778058 0.957137
0.0806592 0.0806592 0.959991
0.191424 0.0811933 0.96054
0.338308 0.0745708 0.953918
0.499306 0.0663767 0.945708
0.650919 0.0639658 0.943313
0.785687 0.0686046 0.947951
0.900526 0.0816052 0.960952
0.984436 0.105104 0.984436
0 0.191714 0.96083
0.090425 0.200656 0.969757
0.207996 0.207996 0.977111
0.362448 0.208942 0.978058
0.530861 0.208164 0.977264
0.688273 0.211551 0.980667
0.827771 0.22092 0.990021
0.944625 0.235935 1
1 0.258961 1
0 0.341039 0.956634
0.0934462 0.357183 0.972793
0.216678 0.370169 0.985779
0.374411 0.374411 0.990021
0.543999 0.374807 0.990402
0.700877 0.377661 0.993271
0.83801 0.384665 1
0.952056 0.396872 1
1 0.417212 1
0 0.511833 0.958236
0.0950637 0.527993 0.974395
0.217197 0.539895 0.986313
0.372564 0.541772 0.988174
0.539345 0.539345 0.985748
0.693629 0.53962 0.986023
0.828641 0.544488 0.99086
0.940581 0.554543 0.999344
1 0.572259 1
0 0.67364 0.966018
0.100298 0.687251 0.979644
0.220203 0.69691 0.989303
0.373297 0.696513 0.988907
0.537667 0.691676 0.98407
0.689235 0.689235 0.981628
0.820539 0.690394 0.982788
0.928176 0.696208 0.988602
1 0.709438 1
0.0110018 0.820844 0.983093
0.114855 0.831937 0.994186
0.231571 0.838407 1
0.380743 0.834089 0.996338
0.540841 0.824994 0.987259
0.687724 0.817853 0.980117
0.814206 0.814206 0.976455
0.917021 0.815183 0.977447
0.986389 0.82414 0.986389
0.0370336 0.948714 1
0.136645 0.955566 1
0.248386 0.957061 1
0.392935 0.948119 1
0.548379 0.934371 0.994797
0.691066 0.923049 0.983459
0.814115 0.915953 0.976364
0.913634 0.913634 0.97406
0.977279 0.916869 0.977279
0.0771191 1 1
0.172229 1 1
0.28014 1 1
0.421027 1 1
0.572778 1 1
0.70901 1 1
0.823789 0.986038 0.986038
0.914824 0.975235 0.975235
0.972107 0.972107 0.972107
