lut/6607e298-e1ec-440e-b755-349dd54d58bd.cube
TITLE "Vibrant Warm Enhancer"
LUT_3D_SIZE 33
0 0 0
0.0214084 0 0
0.0450446 0 0
0.0721752 0.00292973 0.00233463
0.103105 0.00952163 0.00775158
0.13695 0.0183566 0.0149844
0.17322 0.0285191 0.0232242
0.210971 0.0386206 0.0312505
0.249378 0.0481117 0.0386664
0.279332 0.0465553 0.0369726
0.305623 0.0377508 0.0291447
0.333242 0.0262455 0.0190127
0.362692 0.0134279 0.0077821
0.393408 4.57771e-05 0
0.425452 0 0
0.458656 0 0
0.493263 0 0
0.528618 0 0
0.564309 0 0
0.59939 0 0
0.634134 0 0
0.667018 0 0
0.698558 0 0
0.72871 0 0
0.757595 0 0
0.784802 0 0
0.810788 0 0
0.835874 0 0
0.860273 0 0
0.881758 0 0
0.900069 0 0
0.916426 0 0
0.93167 0 0
0 0.022385 0
0.0260929 0.0255589 0.00276188
0.0569619 0.0319829 0.00872816
0.0906844 0.040589 0.0167239
0.12604 0.0502022 0.0255894
0.162158 0.0602579 0.0348363
0.19855 0.0698253 0.043595
0.234089 0.077409 0.0504921
0.25948 0.0743877 0.0475319
0.286427 0.0701762 0.0434272
0.313085 0.0626383 0.0362097
0.340414 0.0520638 0.026154
0.368933 0.0396429 0.014374
0.398856 0.0267643 0.00218204
0.429984 0.0142672 0
0.461891 0.00285344 0
0.495171 0 0
0.529641 0 0
0.565606 0 0
0.601068 0 0
0.635523 0 0
0.668605 0 0
0.700679 0 0
0.731014 0 0
0.760113 0 0
0.78764 0 0
0.813962 0 0
0.83949 0 0
0.864012 0 0
0.885847 0 0
0.904601 0 0
0.921294 0 0
0.937118 0 0
0.0103151 0.0545052 0.00910964
0.0433661 0.0618448 0.0166934
0.076585 0.068925 0.0240482
0.116609 0.0811322 0.0367132
0.152728 0.0903182 0.0462806
0.187854 0.0987869 0.0550851
0.219303 0.103853 0.0603952
0.241443 0.100191 0.056672
0.265934 0.0967422 0.0531777
0.292836 0.0928664 0.0492561
0.319707 0.0862287 0.0424811
0.346883 0.0765698 0.0326085
0.375433 0.0654612 0.02121
0.404425 0.0530098 0.00843824
0.434424 0.04065 0
0.465385 0.0292821 0
0.497978 0.0198367 0
0.531609 0.0125582 0
0.567117 0.00843824 0
0.602655 0.00576791 0
0.637598 0.00358587 0
0.671046 0.00173953 0
0.703136 0.00030518 0
0.734005 0 0
0.763394 0 0
0.791379 0 0
0.817914 0.000259403 0
0.843671 0.00122072 0
0.868635 0.00263981 0
0.891081 0.00508125 0
0.910155 0.00833143 0
0.927367 0.0125124 0
0.943313 0.016907 0
0.0321355 0.0937057 0.0284428
0.0608835 0.095552 0.0307469
0.0917678 0.0998856 0.0359045
0.128084 0.108186 0.0456855
0.166339 0.117708 0.0569619
0.201251 0.125109 0.0657816
0.227451 0.126024 0.0671092
0.248859 0.122255 0.0629892
0.272374 0.118364 0.0588235
0.298634 0.114305 0.0545357
0.326421 0.109087 0.0488746
0.353765 0.100526 0.0394598
0.381628 0.0899519 0.0277104
0.410132 0.0783856 0.014786
0.439719 0.0669718 0.00196841
0.469917 0.0560769 0
0.501747 0.0467384 0
0.534676 0.0391699 0
0.56965 0.0343175 0
0.605386 0.0317235 0
0.640467 0.0296941 0
0.67422 0.0281682 0
0.706905 0.0273289 0
0.738048 0.0269322 0
0.76788 0.0269627 0
0.796033 0.027512 0
0.82298 0.0285649 0
0.849195 0.029984 0
0.874662 0.0319219 0
0.897337 0.0345769 0
0.917021 0.0384527 0
0.934646 0.0430457 0
0.95108 0.0479133 0
0.0465095 0.12462 0.0411536
0.0775006 0.126574 0.0441138
0.108156 0.129809 0.0487068
0.141375 0.135119 0.0560006
0.176425 0.141695 0.0649577
0.208484 0.14641 0.0716259
0.233402 0.146334 0.0720378
0.254902 0.142947 0.0681163
0.278462 0.139544 0.0641947
0.30454 0.13579 0.0599832
0.33225 0.130892 0.0544289
0.359777 0.123308 0.0454566
0.387884 0.114092 0.0342565
0.416205 0.10367 0.0214542
0.445121 0.0930037 0.00823987
0.474983 0.0830701 0
0.506004 0.074052 0
0.538659 0.0669566 0
0.572961 0.0616312 0
0.608637 0.0588083 0
0.644038 0.0570993 0
0.678386 0.0561685 0
0.711376 0.0556191 0
0.742947 0.0556497 0
0.773083 0.0559854 0
0.801602 0.0569162 0
0.829236 0.0586404 0
0.855924 0.0605325 0
0.881712 0.0627909 0
0.904906 0.06598 0
0.925048 0.0702831 0
0.943099 0.0753185 0
0.960388 0.0810559 0
0.0517281 0.148348 0.0457313
0.0868696 0.151736 0.0515755
0.119631 0.15555 0.0577096
0.151751 0.159457 0.0641031
0.183505 0.163302 0.0705119
0.212558 0.165789 0.0749371
0.236576 0.165301 0.0747692
0.259434 0.162966 0.0720531
0.283558 0.160235 0.0687419
0.309636 0.156786 0.064683
0.337591 0.152499 0.059556
0.365637 0.14609 0.0512856
0.393637 0.137804 0.0402533
0.42208 0.128725 0.0278325
0.450935 0.119356 0.0148165
0.480369 0.110384 0.00216678
0.511162 0.102358 0
0.543114 0.0955215 0
0.577081 0.0903639 0
0.612802 0.0875868 0
0.648676 0.0863355 0
0.683375 0.0857404 0
0.716701 0.0855421 0
0.748577 0.0858778 0
0.779232 0.0867475 0
0.80853 0.0884413 0
0.836332 0.0903487 0
0.863478 0.0926833 0
0.889815 0.095491 0
0.913573 0.0992294 0
0.934264 0.104112 0
0.953033 0.10985 0
0.970474 0.115724 0
0.0505989 0.169116 0.0446021
0.085893 0.172122 0.05066
0.119646 0.175647 0.0575418
0.152178 0.179095 0.0643015
0.18294 0.18204 0.0700542
0.210712 0.183597 0.073518
0.236469 0.183841 0.0747387
0.261555 0.182834 0.0739452
0.286809 0.18088 0.0716716
0.313771 0.178302 0.0685283
0.342 0.174594 0.063798
0.370199 0.168948 0.055848
0.398657 0.161959 0.0454414
0.427207 0.154131 0.0333715
0.456275 0.146242 0.0207828
0.485588 0.138476 0.00820935
0.516075 0.131426 0
0.547829 0.125444 0
0.58172 0.120958 0
0.617182 0.118166 0
0.653376 0.117205 0
0.688548 0.117098 0
0.722393 0.117418 0
0.754696 0.118181 0
0.786099 0.119799 0
0.815717 0.121828 0
0.844144 0.124346 0
0.871778 0.127169 0
0.898497 0.130358 0
0.922911 0.134768 0
0.943969 0.140002 0
0.962982 0.145983 0.00244144
0.98085 0.1523 0.00875868
0.0483558 0.191211 0.0423438
0.0823072 0.193027 0.0473335
0.1149 0.195651 0.0534371
0.146792 0.198489 0.0598154
0.17734 0.200824 0.0654154
0.206271 0.202594 0.0698253
0.233906 0.203555 0.0726024
0.261067 0.20354 0.0735485
0.287999 0.202502 0.072755
0.315953 0.200534 0.0705272
0.344427 0.19736 0.0661326
0.373251 0.192844 0.0588846
0.402075 0.186954 0.0489815
0.431174 0.180606 0.0376135
0.460319 0.173938 0.0252842
0.489769 0.167529 0.0130159
0.520439 0.161883 0.00170901
0.552407 0.157229 0
0.58616 0.153475 0
0.621546 0.15108 0
0.658 0.150393 0
0.693675 0.150805 0
0.728267 0.151873 0
0.761257 0.153323 0
0.792844 0.155108 0
0.822843 0.157519 0
0.851698 0.160479 0
0.87985 0.163806 0
0.907271 0.167712 0
0.931807 0.172229 0.000122072
0.953094 0.177691 0.0055848
0.97229 0.183856 0.0117494
0.990417 0.190433 0.0183108
0.0449378 0.214572 0.0389563
0.0785687 0.216098 0.0437934
0.110246 0.218021 0.0492561
0.141314 0.220127 0.0550546
0.171969 0.222385 0.060853
0.201358 0.224079 0.0656748
0.230228 0.225391 0.0694591
0.258671 0.225681 0.0714427
0.28716 0.225269 0.0719768
0.316228 0.224033 0.0708019
0.345251 0.221653 0.0669413
0.374395 0.217838 0.060029
0.404074 0.213336 0.0509957
0.433646 0.208209 0.0401923
0.463386 0.203037 0.0285801
0.4934 0.19826 0.0170291
0.524376 0.194049 0.00616464
0.556405 0.190494 0
0.590402 0.187854 0
0.626078 0.186328 0
0.66276 0.186053 0
0.69897 0.186984 0
0.733944 0.188418 0
0.767361 0.190295 0
0.799451 0.192599 0
0.829862 0.195407 0
0.859007 0.198657 0
0.887709 0.202548 0
0.915206 0.206531 0.00352483
0.940017 0.211322 0.00831617
0.961532 0.217014 0.014023
0.980865 0.223316 0.020325
0.999313 0.230213 0.0272068
0.0380407 0.239277 0.0323491
0.0725261 0.240787 0.0381323
0.104646 0.242603 0.0440681
0.135744 0.244648 0.0500496
0.166094 0.246555 0.0556649
0.19588 0.248325 0.0608835
0.225284 0.249561 0.065095
0.254841 0.250156 0.0679942
0.284199 0.250126 0.069276
0.313771 0.249424 0.0685435
0.343252 0.247593 0.0650645
0.373281 0.2448 0.0589151
0.403891 0.241535 0.0507668
0.434318 0.237736 0.0408026
0.465126 0.234318 0.0303349
0.495857 0.231083 0.0196078
0.527367 0.22829 0.0093843
0.559823 0.226078 0.000335698
0.594049 0.224506 0
0.630014 0.22385 0
0.667216 0.224353 0
0.703655 0.225513 0
0.73875 0.227085 0
0.772457 0.229236 0
0.804883 0.231891 0
0.835874 0.235279 0
0.865476 0.238987 0.00213626
0.894087 0.242786 0.00593576
0.921706 0.246876 0.0100252
0.946593 0.251759 0.0149081
0.968215 0.257557 0.0207065
0.987839 0.264134 0.0272831
1 0.270939 0.0340887
0.0268254 0.265476 0.0217594
0.0619974 0.267308 0.0286717
0.0951095 0.269291 0.0356298
0.127016 0.27126 0.0423133
0.158221 0.273289 0.0487068
0.188388 0.274922 0.0542611
0.21828 0.276265 0.0588693
0.248539 0.277378 0.0623941
0.278325 0.277668 0.0639963
0.308248 0.277211 0.063447
0.338582 0.276081 0.0605936
0.369741 0.274296 0.0553902
0.401526 0.272206 0.0482643
0.43357 0.270207 0.039826
0.465141 0.267903 0.0300908
0.496696 0.266041 0.0202487
0.528954 0.264652 0.0108797
0.562081 0.263828 0.00263981
0.596841 0.263462 0
0.633219 0.263752 0
0.670359 0.264469 0
0.707088 0.265919 0
0.742519 0.267826 0
0.77641 0.270161 0
0.809049 0.273014 0
0.840085 0.276463 0.00263981
0.869886 0.280354 0.00654612
0.898589 0.284245 0.0104219
0.926253 0.288396 0.0145724
0.951156 0.293278 0.0194553
0.973007 0.299306 0.0254978
0.992294 0.305562 0.031754
1 0.312108 0.0383001
0.012726 0.294652 0.00851453
0.0476539 0.296407 0.0158846
0.081239 0.298451 0.0234989
0.114 0.300679 0.0310674
0.14583 0.302647 0.037995
0.176791 0.304448 0.0441901
0.207584 0.306188 0.049546
0.2383 0.307317 0.0533303
0.268956 0.308095 0.0555581
0.299962 0.308324 0.0558022
0.331441 0.307958 0.0538033
0.363821 0.306996 0.0495003
0.397086 0.306065 0.0435798
0.430213 0.304982 0.0360571
0.463233 0.304173 0.0276951
0.495872 0.303578 0.0189364
0.528939 0.303365 0.0104677
0.562997 0.303899 0.00326543
0.59823 0.304463 0
0.634775 0.305318 0
0.672145 0.306462 0
0.708995 0.308049 0
0.744549 0.310079 0
0.77882 0.312795 0
0.811429 0.315633 0.00158694
0.842313 0.318914 0.00486763
0.871824 0.322515 0.00846876
0.900526 0.326421 0.0123751
0.928237 0.330602 0.016556
0.953292 0.335637 0.0215915
0.974731 0.341268 0.0272221
0.993927 0.347433 0.0333867
1 0.353841 0.0397955
0 0.326741 0
0.0315709 0.328695 0.00166323
0.0653849 0.330983 0.00981155
0.0983291 0.33312 0.0176699
0.130922 0.335409 0.0253147
0.162814 0.337606 0.0322881
0.194293 0.339437 0.038117
0.225879 0.340841 0.0424811
0.25745 0.341939 0.0452735
0.28957 0.342657 0.0462348
0.322652 0.343236 0.0454261
0.356542 0.34313 0.042237
0.390921 0.342733 0.0371099
0.425315 0.342428 0.0305943
0.459495 0.342428 0.0232395
0.493614 0.34316 0.0158999
0.527993 0.344289 0.00880446
0.562493 0.345403 0.0021973
0.59823 0.34667 0
0.635096 0.348043 0
0.672679 0.349462 0
0.709621 0.351125 0
0.745464 0.353445 0
0.7794 0.355825 0
0.811902 0.358557 0.00205997
0.842649 0.3617 0.00520333
0.872038 0.365179 0.00868238
0.900603 0.368933 0.0124514
0.928267 0.373083 0.0165866
0.952941 0.377737 0.0212406
0.974273 0.383261 0.0267643
0.993393 0.389349 0.0328527
1 0.395666 0.0391699
0 0.361837 0
0.0157778 0.364126 0
0.0492409 0.366506 0
0.0827192 0.369268 0.00459297
0.115526 0.371633 0.0124666
0.147799 0.373846 0.0196994
0.180011 0.375906 0.0260166
0.212573 0.377676 0.0310216
0.245212 0.379126 0.0344701
0.27866 0.380392 0.0363165
0.31281 0.381201 0.0360876
0.348074 0.381598 0.033814
0.383993 0.381872 0.0297856
0.419852 0.382254 0.0244144
0.45536 0.382925 0.0181888
0.4907 0.384375 0.0119936
0.525872 0.385946 0.00572213
0.561257 0.387762 0.00015259
0.597665 0.389593 0
0.634913 0.391257 0
0.672908 0.392966 0
0.709758 0.394522 0
0.745159 0.396399 0
0.778988 0.398688 0
0.811399 0.401312 0.00155642
0.842008 0.404334 0.00456245
0.871519 0.407935 0.00816358
0.899855 0.41146 0.0117037
0.927153 0.415229 0.0154726
0.951614 0.419669 0.019913
0.972641 0.424903 0.0251316
0.991409 0.430625 0.030869
1 0.436896 0.0371405
0 0.399985 0
0.0021973 0.402594 0
0.0352483 0.405493 0
0.0680552 0.408103 0
0.101106 0.410895 0.000701915
0.133623 0.413291 0.00808728
0.166262 0.415457 0.0146029
0.199634 0.417487 0.0200656
0.233371 0.419333 0.0242008
0.267735 0.420691 0.0264591
0.303059 0.421683 0.0268711
0.339605 0.422354 0.025391
0.376883 0.422934 0.0222629
0.414359 0.423896 0.0181277
0.451347 0.425101 0.0131075
0.487587 0.426627 0.00770581
0.52369 0.428428 0.00236515
0.559762 0.430411 0
0.596628 0.432288 0
0.634546 0.434256 0
0.672572 0.435691 0
0.709361 0.437186 0
0.74461 0.438911 0
0.778256 0.441001 0
0.810498 0.443473 0.000656138
0.841291 0.446662 0.00384527
0.870329 0.449805 0.00698863
0.898405 0.453071 0.0102541
0.925399 0.456535 0.0137179
0.949599 0.460716 0.0178988
0.970474 0.465782 0.0229648
0.989395 0.471672 0.0288548
1 0.477562 0.0347448
0 0.44036 0
0 0.443732 0
0.0242618 0.446662 0
0.0562905 0.449485 0
0.0886549 0.452201 0
0.121248 0.454932 0
0.154284 0.457465 0.00494392
0.188174 0.459693 0.0106355
0.222416 0.461448 0.0148318
0.257649 0.462867 0.0174563
0.294041 0.463966 0.0184329
0.331807 0.464759 0.0176394
0.370535 0.465599 0.0154726
0.409216 0.466545 0.0121309
0.447303 0.467674 0.00793469
0.484642 0.469215 0.00349432
0.521752 0.471031 0
0.558679 0.47303 0
0.59649 0.475105 0
0.63444 0.476463 0
0.672374 0.47744 0
0.708995 0.478767 0
0.744335 0.480583 0
0.777996 0.482689 0
0.810025 0.484947 0.000183108
0.840223 0.487541 0.00277714
0.869047 0.490455 0.00569162
0.896986 0.493599 0.00883497
0.923888 0.496971 0.0122072
0.948241 0.501305 0.0165408
0.969024 0.506279 0.0215152
0.987579 0.511788 0.0270237
1 0.517586 0.0328222
0 0.482277 0
0 0.485985 0
0.0170443 0.489403 0
0.0479438 0.492592 0
0.0794537 0.495552 0
0.111681 0.498619 0
0.144335 0.501076 0
0.178103 0.503151 0.00242618
0.212741 0.504952 0.00665293
0.248631 0.506386 0.00950637
0.28603 0.507607 0.0109865
0.324956 0.508446 0.0108186
0.364584 0.508949 0.00907912
0.404303 0.509636 0.00639353
0.443595 0.510643 0.00311284
0.482063 0.512001 0
0.520256 0.513695 0
0.558175 0.515541 0
0.596338 0.51696 0
0.634745 0.517845 0
0.672541 0.518532 0
0.708797 0.519509 0
0.743832 0.521019 0
0.777356 0.522988 0
0.809277 0.525124 0
0.839399 0.527642 0.00195315
0.868116 0.530465 0.00476081
0.895949 0.533486 0.00779736
0.922988 0.536995 0.0113069
0.947021 0.541024 0.0153353
0.967681 0.545861 0.0201724
0.986099 0.551247 0.0255589
1 0.556924 0.0312352
0 0.524315 0
0 0.528572 0
0.014374 0.532494 0
0.0436866 0.536156 0
0.0742504 0.539773 0
0.105226 0.542779 0
0.13724 0.545357 0
0.170657 0.547433 0
0.205203 0.549111 0.000442512
0.241367 0.550408 0.00317388
0.279362 0.551522 0.00480659
0.319112 0.552224 0.00500496
0.35964 0.552468 0.00375372
0.400351 0.552834 0.00169375
0.440711 0.553491 0
0.480354 0.554604 0
0.519524 0.555886 0
0.557977 0.556924 0
0.596643 0.557565 0
0.635157 0.557916 0
0.672801 0.558434 0
0.709255 0.559594 0
0.743999 0.560815 0
0.777142 0.562417 0
0.808896 0.564385 0
0.838926 0.566827 0.00149538
0.867781 0.569772 0.00444038
0.895705 0.572885 0.00755322
0.922438 0.576089 0.0107576
0.946319 0.57995 0.0146181
0.966842 0.584665 0.0193332
0.985107 0.589899 0.024567
1 0.595605 0.0302739
0 0.566354 0
0 0.570718 0
0.0162661 0.574929 0
0.044007 0.57937 0
0.0724651 0.583093 0
0.102007 0.586404 0
0.132967 0.589212 0
0.165728 0.591455 0
0.200259 0.593484 0
0.236316 0.594659 0
0.274296 0.595346 0.000137331
0.314336 0.595575 0.000259403
0.355779 0.595728 0
0.397391 0.595743 0
0.438773 0.596048 0
0.479072 0.596368 0
0.518868 0.59678 0
0.558083 0.597101 0
0.597177 0.597177 0
0.635691 0.597482 0
0.673426 0.598093 0
0.709499 0.598871 0
0.744137 0.6 0
0.777188 0.601495 0
0.80882 0.603342 0
0.838819 0.605753 0.00138857
0.86746 0.608484 0.00411994
0.895064 0.611276 0.00691234
0.921691 0.614374 0.0100099
0.94551 0.618189 0.0138094
0.96585 0.622721 0.0183413
0.984131 0.627955 0.0235904
1 0.633371 0.0289921
0 0.608118 0
0 0.612619 0
0.019852 0.616739 0
0.0471351 0.620783 0
0.0748302 0.624659 0
0.103075 0.628305 0
0.132586 0.631495 0
0.164553 0.634333 0
0.198123 0.636271 0
0.233814 0.637491 0
0.271687 0.638025 0
0.311788 0.637903 0
0.353384 0.637446 0
0.395758 0.637201 0
0.437659 0.636774 0
0.478813 0.63653 0
0.519387 0.636271 0
0.558968 0.636225 0
0.598032 0.636255 0
0.636591 0.636591 0
0.674006 0.636881 0
0.709957 0.637552 0
0.744488 0.63856 0
0.777401 0.639933 0
0.809155 0.641901 0
0.838865 0.644007 0.00141909
0.86717 0.646418 0.00383001
0.894591 0.649012 0.00642405
0.920958 0.651865 0.00927749
0.944686 0.655573 0.0129854
0.965057 0.660136 0.0175479
0.98291 0.664958 0.0223697
0.999557 0.670039 0.0274662
0 0.649165 0
0 0.653498 0
0.0234989 0.657511 0
0.0506142 0.661372 0
0.0781567 0.66511 0
0.106279 0.668635 0
0.135821 0.671977 0
0.166827 0.674434 0
0.199619 0.676326 0
0.234699 0.677562 0
0.272236 0.678126 0
0.312551 0.678218 0
0.35433 0.677546 0
0.396719 0.676661 0
0.438911 0.675807 0
0.480201 0.675135 0
0.520653 0.674662 0
0.560342 0.674708 0
0.599466 0.6748 0
0.637675 0.674784 0
0.674968 0.674968 0
0.71075 0.675471 0
0.745129 0.676326 0
0.778103 0.67776 0
0.809415 0.679286 0
0.838941 0.681208 0.00149538
0.867048 0.683406 0.00369268
0.894209 0.685771 0.00605783
0.920424 0.688441 0.00874342
0.944045 0.692058 0.0123445
0.964004 0.696193 0.016495
0.981582 0.700755 0.0210422
0.997925 0.705531 0.0258335
0 0.689235 0
0.000808728 0.693217 0
0.0277256 0.697017 0
0.0546731 0.700725 0
0.0821851 0.704402 0
0.110155 0.70779 0
0.139269 0.710719 0
0.170169 0.713039 0
0.202853 0.714839 0
0.237827 0.715969 0.000976577
0.275486 0.71667 0.00167849
0.315496 0.716442 0.00144961
0.357153 0.715648 0.000656138
0.399435 0.714656 0
0.441505 0.71368 0
0.482673 0.712902 0
0.523278 0.712566 0
0.562524 0.712184 0
0.601251 0.711879 0
0.639536 0.71194 0
0.676646 0.711925 0
0.712261 0.712261 0
0.7467 0.713176 0
0.779202 0.714137 0
0.810269 0.715419 0.000427253
0.839567 0.717113 0.002121
0.867445 0.719097 0.00410468
0.894652 0.721477 0.00648508
0.920592 0.723903 0.00891127
0.943679 0.726986 0.0119936
0.963287 0.73077 0.0157778
0.980621 0.735058 0.0200809
0.996735 0.73962 0.0246281
0 0.728161 0
0.00590524 0.731823 0
0.0325475 0.735363 0
0.0594339 0.73901 0
0.0867018 0.742458 0
0.114412 0.745571 0
0.143343 0.748318 0
0.174411 0.750805 0.00228885
0.206989 0.752514 0.00399786
0.242161 0.753826 0.00531014
0.279454 0.754162 0.00564584
0.319295 0.753765 0.0052491
0.360845 0.752865 0.00434882
0.402991 0.751751 0.00323491
0.445136 0.750835 0.00231937
0.486183 0.749935 0.00141909
0.526329 0.749157 0.000640879
0.565408 0.748577 7.62951e-05
0.603952 0.748104 0
0.641779 0.747707 0
0.679164 0.747967 0
0.714549 0.748074 0
0.748486 0.748486 0
0.780789 0.749233 0.000732433
0.811597 0.750271 0.00175479
0.840589 0.751659 0.00314336
0.868437 0.753613 0.00509651
0.895094 0.755459 0.00694286
0.920775 0.75761 0.00909438
0.943572 0.760403 0.0118868
0.96286 0.763851 0.0153506
0.979889 0.767865 0.0193484
0.995911 0.77232 0.0238041
0 0.765743 0
0.0119173 0.769406 0
0.0386511 0.773022 0
0.0652628 0.776394 0
0.0923171 0.779614 0
0.119936 0.78265 0.00257877
0.148775 0.78529 0.00523384
0.179583 0.787533 0.00747692
0.212375 0.789441 0.00936904
0.247211 0.790417 0.0103609
0.284382 0.790631 0.0105592
0.324071 0.790082 0.0100252
0.365423 0.788998 0.00892653
0.407584 0.787884 0.00781262
0.449424 0.786664 0.00660716
0.490227 0.785534 0.00546273
0.530159 0.784527 0.00447089
0.568994 0.783719 0.00366217
0.607309 0.783001 0.00294499
0.645167 0.782635 0.00257877
0.682017 0.782376 0.00231937
0.717189 0.782254 0.0021973
0.75082 0.782361 0.00230411
0.782818 0.782818 0.00276188
0.813367 0.783581 0.00352483
0.842359 0.78497 0.00491341
0.869627 0.786343 0.00627146
0.896178 0.788083 0.00802625
0.921462 0.789837 0.00978103
0.943862 0.792233 0.0121767
0.963104 0.795666 0.0155947
0.979782 0.799298 0.0192416
0.995224 0.803189 0.0231327
0 0.802533 0
0.018967 0.80621 0
0.0453956 0.809552 0
0.0719005 0.812802 0.00296025
0.0988327 0.815915 0.00607309
0.126345 0.81883 0.00898756
0.155154 0.821454 0.0116121
0.185855 0.82359 0.0137484
0.218158 0.82501 0.0151675
0.252857 0.825849 0.0160067
0.289967 0.825986 0.016144
0.329488 0.825284 0.0154421
0.370932 0.824277 0.014435
0.41268 0.822751 0.0129091
0.454185 0.82121 0.011368
0.494759 0.819837 0.00999466
0.534478 0.818631 0.0087892
0.57322 0.817731 0.00788891
0.611368 0.816831 0.00698863
0.648829 0.816083 0.00624094
0.685283 0.815412 0.00556954
0.720119 0.814984 0.00514229
0.753475 0.814801 0.00495918
0.785351 0.815122 0.00527962
0.815625 0.815625 0.00578317
0.844068 0.816464 0.00662242
0.871214 0.817716 0.00787366
0.897353 0.819043 0.00920119
0.922271 0.820432 0.0105898
0.944579 0.822721 0.0128786
0.963302 0.825635 0.0157931
0.979721 0.829023 0.0191806
0.995102 0.832837 0.0229953
0.00105287 0.838499 0.00105287
0.0269932 0.841856 0.00440986
0.053315 0.84506 0.00761425
0.0796826 0.848188 0.0107424
0.106508 0.851194 0.0137484
0.134066 0.854154 0.0167086
0.162585 0.856489 0.0190433
0.19295 0.858289 0.0208438
0.225086 0.859525 0.0220798
0.259449 0.860044 0.0226139
0.296498 0.860121 0.0226902
0.336004 0.859403 0.0219577
0.376944 0.857893 0.0204623
0.418463 0.856153 0.0187076
0.459724 0.854353 0.016907
0.499992 0.852674 0.0152285
0.539544 0.851286 0.0138552
0.577996 0.850111 0.012665
0.615763 0.848844 0.0113985
0.65301 0.847868 0.0104219
0.689052 0.846784 0.00933852
0.723583 0.846036 0.00859083
0.756832 0.845762 0.00831617
0.788312 0.845701 0.00825513
0.818296 0.845899 0.0084535
0.846555 0.846555 0.00910964
0.873243 0.847349 0.0099031
0.899016 0.848295 0.0108492
0.923888 0.849653 0.0122072
0.945647 0.851392 0.013962
0.964263 0.8542 0.0167544
0.980392 0.857282 0.019852
0.99527 0.860609 0.0231632
0.00993362 0.873274 0.00993362
0.0357824 0.876539 0.0131991
0.0619211 0.879576 0.0162203
0.0881208 0.882536 0.0191806
0.114992 0.885573 0.0222324
0.142138 0.888121 0.0247807
0.170443 0.890242 0.0269017
0.200565 0.891798 0.0284428
0.232456 0.892805 0.0294652
0.266667 0.893172 0.0298161
0.303426 0.892943 0.0296025
0.342641 0.891936 0.0285954
0.383276 0.890135 0.0267948
0.424521 0.888106 0.0247501
0.465507 0.88603 0.0226902
0.505776 0.884352 0.0210117
0.544869 0.882521 0.0191806
0.582925 0.880949 0.0175937
0.620569 0.879545 0.0162051
0.657313 0.87808 0.014725
0.693172 0.876799 0.0134585
0.727504 0.875868 0.0125277
0.76025 0.875074 0.0117342
0.791455 0.874739 0.0113832
0.821241 0.874739 0.0113985
0.849042 0.874952 0.0116121
0.875547 0.875547 0.012192
0.901076 0.876265 0.0129244
0.925582 0.877241 0.013901
0.947188 0.878828 0.0154879
0.965286 0.881117 0.0177768
0.981109 0.883909 0.0205692
0.995911 0.88716 0.0238041
0.0189517 0.907103 0.0189517
0.0446784 0.910246 0.0220951
0.0709544 0.91342 0.0252537
0.0969253 0.916136 0.027985
0.123278 0.918685 0.0305333
0.15021 0.921004 0.0328527
0.178302 0.922911 0.0347601
0.208164 0.924208 0.0360571
0.240024 0.925185 0.0370336
