lut/7057ac39-d4d6-4aad-9bc5-ecdc8747be32.cube
TITLE "Golden Sunlight Love"
LUT_3D_SIZE 9
0.0340276 0.0332036 0.0319066
0.0442054 0.0336004 0.0310216
0.0885634 0.0355077 0.026276
0.197253 0.0343023 0.00428779
0.334462 0.0401465 0
0.470695 0.0680247 0
0.5991 0.118593 0
0.739315 0.201022 0
0.888914 0.310246 0
0.039292 0.0447547 0.0341802
0.0500038 0.0458991 0.0337987
0.0956893 0.0465095 0.0283665
0.212055 0.042771 0.00410468
0.359365 0.0497292 0
0.516976 0.0901808 0
0.67042 0.165118 0
0.879484 0.308812 0
0.88957 0.318791 0
0.0631571 0.0903792 0.0455482
0.0738537 0.0973831 0.0469062
0.120348 0.101411 0.0432746
0.243168 0.101595 0.0222171
0.400565 0.119173 0.00262455
0.560235 0.165469 0.00172427
0.724224 0.243107 0.00015259
0.891783 0.348058 0
0.892241 0.354925 0
0.132479 0.220783 0.0783093
0.153109 0.240467 0.0845808
0.201358 0.250202 0.0845808
0.299931 0.254398 0.0741436
0.432502 0.263005 0.0444648
0.575936 0.288136 0.00292973
0.733227 0.34078 0.00108339
0.897185 0.41825 0.000457771
0.8981 0.429679 0.000595102
0.277226 0.393774 0.157153
0.298329 0.413336 0.169726
0.328038 0.422309 0.172839
0.389654 0.424582 0.164462
0.489906 0.429648 0.142168
0.612909 0.444877 0.0990921
0.74548 0.471199 0.0120089
0.906783 0.521859 0.000854505
0.907912 0.533013 0.0009308
0.447944 0.574624 0.286976
0.473945 0.598642 0.305715
0.493965 0.606973 0.310735
0.52369 0.602594 0.301762
0.583001 0.597345 0.283726
0.673014 0.601175 0.257053
0.784039 0.618311 0.20383
0.921828 0.639246 0.00077821
0.922942 0.646357 0.000762951
0.679255 0.804074 0.477775
0.708492 0.831083 0.501411
0.709194 0.826276 0.496254
0.69955 0.800031 0.470375
0.709102 0.770474 0.437125
0.759884 0.757366 0.409888
0.841825 0.761578 0.382223
0.957916 0.775906 0.307897
0.958526 0.778378 0.312886
0.788327 0.908797 0.571557
0.789532 0.908888 0.571527
0.793912 0.908965 0.570779
0.804791 0.909224 0.56907
0.826734 0.909636 0.565621
0.86392 0.910735 0.559182
0.919387 0.912978 0.546899
1 0.917861 0.5178
1 0.917861 0.5178
0.788464 0.908843 0.571923
0.789776 0.908904 0.571756
0.794247 0.90898 0.570901
0.805127 0.909224 0.56907
0.826978 0.909651 0.565606
0.863828 0.910719 0.559197
0.918914 0.912947 0.547005
1 0.917861 0.5178
1 0.917861 0.5178
0.0340124 0.0358587 0.0445411
0.0441291 0.0362249 0.0433204
0.0884871 0.0375525 0.0361791
0.197482 0.035523 0.0106813
0.335439 0.0410468 0
0.473198 0.0693675 0
0.603662 0.121538 0
0.748409 0.20795 0
0.888869 0.310842 0
0.0395056 0.047425 0.046479
0.0505837 0.0489815 0.0466926
0.0969406 0.0493324 0.0400854
0.215259 0.0453346 0.0134127
0.364446 0.0529335 0
0.525048 0.0958877 0
0.680888 0.173602 0
0.889525 0.317876 0
0.889647 0.321141 0
0.0642405 0.0937972 0.0538643
0.0760815 0.101976 0.0576638
0.125063 0.10692 0.0553902
0.250813 0.108537 0.0358282
0.408667 0.126879 0.00349432
0.569268 0.174319 0.00173953
0.736477 0.2533 0.000167849
0.891951 0.351308 3.0518e-05
0.892546 0.358953 6.10361e-05
0.137255 0.228305 0.085359
0.159319 0.248386 0.0945602
0.208698 0.258427 0.0957198
0.307179 0.262211 0.085069
0.440497 0.271275 0.0570382
0.58471 0.296071 0.00302129
0.74551 0.349752 0.000991836
0.897536 0.422568 0.000564584
0.898421 0.434211 0.000656138
0.283192 0.400671 0.165866
0.304891 0.420661 0.180774
0.335164 0.429786 0.184985
0.396872 0.432013 0.176791
0.497032 0.436698 0.154589
0.620676 0.451957 0.111238
0.754803 0.477729 0.0155795
0.907118 0.525628 0.000885023
0.908186 0.536156 0.000946059
0.456138 0.583215 0.297658
0.482185 0.607187 0.317281
0.501274 0.614466 0.321599
0.529915 0.609186 0.311894
0.587915 0.602655 0.292851
0.677302 0.605417 0.265812
0.788174 0.621622 0.213642
0.922728 0.641596 0.0083772
0.924117 0.648371 0.0129549
0.689265 0.813886 0.489097
0.718975 0.841291 0.513313
0.715984 0.833021 0.505013
0.703182 0.803861 0.476783
0.711208 0.772854 0.442008
0.760647 0.758343 0.41384
0.841856 0.761746 0.385962
0.957809 0.775326 0.312078
0.958267 0.777234 0.315877
0.788373 0.908965 0.57435
0.789593 0.909056 0.574395
0.793957 0.909102 0.57351
0.804776 0.909316 0.571359
0.826642 0.909728 0.567437
0.863554 0.910796 0.560891
0.918532 0.913008 0.548653
1 0.917937 0.519631
1 0.917937 0.519631
0.788525 0.90901 0.574975
0.789822 0.909087 0.574777
0.794232 0.909133 0.573709
0.80502 0.909316 0.57142
0.826749 0.909743 0.567437
0.863371 0.91078 0.560906
0.918074 0.912993 0.548745
1 0.917937 0.519631
1 0.917937 0.519631
0.0333867 0.0501106 0.0993362
0.0429694 0.05037 0.0980087
0.0868086 0.0506752 0.0886549
0.196002 0.0470893 0.0618906
0.335409 0.0506752 0.0202182
0.473838 0.0780804 0
0.603525 0.129213 0
0.74966 0.214832 0
0.889067 0.315419 0
0.0386358 0.0600595 0.100389
0.0495003 0.0619669 0.102174
0.0966812 0.0625772 0.0962997
0.217334 0.0585489 0.0721294
0.370413 0.0675059 0.0363012
0.530434 0.109834 0.0010071
0.685618 0.186496 0
0.88957 0.323964 0
0.889982 0.328359 0
0.0640269 0.103609 0.101167
0.0762951 0.113634 0.109911
0.128145 0.121294 0.111666
0.258991 0.126696 0.0989242
0.417731 0.146532 0.0729076
0.574273 0.1888 0.0121462
0.741207 0.264576 0.000213626
0.892073 0.358099 0
0.892714 0.366491 4.57771e-05
0.140536 0.238636 0.12845
0.16321 0.259388 0.145418
0.21265 0.268971 0.149432
0.311833 0.27306 0.138933
0.447074 0.283238 0.114214
0.593484 0.309392 0.0667124
0.750591 0.358129 0.00115969
0.897765 0.428107 0.000640879
0.898558 0.439658 0.00062562
0.285679 0.406165 0.202594
0.307912 0.426551 0.220584
0.338506 0.435828 0.226184
0.400137 0.438041 0.219471
0.500084 0.4421 0.201129
0.624323 0.45742 0.165484
0.761059 0.485985 0.0767376
0.907286 0.527886 0.0010071
0.908202 0.537926 0.000976577
0.459327 0.58793 0.322377
0.484901 0.611429 0.342504
0.503075 0.617761 0.34641
0.530846 0.611612 0.336263
0.587762 0.603616 0.317281
0.675822 0.605524 0.292744
0.784894 0.620554 0.250172
0.926497 0.643885 0.0592508
0.928923 0.650996 0.0782483
0.689906 0.815198 0.501701
0.716197 0.839261 0.522408
0.711818 0.829664 0.513085
0.698573 0.799893 0.485054
0.70544 0.767407 0.449912
0.754788 0.75256 0.422599
0.834455 0.755215 0.396445
0.956115 0.76849 0.322911
0.956466 0.770001 0.325628
0.78851 0.909499 0.583825
0.78967 0.90959 0.584024
0.793927 0.909606 0.582635
0.804273 0.90956 0.57937
0.825757 0.910109 0.574899
0.861662 0.911086 0.568002
0.914443 0.913161 0.556863
1 0.918273 0.527916
1 0.918273 0.527886
0.788632 0.909575 0.585199
0.789868 0.909636 0.584878
0.794141 0.909636 0.583017
0.80444 0.90956 0.579522
0.825803 0.910109 0.574899
0.861433 0.911086 0.568002
0.914061 0.91313 0.556924
1 0.918273 0.527901
1 0.918273 0.527886
0.0284733 0.0856489 0.2327
0.0371405 0.0858778 0.231525
0.0814069 0.0855268 0.221027
0.194247 0.082536 0.194522
0.342077 0.089189 0.161791
0.484337 0.117983 0.131731
0.607385 0.163073 0.093019
0.746593 0.23418 0
0.889799 0.330373 0
0.0331273 0.0932631 0.23418
0.0433356 0.0960555 0.238376
0.0927749 0.0985733 0.235203
0.220386 0.0987259 0.217868
0.383307 0.114549 0.198123
0.541451 0.155962 0.171237
0.694652 0.223926 0.113085
0.890364 0.341894 0
0.890654 0.347829 0
0.0586709 0.133104 0.229938
0.0716106 0.147814 0.244343
0.127489 0.160678 0.253162
0.26244 0.169055 0.247333
0.422446 0.18732 0.231846
0.583261 0.227527 0.204181
0.749905 0.296056 0.127337
0.892775 0.375418 0.000137331
0.89366 0.385306 0.0027924
0.140841 0.260792 0.249592
0.163012 0.28127 0.268467
0.212818 0.290761 0.274617
0.312551 0.294606 0.26891
0.449073 0.304768 0.255528
0.598459 0.331579 0.232898
0.759945 0.38175 0.170993
0.897993 0.440253 0.000656138
0.902037 0.455009 0.0396887
0.286244 0.416632 0.292958
0.308186 0.436774 0.311284
0.338949 0.446174 0.31812
0.400305 0.447837 0.313664
0.500267 0.451591 0.302251
0.623819 0.466011 0.284474
0.761929 0.495735 0.244099
0.912657 0.53782 0.0713664
0.915862 0.549432 0.10869
0.458824 0.592096 0.382315
0.484001 0.615122 0.401236
0.501472 0.620722 0.404623
0.528145 0.613397 0.39498
0.583841 0.604318 0.377981
0.670451 0.604868 0.35935
0.776745 0.618647 0.333303
0.931426 0.64683 0.22118
0.932342 0.651926 0.233677
0.683452 0.811093 0.529656
0.706172 0.831693 0.545754
0.701885 0.821988 0.537438
0.687709 0.790967 0.510613
0.695949 0.759136 0.479103
0.744106 0.743343 0.454109
0.821424 0.745144 0.432975
0.946288 0.758404 0.375662
0.954208 0.760143 0.372274
0.788418 0.910872 0.60882
0.789425 0.910903 0.609049
0.7935 0.910811 0.606363
0.803647 0.910842 0.60148
0.824414 0.911269 0.5953
0.858747 0.912093 0.588129
0.903609 0.905943 0.571389
0.992065 0.910155 0.54374
0.997147 0.909911 0.541131
0.788479 0.910994 0.611093
0.789563 0.910994 0.610452
0.793652 0.910857 0.607019
0.803754 0.910857 0.601678
0.824369 0.911269 0.595285
0.858488 0.912077 0.588052
0.907881 0.913832 0.578347
0.994675 0.918685 0.552972
1 0.919036 0.55108
0.016968 0.160525 0.376837
0.0254978 0.161227 0.376944
0.0748608 0.162478 0.373007
0.196445 0.162188 0.359335
0.34876 0.166262 0.338796
0.486778 0.186465 0.322621
0.609216 0.223026 0.31249
0.755505 0.286656 0.284627
0.900389 0.371237 0.191043
0.0216373 0.168795 0.37995
0.0323796 0.175326 0.386816
0.0885481 0.183078 0.391501
0.224948 0.187381 0.385504
0.388846 0.198795 0.374731
0.545403 0.229953 0.367453
0.700099 0.2851 0.360052
0.902403 0.389212 0.293889
0.903243 0.399054 0.337743
0.0522164 0.20444 0.380285
0.0673075 0.222965 0.398154
0.125902 0.237507 0.410285
0.263432 0.244678 0.409003
0.425269 0.258122 0.403128
0.586328 0.289311 0.396841
0.754086 0.346777 0.385077
0.905287 0.422721 0.350332
0.906294 0.435676 0.390539
0.139178 0.305058 0.394049
0.161685 0.325765 0.413657
0.211643 0.334829 0.420676
0.312886 0.338369 0.418112
0.450675 0.347112 0.412589
0.600824 0.371206 0.40795
0.762982 0.416892 0.397925
0.910292 0.477791 0.364431
0.911482 0.490959 0.397574
0.285924 0.438895 0.416541
0.308171 0.459556 0.43537
0.338918 0.468772 0.442756
0.400412 0.469947 0.440208
0.500252 0.472816 0.433326
0.622965 0.485679 0.426764
0.759609 0.513085 0.415808
0.918944 0.557244 0.368826
0.920089 0.566491 0.387594
0.458671 0.603418 0.478508
0.482689 0.625101 0.496376
0.499214 0.629709 0.499229
0.524559 0.62089 0.489632
0.579782 0.611063 0.475151
0.665354 0.610544 0.462287
0.768612 0.622843 0.449989
0.918593 0.648905 0.404532
0.933043 0.655421 0.404669
0.676646 0.809735 0.588617
0.697612 0.82829 0.601648
0.691981 0.81738 0.593378
0.676646 0.785336 0.568444
0.686091 0.754147 0.541299
0.733562 0.737896 0.520333
0.808484 0.738705 0.505547
0.928084 0.750607 0.472343
0.9523 0.753704 0.463676
0.788434 0.914565 0.658854
0.789456 0.914702 0.659373
0.793378 0.914382 0.654246
0.803204 0.914 0.645533
0.822858 0.913725 0.635828
0.843488 0.89778 0.616663
0.885496 0.887861 0.599954
0.972839 0.892317 0.57908
0.991348 0.8934 0.573419
0.78851 0.914916 0.662882
0.789563 0.914885 0.661631
0.7935 0.914473 0.655299
0.80325 0.914015 0.645731
0.822782 0.91371 0.635691
0.855573 0.914412 0.627405
0.901701 0.91603 0.619516
0.982971 0.920302 0.60148
1 0.921492 0.596735
0.0087129 0.265309 0.507256
0.0167544 0.265995 0.507668
0.0682994 0.265873 0.504463
0.193652 0.261601 0.492592
0.349432 0.258915 0.475364
0.489494 0.271504 0.466484
0.613931 0.300786 0.468421
0.763439 0.354284 0.469596
0.904646 0.42414 0.460777
0.0130922 0.273747 0.513069
0.0238499 0.282841 0.522499
0.0834974 0.291844 0.529824
0.225254 0.294392 0.52665
0.393225 0.300938 0.52076
0.552453 0.32491 0.522622
0.709422 0.37084 0.533303
0.906172 0.453361 0.532372
0.906935 0.470741 0.569894
0.0461891 0.298222 0.516258
0.0618143 0.320363 0.538262
0.123751 0.336889 0.553567
0.265965 0.34316 0.554925
0.430426 0.352712 0.553384
0.592905 0.377401 0.556405
0.763134 0.425956 0.566384
0.908644 0.489982 0.578317
0.909606 0.511299 0.617929
0.137591 0.371267 0.528222
0.159625 0.393622 0.55111
0.211231 0.403082 0.559686
0.315084 0.406424 0.559182
0.454734 0.413474 0.557122
0.606378 0.435019 0.561471
0.769955 0.47631 0.571191
0.913069 0.530236 0.579522
0.914275 0.547692 0.611261
0.287114 0.477852 0.541192
0.309316 0.49955 0.563714
0.340612 0.509087 0.57261
0.402579 0.509758 0.570382
0.502449 0.511131 0.565164
0.625208 0.522332 0.564034
0.761196 0.547707 0.566979
0.920867 0.587823 0.557595
0.921798 0.597574 0.574014
0.460716 0.626474 0.591196
0.484382 0.648203 0.611276
0.499947 0.651835 0.614008
0.524559 0.64181 0.602899
0.578576 0.629969 0.587366
0.663615 0.628153 0.577279
0.764889 0.638682 0.572305
0.911284 0.662104 0.554223
0.933623 0.669261 0.554772
0.675639 0.819821 0.680125
0.694774 0.836408 0.692149
0.687404 0.823926 0.682673
0.670024 0.789883 0.656092
0.680446 0.759472 0.629938
0.727169 0.742351 0.610285
0.800427 0.74197 0.599924
0.916503 0.752483 0.58201
0.951278 0.756588 0.574762
0.788388 0.922591 0.741268
0.789364 0.922728 0.741863
0.793271 0.921538 0.730739
0.802869 0.919951 0.713954
0.822187 0.918883 0.697749
0.831769 0.889845 0.672328
0.873808 0.880293 0.658946
0.959838 0.884504 0.644724
0.987655 0.886534 0.639048
0.788373 0.923415 0.748394
0.789395 0.923186 0.74583
0.793332 0.921736 0.732372
0.802869 0.919966 0.714031
0.822095 0.918837 0.697322
0.854002 0.918929 0.686152
0.898054 0.920226 0.679011
0.975555 0.924071 0.666667
1 0.925765 0.661738
0 0.362066 0.614252
0.00514229 0.362951 0.615015
0.0599832 0.360357 0.610666
0.191638 0.352773 0.598383
0.352178 0.345083 0.581552
0.495323 0.353887 0.576364
0.623285 0.381506 0.586511
0.778653 0.431724 0.601816
0.9075 0.491035 0.620874
0.00170901 0.374136 0.624811
0.0108339 0.386786 0.63772
0.076112 0.398245 0.648188
0.226459 0.400443 0.647089
0.399893 0.404608 0.643671
0.562814 0.426581 0.652461
0.724865 0.472587 0.677043
0.909468 0.543297 0.706462
0.910475 0.577569 0.756542
0.0358129 0.394812 0.632151
0.052781 0.42388 0.661875
0.119554 0.446555 0.683513
0.26891 0.453117 0.687221
0.437446 0.460304 0.687694
0.603265 0.482872 0.697795
0.780423 0.532799 0.725521
0.911986 0.594598 0.76733
0.913481 0.642786 0.830823
0.134737 0.449729 0.645853
0.156725 0.476905 0.674739
0.211017 0.490394 0.688182
0.318868 0.493568 0.688991
0.461738 0.499565 0.689479
0.616312 0.520699 0.700603
0.785229 0.564095 0.726253
0.915877 0.616144 0.760555
0.917205 0.65069 0.808957
0.289876 0.531731 0.655467
0.312566 0.55758 0.684855
0.344198 0.5691 0.697551
0.40676 0.568414 0.694652
0.507774 0.56759 0.688655
0.631525 0.577508 0.690669
0.768338 0.601984 0.702556
0.922606 0.638361 0.712062
0.923506 0.65182 0.732998
0.466331 0.665263 0.706584
0.488853 0.6878 0.732219
0.50338 0.690394 0.73463
0.527245 0.677989 0.718959
0.581201 0.663188 0.698985
0.665751 0.659007 0.687205
0.76643 0.668208 0.68632
0.912093 0.689372 0.68098
0.934417 0.696147 0.684184
0.681285 0.846433 0.79649
0.698299 0.861326 0.810422
0.689464 0.847272 0.796841
0.67068 0.810407 0.761517
0.680156 0.777813 0.728771
0.726375 0.758984 0.706447
0.7991 0.757778 0.697429
0.913893 0.766964 0.687526
0.951492 0.770535 0.68278
0.787961 0.942077 0.858686
0.788937 0.942199 0.859068
0.792844 0.937148 0.837018
0.802502 0.931533 0.803998
0.822003 0.927825 0.774792
0.828428 0.895369 0.746136
0.870542 0.885618 0.733928
0.956237 0.889372 0.724651
0.986999 0.892042 0.721141
0.78793 0.944823 0.870359
0.788952 0.943587 0.865003
0.792874 0.937606 0.839002
0.802487 0.931472 0.803662
0.821897 0.927718 0.774014
0.853498 0.926482 0.75639
0.897108 0.927337 0.748699
0.973556 0.930846 0.740353
1 0.932601 0.736797
0 0.47892 0.734066
0 0.479423 0.734493
0.0429236 0.469291 0.723903
0.186725 0.456275 0.708766
0.355016 0.443122 0.690105
0.502297 0.44976 0.688029
0.634638 0.480659 0.708019
0.797482 0.536355 0.742199
0.910643 0.599023 0.789258
0 0.498848 0.752911
0 0.52079 0.774258
0.0534676 0.533135 0.786068
0.221805 0.535531 0.78703
0.405341 0.538125 0.785565
0.573892 0.566918 0.807004
0.742641 0.622736 0.85153
0.91191 0.643549 0.844968
0.912032 0.644236 0.844999
0.0106966 0.518059 0.764462
0.017731 0.56849 0.813916
0.0949569 0.603784 0.848463
0.262669 0.611246 0.854444
0.441901 0.615564 0.855451
0.614481 0.621683 0.854276
0.79971 0.635859 0.850248
0.913588 0.652308 0.845624
0.913787 0.654108 0.845594
0.120882 0.561074 0.783459
0.137255 0.608469 0.832593
0.197375 0.629404 0.854276
0.316335 0.632364 0.855955
0.466667 0.635966 0.856428
0.626856 0.642359 0.855253
0.801968 0.656428 0.851499
0.917388 0.673213 0.84686
0.918013 0.67631 0.847166
0.288533 0.618006 0.793149
0.309285 0.661341 0.843458
0.342397 0.674891 0.858747
0.407874 0.674113 0.857023
0.511894 0.669062 0.847791
0.638468 0.677455 0.851987
0.777218 0.690944 0.854627
0.924392 0.708766 0.849302
0.925017 0.711681 0.849515
0.470344 0.740307 0.862654
0.493004 0.750942 0.864851
0.506676 0.751614 0.864897
0.529519 0.745434 0.864103
0.583795 0.729732 0.845151
0.668467 0.720241 0.828168
0.770306 0.728115 0.830228
0.91632 0.746777 0.834318
0.93576 0.753079 0.840055
0.688563 0.874311 0.879103
0.704097 0.884153 0.880507
0.693233 0.872526 0.878752
0.672999 0.845426 0.874647
0.680949 0.8206 0.866285
0.726955 0.797253 0.83505
0.799878 0.794095 0.825208
0.914504 0.801846 0.820447
0.952087 0.804669 0.817761
0.787808 0.947753 0.882826
0.7888 0.947738 0.882795
0.792508 0.947784 0.882765
0.802197 0.948013 0.88278
0.821775 0.948516 0.882826
0.828 0.915618 0.85536
0.870405 0.905425 0.843244
0.956603 0.909194 0.838621
0.98735 0.911864 0.837552
0.787854 0.947753 0.882826
0.788846 0.947738 0.882795
0.792523 0.947784 0.882765
0.802167 0.948013 0.88278
0.821683 0.948516 0.882826
0.8533 0.943709 0.858763
0.897154 0.943358 0.850172
0.973465 0.946548 0.846693
1 0.947951 0.845106
0 0.578042 0.831174
0 0.578073 0.831159
0.00886549 0.580423 0.833234
0.166735 0.600519 0.852262
0.351492 0.604135 0.853605
0.507362 0.609354 0.854658
0.645792 0.614862 0.853391
0.816037 0.628443 0.849042
0.911727 0.64184 0.844999
0 0.57882 0.831067
0 0.579065 0.831052
0.0413519 0.588098 0.839643
0.219287 0.603113 0.853391
0.41059 0.607721 0.854963
0.58407 0.613169 0.854185
0.757504 0.624079 0.851133
0.91194 0.643763 0.844984
0.912077 0.644511 0.845014
0 0.584817 0.831418
0.0166323 0.58996 0.835157
0.103853 0.605478 0.849546
0.271839 0.611963 0.854536
0.45037 0.616281 0.855451
0.624994 0.622644 0.854124
0.81709 0.638117 0.849668
0.913649 0.652903 0.845609
0.913893 0.654795 0.845609
0.110445 0.622431 0.850706
0.141192 0.627527 0.852827
0.207019 0.630869 0.854505
0.325139 0.633738 0.856016
0.47541 0.637476 0.856504
0.636759 0.643992 0.855116
0.816968 0.658976 0.851118
0.917617 0.674311 0.846967
0.918196 0.677272 0.847242
0.28954 0.667613 0.857939
0.31635 0.674449 0.858564
0.350698 0.677333 0.8589
0.415366 0.677867 0.859236
0.518181 0.67863 0.858808
0.644953 0.682918 0.857542
0.784344 0.692775 0.854505
0.92462 0.709819 0.849378
0.9252 0.712505 0.849592
0.478706 0.745235 0.864408
0.500954 0.755108 0.865232
0.513481 0.755199 0.865217
0.534463 0.747982 0.864302
0.587274 0.74081 0.863294
0.671351 0.738643 0.861784
0.773053 0.743465 0.85948
0.919219 0.756359 0.854154
0.935973 0.759182 0.853529
0.696544 0.87982 0.879896
0.711788 0.88986 0.880766
0.697536 0.875563 0.879179
0.675959 0.847562 0.874952
0.682277 0.823209 0.871153
0.727749 0.81004 0.868528
0.800198 0.808881 0.866117
0.914748 0.815702 0.861677
0.952407 0.818265 0.8598
0.787823 0.947753 0.882826
0.788815 0.947738 0.882795
0.792523 0.947784 0.882765
0.802213 0.948013 0.88278
0.821775 0.948516 0.882826
0.82768 0.921508 0.880781
0.870268 0.913802 0.879103
0.956619 0.917479 0.876463
0.987259 0.919371 0.87538
0.787854 0.947753 0.882826
0.788846 0.947738 0.882795
0.792523 0.947784 0.882765
0.802167 0.948013 0.88278
0.821698 0.948516 0.882826
0.853284 0.949111 0.882597
0.897154 0.950347 0.882475
0.973404 0.953231 0.882063
1 0.954467 0.881895
