lut/7057ac39-d4d6-4aad-9bc5-ecdc8747be32.cube
TITLE "Golden Sunlight Love"
LUT_3D_SIZE 33
0.0340276 0.0332036 0.0319066
0.0350805 0.0332494 0.0318303
0.0370184 0.0333104 0.0316472
0.0398566 0.0334173 0.0313726
0.0442054 0.0336004 0.0310216
0.050782 0.033875 0.0304875
0.0599527 0.0341802 0.0295415
0.0724651 0.0348821 0.028397
0.0885634 0.0355077 0.026276
0.108812 0.0359655 0.0231785
0.134676 0.0358434 0.0184787
0.165499 0.0349889 0.0118715
0.197253 0.0343023 0.00428779
0.230457 0.0343786 0.000503548
0.264698 0.0352331 0
0.299535 0.0370184 0
0.334462 0.0401465 0
0.369009 0.0446021 0
0.403433 0.050721 0
0.436866 0.0583047 0
0.470695 0.0680247 0
0.50399 0.0791791 0
0.53608 0.0911727 0
0.567666 0.10425 0
0.5991 0.118593 0
0.630686 0.135088 0
0.663905 0.153964 0
0.699611 0.17557 0
0.739315 0.201022 0
0.7879 0.234821 0
0.845441 0.277317 0
0.888914 0.310231 0
0.888914 0.310246 0
0.0345769 0.0343786 0.032166
0.0356603 0.0344396 0.0320897
0.037644 0.0345464 0.0319524
0.0405432 0.034699 0.0317388
0.0449226 0.0348974 0.0313726
0.0514076 0.0350958 0.0307012
0.0607004 0.0354772 0.0297704
0.0731365 0.035935 0.0285344
0.0894179 0.0363928 0.0263981
0.109865 0.0366064 0.0232395
0.136141 0.0361486 0.0182498
0.167193 0.0352178 0.0115511
0.199329 0.0345312 0.00381476
0.233005 0.0346532 0.000411994
0.267704 0.035523 0
0.303075 0.0374456 0
0.338613 0.0406958 0
0.373892 0.0453651 0
0.409232 0.0518807 0
0.443748 0.0599985 0
0.478935 0.0705577 0
0.513359 0.0824292 0
0.547051 0.0954604 0
0.580331 0.109957 0
0.613153 0.126024 0
0.646479 0.143969 0
0.681529 0.164385 0
0.721294 0.189639 0
0.766751 0.220279 0
0.820294 0.258473 0
0.884978 0.307469 0
0.888899 0.310536 0
0.888899 0.310628 0
0.0357061 0.0366979 0.0327153
0.0368048 0.0367742 0.032639
0.0387732 0.0368963 0.0324865
0.0416876 0.0370184 0.0322576
0.0461128 0.0371862 0.0319066
0.0526284 0.0373541 0.0312505
0.0618906 0.037583 0.0302281
0.074342 0.0378119 0.0288243
0.090837 0.0380407 0.0266728
0.111559 0.038056 0.0234379
0.138567 0.0375372 0.0182193
0.170092 0.0364385 0.0113222
0.20264 0.0356603 0.00373846
0.236759 0.0356909 0.000320439
0.271962 0.0364538 0
0.308003 0.0384527 0
0.344259 0.0418402 0
0.380362 0.0467231 0
0.417029 0.0540322 0
0.4533 0.0632334 0
0.489906 0.0747539 0
0.52578 0.0876631 0
0.560723 0.101747 0
0.595453 0.117327 0
0.63003 0.135576 0
0.666072 0.156207 0
0.704814 0.17998 0
0.747692 0.207919 0
0.798383 0.243107 0
0.862776 0.291463 0
0.88893 0.311406 0
0.888945 0.311666 0
0.888975 0.311925 0
0.037232 0.0399939 0.0333867
0.0383764 0.040177 0.033341
0.0403296 0.0402991 0.0332036
0.0432746 0.0404822 0.03299
0.0477607 0.0406806 0.0326696
0.0543069 0.0408179 0.0320592
0.0635538 0.0409094 0.0309911
0.0761273 0.0410163 0.0294194
0.0928664 0.0411383 0.0272526
0.114107 0.0411078 0.0238041
0.141955 0.0402686 0.0183566
0.1738 0.0389563 0.0113069
0.206912 0.0382086 0.00386053
0.241596 0.038056 0.000228885
0.277409 0.0387884 0
0.314168 0.0408789 0
0.351125 0.0444038 0
0.3888 0.0501106 0
0.426551 0.0579995 0
0.464576 0.0684672 0
0.502754 0.0810864 0
0.540108 0.0952316 0
0.577005 0.111055 0
0.613352 0.128817 0
0.649805 0.148836 0
0.687816 0.171313 0
0.730709 0.198764 0
0.77998 0.232319 0
0.839094 0.27538 0
0.889067 0.313191 0
0.889097 0.313603 0
0.889128 0.314031 0
0.889158 0.314504 0
0.039292 0.0447547 0.0341802
0.0404974 0.0449836 0.0341802
0.0425116 0.045304 0.034165
0.0455482 0.0457008 0.0340734
0.0500038 0.0458991 0.0337987
0.0565499 0.0460822 0.0331579
0.0658885 0.0462806 0.0322118
0.0787366 0.0463569 0.0306249
0.0956893 0.0465095 0.0283665
0.117662 0.0461738 0.0246433
0.14609 0.0450141 0.0189975
0.178393 0.0435798 0.011902
0.212055 0.042771 0.00410468
0.247166 0.0424506 0.000137331
0.283833 0.0433967 0
0.321157 0.0457008 0
0.359365 0.0497292 0
0.398428 0.056199 0
0.437598 0.0649424 0
0.477302 0.0766003 0
0.516976 0.0901808 0
0.555627 0.105669 0
0.593942 0.122988 0
0.631464 0.142824 0
0.67042 0.165118 0
0.712383 0.190875 0
0.758877 0.221515 0
0.812268 0.258625 0
0.879484 0.308812 0
0.889311 0.316625 0
0.889372 0.317235 0
0.889479 0.318013 0
0.88957 0.318791 0
0.0426947 0.0518654 0.0357671
0.0439612 0.0522774 0.0357977
0.0458991 0.0527047 0.0358129
0.0488289 0.0531319 0.0356909
0.0533455 0.0536355 0.0355077
0.0599374 0.0540475 0.0350195
0.0691691 0.0542611 0.0340124
0.0821698 0.0544594 0.032578
0.0992752 0.0543374 0.0300755
0.121935 0.0538643 0.0262913
0.151125 0.0525063 0.0204929
0.183902 0.0510414 0.0133516
0.217868 0.0501717 0.0052491
0.25362 0.0500038 0
0.290959 0.0512551 0
0.329198 0.0538338 0
0.368841 0.0586862 0
0.408972 0.0658122 0
0.450111 0.0761578 0
0.491325 0.0889906 0
0.531792 0.103639 0
0.571389 0.120165 0
0.609949 0.138643 0
0.648737 0.159548 0
0.689448 0.183352 0
0.734112 0.211231 0
0.785565 0.245487 0
0.846647 0.289036 0
0.88983 0.320867 0
0.889845 0.321782 0
0.88986 0.322713 0
0.889876 0.323659 0
0.889891 0.324575 0
0.0476234 0.0614023 0.037995
0.0489052 0.0621653 0.0381476
0.0507973 0.0628214 0.0381933
0.0537118 0.0635691 0.0382086
0.0582132 0.064271 0.0381933
0.064683 0.0648966 0.0378424
0.0738842 0.0653239 0.0369116
0.0868238 0.065568 0.0353857
0.104067 0.0654612 0.03299
0.127398 0.0648203 0.0290684
0.157397 0.0633402 0.0231785
0.190356 0.0619821 0.0160678
0.22475 0.0615396 0.00834669
0.261051 0.0618296 0.000732433
0.298909 0.0632181 0
0.338537 0.0666361 0
0.379294 0.0723278 0
0.420813 0.0807202 0
0.46305 0.0919814 0
0.504326 0.105211 0
0.544976 0.120333 0.000183108
0.584192 0.137575 0.000335698
0.623468 0.157107 0.000244144
0.663905 0.179034 9.15541e-05
0.706752 0.203784 0
0.753689 0.232593 0
0.806424 0.266941 0
0.872847 0.31458 0
0.890166 0.327764 0
0.890288 0.328893 0
0.89041 0.330037 0
0.890517 0.331182 0
0.890593 0.332464 0
0.0541695 0.0737469 0.0411078
0.0553902 0.0749065 0.0413977
0.0573739 0.0762188 0.0417029
0.0603037 0.0773938 0.0418708
0.0647898 0.078584 0.0418708
0.0712444 0.0795911 0.0416114
0.0803235 0.0803998 0.0409094
0.0933089 0.0808423 0.0396124
0.110948 0.0808576 0.0373083
0.13489 0.0803082 0.0333867
0.165331 0.0790417 0.0277104
0.198596 0.078233 0.021149
0.233112 0.0780194 0.0137789
0.26978 0.0789197 0.0053254
0.308385 0.081239 0.00030518
0.348562 0.0854353 0.000106813
0.390265 0.0923476 0.000137331
0.432502 0.101717 0.000274662
0.474174 0.112963 0.000640879
0.514733 0.126192 0.00111391
0.55433 0.141314 0.00115969
0.593454 0.158328 0.000823987
0.633204 0.177356 0.000564584
0.674525 0.198856 0.000198367
0.718502 0.22359 4.57771e-05
0.767056 0.252842 0
0.822675 0.28864 0
0.888838 0.334005 0
0.890852 0.336583 0
0.890959 0.337942 0
0.891096 0.339406 0
0.891234 0.340932 0
0.891371 0.342443 0
0.0631571 0.0903792 0.0455482
0.0644083 0.092134 0.0459907
0.0663157 0.0939345 0.0464332
0.0694743 0.0957504 0.0467689
0.0738537 0.0973831 0.0469062
0.0801251 0.0988937 0.0468147
0.0890974 0.100114 0.0464179
0.102251 0.101061 0.0453803
0.120348 0.101411 0.0432746
0.145113 0.101183 0.0396582
0.175723 0.100832 0.0346838
0.208698 0.100786 0.0288548
0.243168 0.101595 0.0222171
0.280125 0.103624 0.0148318
0.318868 0.106905 0.00643931
0.359289 0.112032 0.00251774
0.400565 0.119173 0.00262455
0.441627 0.128008 0.00262455
0.482017 0.13904 0.00260929
0.521416 0.151431 0.0021973
0.560235 0.165469 0.00172427
0.599268 0.181491 0.00122072
0.638804 0.199481 0.000823987
0.680171 0.219745 0.000488289
0.724224 0.243107 0.00015259
0.7729 0.270878 0
0.828656 0.305043 0
0.891676 0.34641 0
0.891783 0.348058 0
0.89189 0.349691 0
0.891997 0.35137 0
0.892119 0.353063 0
0.892241 0.354925 0
0.0738384 0.111955 0.0505226
0.0751965 0.114427 0.0510872
0.0773938 0.117021 0.0516518
0.0805524 0.119554 0.0521553
0.0850843 0.122087 0.0526284
0.0916457 0.124407 0.0529335
0.100771 0.126543 0.052781
0.11429 0.128206 0.0521248
0.133364 0.129351 0.0505074
0.158602 0.129732 0.0475929
0.188571 0.130175 0.0436408
0.221286 0.131289 0.0391394
0.255543 0.133745 0.0340429
0.291829 0.136538 0.0272221
0.329747 0.140215 0.018967
0.368383 0.144839 0.00920119
0.407996 0.151324 0.00457771
0.447852 0.159442 0.00383001
0.486931 0.168963 0.00317388
0.525704 0.180148 0.00260929
0.564111 0.192798 0.00218204
0.602426 0.207172 0.00157168
0.641138 0.223209 0.00115969
0.681529 0.241276 0.000701915
0.725231 0.262745 0.000381476
0.773602 0.288609 0.000198367
0.828977 0.320607 3.0518e-05
0.892515 0.359884 0
0.892653 0.361807 0
0.892805 0.36379 1.5259e-05
0.892989 0.365866 3.0518e-05
0.893172 0.367987 4.57771e-05
0.893355 0.370123 6.10361e-05
0.0869764 0.140627 0.0564279
0.088777 0.144106 0.0571908
0.0916609 0.148333 0.0581674
0.0953841 0.152377 0.0590829
0.10045 0.156191 0.0598917
0.107454 0.159518 0.0605173
0.117205 0.162478 0.0607614
0.131273 0.164721 0.0604562
0.15111 0.166384 0.059266
0.175937 0.167483 0.0572824
0.204822 0.168719 0.0544594
0.235874 0.170443 0.0508583
0.268406 0.172885 0.0463111
0.303197 0.175235 0.0401007
0.339498 0.178393 0.0321508
0.376684 0.182055 0.0217441
0.41445 0.186801 0.00993362
0.452964 0.193378 0.00411994
0.491157 0.201541 0.00335698
0.528908 0.211109 0.00294499
0.566293 0.222034 0.00233463
0.603983 0.234836 0.00178531
0.642573 0.249348 0.00143435
0.68278 0.26627 0.00112917
0.726085 0.285801 0.000793469
0.774014 0.309361 0.000488289
0.829358 0.33872 0.000289921
0.893812 0.375937 0.000106813
0.89398 0.378271 0.000106813
0.894148 0.380591 0.000106813
0.894316 0.382879 0.000122072
0.894484 0.38529 0.000122072
0.894667 0.387793 0.000122072
0.105898 0.178485 0.0654459
0.108904 0.183322 0.066865
0.112551 0.188251 0.0683146
0.117113 0.193027 0.069688
0.122896 0.197513 0.0708934
0.130587 0.201175 0.0717937
0.141421 0.204471 0.072343
0.155901 0.206531 0.0719158
0.174731 0.207889 0.071046
0.197665 0.209064 0.0692607
0.22385 0.21004 0.0667277
0.25272 0.211612 0.0635538
0.283192 0.213687 0.0595102
0.316243 0.215595 0.0542611
0.3505 0.217685 0.047013
0.386313 0.220722 0.0376287
0.422461 0.224231 0.0256657
0.459037 0.22887 0.0118563
0.495949 0.235431 0.00454719
0.533074 0.244053 0.00314336
0.570169 0.254032 0.00265507
0.607538 0.26566 0.0021973
0.645792 0.278721 0.00163272
0.685725 0.29398 0.00128176
0.728756 0.311894 0.0009308
0.776593 0.333562 0.00062562
0.831357 0.360586 0.000366217
0.895171 0.394537 0.000137331
0.895369 0.397086 0.00015259
0.895598 0.39971 0.000198367
0.895842 0.402396 0.000228885
0.896086 0.405097 0.000274662
0.896315 0.407691 0.000320439
0.132479 0.220783 0.0783093
0.136248 0.226108 0.0800336
0.141024 0.231327 0.0817731
0.146532 0.236133 0.0833143
0.153109 0.240467 0.0845808
0.161196 0.244083 0.0854963
0.171435 0.247074 0.0859693
0.184497 0.248951 0.0855421
0.201358 0.250202 0.0845808
0.221775 0.25127 0.0829175
0.245579 0.252216 0.0807355
0.271687 0.253101 0.0777142
0.299931 0.254398 0.0741436
0.330465 0.25568 0.0692149
0.362997 0.25742 0.0628367
0.397284 0.259861 0.0548257
0.432502 0.263005 0.0444648
0.468025 0.266972 0.0308385
0.503548 0.272175 0.0144045
0.539269 0.279149 0.00445563
0.575936 0.288136 0.00292973
0.612863 0.298512 0.0021973
0.650767 0.310536 0.00192264
0.690455 0.324437 0.00149538
0.733227 0.34078 0.00108339
0.780591 0.360433 0.000793469
0.83537 0.385214 0.00062562
0.896956 0.415412 0.000427253
0.897185 0.41825 0.000457771
0.897398 0.421103 0.000488289
0.897627 0.423896 0.000534066
0.897856 0.426734 0.000564584
0.8981 0.429679 0.000595102
0.165637 0.264057 0.0929274
0.170123 0.269322 0.0948806
0.175204 0.274632 0.0968338
0.180804 0.279515 0.0985733
0.187106 0.283803 0.100084
0.194736 0.28751 0.101335
0.20383 0.290211 0.101946
0.215152 0.291844 0.10161
0.229587 0.292729 0.100633
0.247486 0.2934 0.0990768
0.268605 0.293935 0.09691
0.292241 0.294484 0.0940719
0.318059 0.295628 0.0906844
0.34667 0.297047 0.0862593
0.377447 0.298726 0.0807355
0.410193 0.300816 0.0736706
0.444038 0.303578 0.0648814
0.478477 0.307118 0.0535592
0.513161 0.311711 0.0390173
0.547356 0.317342 0.0206912
0.58204 0.324132 0.0049897
0.618051 0.333257 0.00242618
0.655421 0.344076 0.00210575
0.694362 0.356466 0.00169375
0.736339 0.371206 0.00131228
0.782971 0.388693 0.00105287
0.836622 0.410849 0.000808728
0.898802 0.438605 0.000640879
0.899046 0.441627 0.000656138
0.899336 0.444678 0.000686656
0.899596 0.447669 0.000701915
0.89987 0.45066 0.000717174
0.90013 0.453513 0.000732433
0.201724 0.307729 0.11017
0.2065 0.313146 0.112596
0.211475 0.318135 0.114977
0.217105 0.323049 0.117266
0.223011 0.327108 0.119051
0.229709 0.330465 0.120363
0.237644 0.332891 0.121035
0.247456 0.334447 0.121019
0.2598 0.335119 0.119966
0.275486 0.335729 0.118486
0.294011 0.336019 0.116152
0.315404 0.337026 0.11371
0.339117 0.338277 0.110445
0.365362 0.339284 0.106142
0.394156 0.340856 0.101045
0.425025 0.342718 0.0947127
0.457267 0.345129 0.0868238
0.490501 0.34844 0.0770733
0.523995 0.352499 0.0652934
0.557427 0.357549 0.0506294
0.590585 0.363119 0.0308232
0.624262 0.370001 0.0101167
0.660121 0.379263 0.00334173
0.697948 0.390066 0.00166323
0.738857 0.402945 0.00134279
0.783886 0.418372 0.00112917
0.835828 0.437598 0.000976577
0.897398 0.462547 0.000793469
0.901366 0.466941 0.00077821
0.90164 0.469993 0.00077821
0.9019 0.472953 0.00077821
0.902159 0.475868 0.00077821
0.902434 0.478874 0.000762951
0.239277 0.35108 0.131594
0.244053 0.356329 0.134508
0.248951 0.361242 0.137194
0.254063 0.365728 0.139574
0.259739 0.369833 0.141848
0.265904 0.373251 0.143648
0.27306 0.375784 0.144656
0.281651 0.377417 0.144701
0.292668 0.378378 0.144076
0.306264 0.378943 0.142611
0.322881 0.379538 0.140536
0.341787 0.380346 0.138018
0.363012 0.381338 0.134905
0.387076 0.382391 0.130922
0.413489 0.383597 0.125795
0.442313 0.385107 0.119463
0.472557 0.387366 0.112078
0.50425 0.390341 0.103197
0.536355 0.393851 0.0925612
0.568856 0.398611 0.0804608
0.601053 0.403952 0.0652934
0.633722 0.409842 0.0449531
0.666453 0.416159 0.0162661
0.702037 0.42504 0.00511177
0.741222 0.436088 0.00128176
0.784741 0.449577 0.00109865
0.833692 0.465797 0.0009308
0.893751 0.48748 0.000732433
0.903761 0.493553 0.000686656
0.904067 0.496605 0.000686656
0.904402 0.499718 0.000701915
0.904723 0.502678 0.000732433
0.905028 0.505562 0.000747692
0.277226 0.393774 0.157153
0.282185 0.39913 0.160632
0.287266 0.404196 0.163943
0.292683 0.409049 0.167056
0.298329 0.413336 0.169726
0.30428 0.416953 0.171832
0.310536 0.419348 0.1729
0.318395 0.421149 0.173266
0.328038 0.422309 0.172839
0.33991 0.423011 0.171633
0.354086 0.423255 0.169558
0.370947 0.423865 0.167315
0.389654 0.424582 0.164462
0.411368 0.425437 0.16054
0.435157 0.426307 0.155627
0.461692 0.427787 0.149477
0.489906 0.429648 0.142168
0.519707 0.431983 0.133059
0.550393 0.435401 0.123278
0.581369 0.439643 0.111986
0.612909 0.444877 0.0990921
0.64448 0.45037 0.0831006
0.676478 0.456336 0.0611429
0.709361 0.462913 0.0317388
0.74548 0.471199 0.0120089
0.785794 0.481712 0.00122072
0.831632 0.495125 0.0009308
0.889906 0.514244 0.000854505
0.906783 0.521859 0.000854505
0.907088 0.524819 0.000869764
0.907378 0.527703 0.000900282
0.907652 0.530404 0.000915541
0.907912 0.533013 0.0009308
0.316869 0.437125 0.186053
0.322179 0.44271 0.189975
0.327626 0.448066 0.193668
0.333059 0.452918 0.196963
0.338796 0.457465 0.199985
0.34461 0.461341 0.202457
0.350942 0.464225 0.204044
0.357992 0.466011 0.204623
0.366262 0.46717 0.204501
0.376287 0.467292 0.203098
0.388342 0.467399 0.201343
0.403006 0.468009 0.199374
0.419379 0.468574 0.196735
0.438544 0.469062 0.193332
0.459861 0.469444 0.188693
0.483925 0.470466 0.183383
0.509621 0.471641 0.17673
0.537606 0.473823 0.168917
0.566171 0.476631 0.159731
0.595499 0.480278 0.149004
0.625483 0.484916 0.136919
0.656214 0.490211 0.121904
0.687358 0.496025 0.103456
0.719615 0.50222 0.0790112
0.752316 0.507774 0.0402075
0.78851 0.515068 0.00784314
0.831373 0.526009 0.00148013
0.886458 0.542245 0.000915541
0.909834 0.550652 0.000869764
0.91014 0.553399 0.000854505
0.910445 0.556039 0.000839246
0.910704 0.558495 0.000808728
0.910979 0.560937 0.000793469
0.358358 0.481453 0.217197
0.363897 0.487175 0.221286
0.369909 0.493111 0.22562
0.37583 0.498543 0.229557
0.381659 0.503395 0.23299
0.38735 0.507164 0.235569
0.393088 0.509926 0.237232
0.399313 0.511681 0.237964
0.406226 0.512413 0.23769
0.414954 0.512535 0.236561
0.425284 0.512581 0.235004
0.437598 0.512566 0.232868
0.451621 0.51252 0.23032
0.468528 0.512871 0.22742
0.487282 0.512703 0.223026
0.508766 0.513268 0.218357
0.532006 0.513726 0.212253
0.557382 0.515053 0.205356
0.583871 0.517311 0.197543
0.611368 0.520195 0.188602
0.639506 0.523995 0.178149
0.668742 0.528679 0.164996
0.698726 0.534295 0.148135
0.730053 0.540291 0.126604
0.762661 0.546151 0.0970932
0.797101 0.552346 0.0606851
0.834485 0.558679 0.0115969
0.885679 0.571603 0.00297551
0.91342 0.579843 0.000808728
0.913741 0.5823 0.000808728
0.914061 0.584756 0.000808728
0.914351 0.586999 0.000808728
0.914641 0.589197 0.000808728
0.40209 0.52752 0.251118
0.408133 0.533516 0.25565
0.414405 0.539528 0.260151
0.420478 0.545037 0.264302
0.426261 0.54995 0.267948
0.431846 0.55378 0.270695
0.437507 0.556771 0.272663
0.442771 0.558312 0.273335
0.448859 0.558907 0.273014
0.455741 0.558556 0.271641
0.464164 0.558053 0.26981
0.474418 0.55758 0.267659
0.486671 0.557382 0.265293
0.50042 0.556695 0.262089
0.516777 0.556023 0.257984
0.535286 0.555444 0.253162
0.556527 0.555444 0.247898
0.57937 0.555993 0.241596
0.603601 0.557412 0.234913
0.628824 0.559609 0.2271
0.655283 0.562737 0.218402
0.68275 0.566812 0.208057
0.711254 0.571572 0.194873
0.7411 0.576867 0.176532
0.772961 0.582834 0.151308
0.806516 0.588708 0.115068
0.842527 0.594293 0.0605325
0.888823 0.603403 0.0248112
0.917342 0.609354 0.000854505
0.917662 0.611704 0.000854505
0.917937 0.61384 0.000869764
0.918212 0.615869 0.000869764
0.918486 0.617823 0.000869764
0.447944 0.574624 0.286976
0.454688 0.581277 0.292149
0.461143 0.587427 0.296895
0.467903 0.593545 0.301732
0.473945 0.598642 0.305715
0.479469 0.602731 0.308797
0.484382 0.605341 0.310567
0.489204 0.60679 0.311254
0.493965 0.606973 0.310735
0.499474 0.606271 0.309331
0.505959 0.604944 0.307057
0.513863 0.603677 0.304479
0.52369 0.602594 0.301762
0.535302 0.601312 0.298405
0.548898 0.59971 0.294118
0.564614 0.598321 0.289235
0.583001 0.597345 0.283726
0.603128 0.596918 0.277745
0.624949 0.597345 0.271717
0.648478 0.59881 0.264668
0.673014 0.601175 0.257053
0.698695 0.60444 0.248569
0.725002 0.608255 0.238025
0.753552 0.612848 0.223819
0.784039 0.618311 0.20383
0.816785 0.624094 0.175036
0.852827 0.630289 0.132326
0.89482 0.635706 0.0564126
0.921828 0.639246 0.00077821
0.922148 0.641199 0.00077821
0.922423 0.643046 0.000762951
0.922698 0.64477 0.000762951
0.922942 0.646357 0.000762951
0.497002 0.624399 0.326329
0.504631 0.63183 0.332357
0.511849 0.638666 0.337896
0.518654 0.644877 0.34287
0.524422 0.64979 0.346792
0.529931 0.653895 0.349981
0.53431 0.656245 0.351629
0.538003 0.65716 0.351995
0.54136 0.656519 0.350881
0.545037 0.65481 0.348669
0.549615 0.652735 0.345937
0.55555 0.650706 0.342977
0.562982 0.648768 0.339986
0.571923 0.646296 0.335927
0.582635 0.64358 0.331044
0.595712 0.64126 0.325841
0.611337 0.639261 0.320272
0.628611 0.637659 0.314076
0.648447 0.637324 0.308217
0.669566 0.637781 0.30164
0.69221 0.639368 0.294911
0.715908 0.641794 0.287404
0.740719 0.645121 0.279133
0.767407 0.648905 0.267903
0.79649 0.653529 0.252171
0.827848 0.658701 0.229587
0.862516 0.664485 0.197406
0.904494 0.670192 0.118074
0.93193 0.67422 0.066041
0.932677 0.676448 0.0717784
0.933318 0.678325 0.0766613
0.933898 0.680034 0.0811017
0.934478 0.681743 0.0855421
0.551064 0.67866 0.37055
0.559167 0.686412 0.37702
0.566491 0.693278 0.382757
0.573098 0.699229 0.387717
0.579232 0.704479 0.39202
0.5841 0.70811 0.394903
0.587671 0.709957 0.396201
0.58999 0.710063 0.395972
0.591867 0.708522 0.394171
0.59379 0.705913 0.391333
0.596033 0.702556 0.387655
0.59942 0.699077 0.383658
0.604578 0.696101 0.379904
0.61088 0.692546 0.375189
0.618601 0.688319 0.369467
0.628931 0.684672 0.363546
0.64155 0.681498 0.357565
0.656062 0.678721 0.350958
0.673411 0.677333 0.344762
0.692195 0.676768 0.338415
0.712673 0.677485 0.332097
0.734569 0.679026 0.325261
0.757809 0.681682 0.318166
0.782818 0.685084 0.309743
0.810315 0.68864 0.296666
0.840467 0.693507 0.279316
0.87335 0.698344 0.255604
0.915572 0.704479 0.1935
0.942 0.709239 0.157671
0.942306 0.710567 0.161273
0.942611 0.711894 0.164874
0.942931 0.713207 0.168475
0.94316 0.714199 0.171176
0.61062 0.737362 0.420005
0.618845 0.745205 0.426703
0.626764 0.752605 0.433036
0.633585 0.758785 0.43827
0.639139 0.763546 0.442252
0.643565 0.766918 0.445014
0.64654 0.768429 0.446159
0.647334 0.767239 0.444816
0.64683 0.764187 0.441749
0.646433 0.760189 0.437766
0.646265 0.755367 0.432898
0.647135 0.750576 0.427863
0.649424 0.745846 0.42266
0.652506 0.740444 0.416556
0.657908 0.735409 0.410422
0.664775 0.729992 0.403479
0.673961 0.724926 0.396185
0.68571 0.720821 0.388983
0.700069 0.718105 0.382467
0.716594 0.716777 0.376318
0.734981 0.716396 0.370077
0.755016 0.717235 0.363912
0.776318 0.718654 0.357015
0.798779 0.720958 0.349752
0.825162 0.724208 0.339422
0.853834 0.727947 0.324971
0.884764 0.73225 0.307347
0.925902 0.737758 0.263096
0.949691 0.741863 0.240024
0.949966 0.743008 0.242344
0.950195 0.743954 0.244266
0.950423 0.744915 0.246189
0.950607 0.745678 0.24773
0.679255 0.804074 0.477775
0.687892 0.812222 0.484916
0.695552 0.819394 0.491203
0.702541 0.825833 0.496818
0.708492 0.831083 0.501411
0.712551 0.834241 0.504158
0.713985 0.834562 0.504265
0.712596 0.831678 0.501442
0.709194 0.826276 0.496254
0.706111 0.820417 0.490639
0.702724 0.813428 0.483879
0.700404 0.806455 0.476982
0.69955 0.800031 0.470375
0.699001 0.792248 0.462257
0.700221 0.784695 0.453986
0.703258 0.777218 0.445518
0.709102 0.770474 0.437125
0.717723 0.764828 0.429038
0.729824 0.761303 0.422339
0.743847 0.758755 0.416037
0.759884 0.757366 0.409888
0.777615 0.756832 0.403555
0.797314 0.75787 0.39762
0.818021 0.759335 0.390951
0.841825 0.761578 0.382223
0.869108 0.764645 0.370184
0.898634 0.768063 0.355047
0.937636 0.772992 0.323308
0.957916 0.775906 0.307897
0.958114 0.776669 0.309438
0.958251 0.777234 0.310582
0.958389 0.777798 0.311727
0.958526 0.778378 0.312886
0.761669 0.883375 0.548348
0.770657 0.891844 0.555947
0.779019 0.899702 0.562982
0.78645 0.90663 0.569162
0.78909 0.908843 0.571115
0.78967 0.908873 0.571069
0.790494 0.908888 0.570962
0.78938 0.906706 0.568826
0.783612 0.899504 0.562097
0.776532 0.89044 0.553582
0.769238 0.880461 0.544121
0.762371 0.870222 0.534295
0.756863 0.860288 0.524559
0.751766 0.849439 0.513771
0.747982 0.838376 0.502464
0.74638 0.827893 0.491356
0.749187 0.819684 0.482094
0.754864 0.812772 0.473457
0.763363 0.807416 0.465614
0.774212 0.80325 0.458381
0.787442 0.800671 0.452003
0.80293 0.799298 0.445838
0.820371 0.799161 0.439918
0.839292 0.800046 0.434043
0.860731 0.801221 0.426459
0.886564 0.804028 0.416846
0.914717 0.806943 0.404089
0.951049 0.811093 0.380819
0.968215 0.813291 0.370336
0.968277 0.813519 0.370718
0.968414 0.813977 0.371435
0.968536 0.814435 0.372183
0.968612 0.814664 0.372549
0.788174 0.908782 0.571221
0.788357 0.908797 0.571252
0.788571 0.908812 0.571267
0.78883 0.908843 0.571283
0.789242 0.908873 0.571252
0.789868 0.908888 0.571191
0.790707 0.908904 0.571069
0.791882 0.908919 0.570886
0.793469 0.908949 0.570642
0.795453 0.90898 0.570336
0.797864 0.909056 0.569986
0.800671 0.909148 0.569589
0.804105 0.909224 0.56907
0.808072 0.909178 0.568307
0.803922 0.899229 0.558312
0.799664 0.887587 0.546471
0.797223 0.875898 0.534264
0.79794 0.865934 0.523247
0.801968 0.857923 0.51342
0.808606 0.851301 0.504356
0.818311 0.846891 0.497002
0.831113 0.844495 0.490715
0.845792 0.842985 0.48455
0.862837 0.843366 0.479515
0.881636 0.843381 0.47274
0.90576 0.845945 0.465431
0.93196 0.848234 0.455146
0.965454 0.851209 0.437476
0.979767 0.852949 0.43064
0.979767 0.852949 0.430655
0.979858 0.853239 0.431052
0.979858 0.853239 0.431052
0.979858 0.853239 0.431052
0.788251 0.908782 0.571374
0.788449 0.908812 0.57142
0.788663 0.908827 0.571435
0.788968 0.908858 0.571435
0.789395 0.908888 0.571389
0.790051 0.908888 0.571328
0.790936 0.908919 0.571191
0.792126 0.908934 0.570977
0.793713 0.908965 0.570718
