lut/7057ac39-d4d6-4aad-9bc5-ecdc8747be32.cube
TITLE "Golden Sunlight Love"
LUT_3D_SIZE 5
0.0340276 0.0332036 0.0319066
0.0885634 0.0355077 0.026276
0.334462 0.0401465 0
0.5991 0.118593 0
0.888914 0.310246 0
0.0631571 0.0903792 0.0455482
0.120348 0.101411 0.0432746
0.400565 0.119173 0.00262455
0.724224 0.243107 0.00015259
0.892241 0.354925 0
0.277226 0.393774 0.157153
0.328038 0.422309 0.172839
0.489906 0.429648 0.142168
0.74548 0.471199 0.0120089
0.907912 0.533013 0.0009308
0.679255 0.804074 0.477775
0.709194 0.826276 0.496254
0.709102 0.770474 0.437125
0.841825 0.761578 0.382223
0.958526 0.778378 0.312886
0.788464 0.908843 0.571923
0.794247 0.90898 0.570901
0.826978 0.909651 0.565606
0.918914 0.912947 0.547005
1 0.917861 0.5178
0.0333867 0.0501106 0.0993362
0.0868086 0.0506752 0.0886549
0.335409 0.0506752 0.0202182
0.603525 0.129213 0
0.889067 0.315419 0
0.0640269 0.103609 0.101167
0.128145 0.121294 0.111666
0.417731 0.146532 0.0729076
0.741207 0.264576 0.000213626
0.892714 0.366491 4.57771e-05
0.285679 0.406165 0.202594
0.338506 0.435828 0.226184
0.500084 0.4421 0.201129
0.761059 0.485985 0.0767376
0.908202 0.537926 0.000976577
0.689906 0.815198 0.501701
0.711818 0.829664 0.513085
0.70544 0.767407 0.449912
0.834455 0.755215 0.396445
0.956466 0.770001 0.325628
0.788632 0.909575 0.585199
0.794141 0.909636 0.583017
0.825803 0.910109 0.574899
0.914061 0.91313 0.556924
1 0.918273 0.527886
0.016968 0.160525 0.376837
0.0748608 0.162478 0.373007
0.34876 0.166262 0.338796
0.609216 0.223026 0.31249
0.900389 0.371237 0.191043
0.0522164 0.20444 0.380285
0.125902 0.237507 0.410285
0.425269 0.258122 0.403128
0.754086 0.346777 0.385077
0.906294 0.435676 0.390539
0.285924 0.438895 0.416541
0.338918 0.468772 0.442756
0.500252 0.472816 0.433326
0.759609 0.513085 0.415808
0.920089 0.566491 0.387594
0.676646 0.809735 0.588617
0.691981 0.81738 0.593378
0.686091 0.754147 0.541299
0.808484 0.738705 0.505547
0.9523 0.753704 0.463676
0.78851 0.914916 0.662882
0.7935 0.914473 0.655299
0.822782 0.91371 0.635691
0.901701 0.91603 0.619516
1 0.921492 0.596735
0 0.362066 0.614252
0.0599832 0.360357 0.610666
0.352178 0.345083 0.581552
0.623285 0.381506 0.586511
0.9075 0.491035 0.620874
0.0358129 0.394812 0.632151
0.119554 0.446555 0.683513
0.437446 0.460304 0.687694
0.780423 0.532799 0.725521
0.913481 0.642786 0.830823
0.289876 0.531731 0.655467
0.344198 0.5691 0.697551
0.507774 0.56759 0.688655
0.768338 0.601984 0.702556
0.923506 0.65182 0.732998
0.681285 0.846433 0.79649
0.689464 0.847272 0.796841
0.680156 0.777813 0.728771
0.7991 0.757778 0.697429
0.951492 0.770535 0.68278
0.78793 0.944823 0.870359
0.792874 0.937606 0.839002
0.821897 0.927718 0.774014
0.897108 0.927337 0.748699
1 0.932601 0.736797
0 0.578042 0.831174
0.00886549 0.580423 0.833234
0.351492 0.604135 0.853605
0.645792 0.614862 0.853391
0.911727 0.64184 0.844999
0 0.584817 0.831418
0.103853 0.605478 0.849546
0.45037 0.616281 0.855451
0.81709 0.638117 0.849668
0.913893 0.654795 0.845609
0.28954 0.667613 0.857939
0.350698 0.677333 0.8589
0.518181 0.67863 0.858808
0.784344 0.692775 0.854505
0.9252 0.712505 0.849592
0.696544 0.87982 0.879896
0.697536 0.875563 0.879179
0.682277 0.823209 0.871153
0.800198 0.808881 0.866117
0.952407 0.818265 0.8598
0.787854 0.947753 0.882826
0.792523 0.947784 0.882765
0.821698 0.948516 0.882826
0.897154 0.950347 0.882475
1 0.954467 0.881895
