lut/7fd2d97d-3b13-4424-b8e3-0515cbd06545.cube
TITLE "Extreme Contrast Warmth"
LUT_3D_SIZE 16
0.000000 0.000000 0.000000
0.001069 0.000024 0.000000
0.003822 0.000116 0.000092
0.010782 0.000314 0.000159
0.026533 0.000363 0.000182
0.058425 0.000000 0.000125
0.119299 0.000000 0.000004
0.218539 0.000000 0.000000
0.345694 0.000000 0.000000
0.484302 0.000000 0.000000
0.613035 0.000000 0.000000
0.720243 0.000000 0.000000
0.804414 0.000000 0.000000
0.860905 0.000000 0.000000
0.896947 0.000000 0.000000
0.918456 0.000000 0.000000
0.000277 0.001097 0.000218
0.001488 0.001305 0.000311
0.005570 0.001630 0.000273
0.015200 0.001599 0.000234
0.034602 0.001506 0.000188
0.070807 0.001170 0.000153
0.136828 0.000528 0.000027
0.238740 0.000000 0.000000
0.365151 0.000000 0.000000
0.501279 0.000000 0.000000
0.627966 0.000000 0.000000
0.735436 0.000000 0.000000
0.817062 0.000000 0.000000
0.871622 0.000000 0.000000
0.906514 0.000000 0.000000
0.927609 0.000000 0.000000
0.001173 0.004472 0.000372
0.002502 0.005074 0.000416
0.006908 0.005647 0.000429
0.018536 0.006496 0.000364
0.042070 0.006368 0.000329
0.085326 0.004464 0.000191
0.160190 0.002409 0.000058
0.266330 0.000690 0.000000
0.393282 0.000000 0.000000
0.526275 0.000000 0.000000
0.648178 0.000000 0.000000
0.754110 0.000000 0.000000
0.834044 0.000000 0.000000
0.885950 0.000000 0.000000
0.920144 0.000000 0.000000
0.940573 0.000000 0.000000
0.002173 0.013703 0.000436
0.004650 0.014853 0.000511
0.009530 0.016422 0.000692
0.022161 0.017799 0.000669
0.049292 0.018948 0.000589
0.099586 0.016575 0.000356
0.184898 0.009367 0.000089
0.299464 0.005242 0.000001
0.430087 0.003461 0.000000
0.560933 0.001729 0.000000
0.680345 0.000278 0.000000
0.779731 0.000000 0.000000
0.855640 0.000000 0.000000
0.906378 0.000488 0.000000
0.937290 0.007207 0.000000
0.956407 0.013377 0.000000
0.003221 0.035705 0.000490
0.006498 0.037813 0.000576
0.013454 0.040641 0.000774
0.029183 0.044122 0.000982
0.060370 0.046069 0.001026
0.117664 0.045740 0.000819
0.210255 0.039814 0.000106
0.331173 0.029773 0.000014
0.465889 0.022468 0.000000
0.597295 0.019453 0.000000
0.712673 0.020652 0.000000
0.810124 0.025218 0.000000
0.881899 0.030644 0.000000
0.928882 0.035855 0.000000
0.958652 0.041210 0.000000
0.975355 0.046569 0.000000
0.004128 0.082972 0.000414
0.006245 0.086630 0.000495
0.016065 0.092406 0.000678
0.037215 0.099482 0.001025
0.079028 0.109427 0.001465
0.150793 0.112462 0.001441
0.251070 0.107187 0.000721
0.367289 0.097173 0.000059
0.500486 0.088802 0.000008
0.630481 0.084741 0.000000
0.744527 0.085490 0.000000
0.839565 0.093150 0.000000
0.906144 0.101920 0.000000
0.949572 0.111941 0.000000
0.975835 0.122204 0.000000
0.991048 0.133274 0.000000
0.003208 0.175081 0.000091
0.006942 0.181401 0.000062
0.015753 0.191462 0.000057
0.042722 0.209915 0.000404
0.096003 0.226069 0.001307
0.186953 0.235677 0.001805
0.297485 0.232673 0.001451
0.414546 0.221270 0.000599
0.536665 0.208146 0.000019
0.659254 0.201893 0.000002
0.771159 0.202913 0.000000
0.860205 0.208074 0.000000
0.924446 0.216374 0.000000
0.964964 0.226184 0.000000
0.987015 0.235340 0.000000
0.997626 0.245375 0.000000
0.004959 0.309662 0.000001
0.014841 0.317627 0.000000
0.031147 0.331358 0.000000
0.069577 0.351550 0.000496
0.136035 0.370306 0.001497
0.230715 0.382812 0.002734
0.347436 0.385355 0.002471
0.461729 0.377066 0.001299
0.574310 0.364065 0.000308
0.686491 0.350870 0.000020
0.788680 0.349743 0.000003
0.874067 0.353502 0.000017
0.936156 0.359533 0.000023
0.973534 0.367939 0.000021
0.991511 0.373473 0.000014
0.999093 0.380805 0.000010
0.030842 0.457933 0.000000
0.043647 0.465278 0.000010
0.068814 0.477869 0.000020
0.117125 0.494457 0.001501
0.192859 0.512832 0.004554
0.298742 0.526476 0.006663
0.406275 0.531660 0.007016
0.515659 0.529412 0.005440
0.614823 0.520975 0.002918
0.713554 0.511564 0.000692
0.807718 0.505212 0.000313
0.885598 0.509461 0.000302
0.943928 0.514186 0.000254
0.977469 0.517739 0.000196
0.993436 0.522012 0.000148
0.999325 0.525688 0.000121
0.090704 0.595239 0.004760
0.105175 0.600667 0.005663
0.143789 0.611587 0.008016
0.195508 0.625410 0.011495
0.279286 0.639037 0.014490
0.374400 0.648746 0.016510
0.477460 0.655612 0.016275
0.572914 0.657414 0.014389
0.662722 0.654703 0.010998
0.745215 0.650818 0.007285
0.827628 0.647855 0.003842
0.898716 0.650689 0.001797
0.949941 0.652744 0.001239
0.980597 0.656960 0.000897
0.994607 0.658656 0.000646
0.999467 0.660629 0.000496
0.191850 0.705349 0.023869
0.204740 0.708959 0.025339
0.240994 0.714481 0.027474
0.302424 0.725324 0.030184
0.373771 0.735299 0.032887
0.464306 0.744462 0.033578
0.552943 0.751074 0.032621
0.634896 0.755679 0.029477
0.713946 0.756222 0.023676
0.781067 0.755232 0.016468
0.848423 0.755270 0.011324
0.912088 0.758880 0.006561
0.958822 0.761960 0.003168
0.983886 0.763952 0.002102
0.995765 0.766503 0.001472
0.999592 0.768077 0.001080
0.309927 0.787014 0.047002
0.322733 0.788860 0.047529
0.355053 0.792579 0.048487
0.403161 0.796607 0.049384
0.470247 0.803006 0.049495
0.543105 0.807035 0.049663
0.615651 0.812620 0.047198
0.689040 0.816897 0.042866
0.752721 0.820608 0.037190
0.815891 0.823050 0.029003
0.869694 0.825111 0.019044
0.923254 0.828381 0.012272
0.965119 0.832333 0.006993
0.986722 0.836299 0.003562
0.996715 0.839724 0.002282
0.999696 0.841240 0.001535
0.385131 0.847245 0.070087
0.400259 0.848226 0.070195
0.431298 0.850189 0.069793
0.474489 0.852539 0.069811
0.531255 0.855410 0.068750
0.591855 0.857759 0.066448
0.657045 0.860327 0.062981
0.724442 0.862849 0.056971
0.781505 0.865871 0.048557
0.841761 0.868397 0.038798
0.888509 0.871688 0.029158
0.933525 0.873935 0.017413
0.972025 0.876971 0.011048
0.988351 0.880364 0.005614
0.997341 0.884235 0.003142
0.999773 0.886534 0.001979
0.411191 0.886326 0.084856
0.434219 0.886404 0.084408
0.464499 0.886467 0.084017
0.509686 0.888330 0.081916
0.565005 0.890305 0.080308
0.620859 0.892822 0.076974
0.683033 0.894964 0.072733
0.744967 0.898074 0.066579
0.801052 0.899552 0.058276
0.856168 0.900817 0.046971
0.901068 0.902322 0.036120
0.942384 0.904246 0.025415
0.976499 0.905977 0.014848
0.990324 0.908226 0.008552
0.997764 0.910737 0.004069
0.999777 0.912480 0.002511
0.395381 0.917889 0.092935
0.428848 0.917211 0.091913
0.466240 0.916707 0.090876
0.515563 0.916807 0.088841
0.570252 0.916763 0.085777
0.627563 0.916810 0.082043
0.691758 0.917058 0.076689
0.752291 0.917948 0.070312
0.810239 0.919437 0.062207
0.864024 0.921259 0.051674
0.910064 0.923039 0.040151
0.948518 0.923690 0.029939
0.979022 0.924052 0.018637
0.991878 0.925138 0.011480
0.998163 0.926243 0.005699
0.999741 0.927049 0.003369
0.350891 0.939831 0.094445
0.391458 0.939827 0.093948
0.438937 0.938950 0.092170
0.493845 0.937614 0.089248
0.556354 0.936553 0.086005
0.618106 0.935450 0.081380
0.685472 0.934227 0.076072
0.751288 0.933473 0.069285
0.811174 0.933352 0.061578
0.866699 0.933504 0.051950
0.913862 0.933987 0.041047
0.951551 0.934907 0.032445
0.980650 0.935536 0.022405
0.992736 0.935977 0.013708
0.998387 0.936766 0.008066
0.999706 0.941540 0.228464
0.000000 0.000057 0.002113
0.000879 0.000000 0.005053
0.003147 0.000020 0.004197
0.010069 0.000000 0.003556
0.027280 0.000007 0.002130
0.060197 0.000000 0.000610
0.122969 0.000000 0.000004
0.222056 0.000000 0.000000
0.352515 0.000000 0.000000
0.492222 0.000000 0.000000
0.619695 0.000000 0.000000
0.728074 0.000000 0.000000
0.808701 0.000000 0.000000
0.861949 0.000000 0.000000
0.896240 0.000000 0.000000
0.916966 0.000000 0.000000
0.000000 0.001166 0.005062
0.001325 0.001265 0.005303
0.005442 0.001344 0.004503
0.016293 0.001047 0.003145
0.037767 0.000372 0.001902
0.077907 0.000000 0.000653
0.149044 0.000000 0.000019
0.252767 0.000000 0.000000
0.379495 0.000000 0.000000
0.513267 0.000000 0.000000
0.636476 0.000000 0.000000
0.742754 0.000000 0.000000
0.821220 0.000000 0.000000
0.872713 0.000000 0.000000
0.906126 0.000000 0.000000
0.926385 0.000000 0.000000
0.000000 0.004581 0.002847
0.001880 0.005181 0.003078
0.006706 0.005705 0.003412
0.019879 0.006249 0.003227
0.045619 0.005544 0.002599
0.093544 0.002688 0.000982
0.173582 0.000604 0.000175
0.283660 0.000123 0.000000
0.411201 0.000000 0.000000
0.541179 0.000000 0.000000
0.659529 0.000000 0.000000
0.759573 0.000000 0.000000
0.837458 0.000000 0.000000
0.887577 0.000000 0.000000
0.919556 0.000000 0.000000
0.939337 0.000000 0.000000
0.000227 0.013366 0.001055
0.002246 0.015169 0.001305
0.007915 0.016763 0.001823
0.021756 0.018142 0.002293
0.051425 0.018636 0.002634
0.106458 0.015288 0.001548
0.196097 0.005807 0.000238
0.313221 0.002379 0.000001
0.443705 0.001871 0.000000
0.571898 0.001120 0.000000
0.686700 0.000242 0.000000
0.784182 0.000000 0.000000
0.858253 0.000000 0.000000
0.907572 0.000000 0.000000
0.937117 0.001778 0.000000
0.955435 0.008715 0.000000
0.000539 0.034054 0.000487
0.001748 0.037518 0.000544
0.008096 0.041344 0.000816
0.024029 0.045375 0.001222
0.057690 0.047019 0.001559
0.123209 0.044569 0.001722
0.219880 0.036713 0.000134
0.342442 0.025561 0.000018
0.477498 0.018110 0.000000
0.606812 0.015647 0.000000
0.721498 0.017709 0.000000
0.814148 0.022136 0.000000
0.883492 0.027685 0.000000
0.929897 0.033332 0.000000
0.958518 0.038743 0.000000
0.975193 0.044123 0.000000
0.000312 0.079739 0.000234
0.001907 0.084876 0.000300
0.007093 0.092031 0.000511
0.025945 0.103823 0.000875
0.069281 0.114618 0.001371
0.147174 0.115906 0.001467
0.255911 0.106578 0.000979
0.376066 0.094276 0.000103
0.509802 0.085044 0.000010
0.639030 0.080561 0.000000
0.751728 0.082011 0.000000
0.843329 0.088885 0.000000
0.908206 0.097942 0.000000
0.950547 0.107906 0.000000
0.976455 0.118858 0.000000
0.991141 0.129804 0.000000
0.000350 0.169245 0.000063
0.000407 0.177074 0.000051
0.006913 0.188736 0.000005
0.030335 0.211308 0.000237
0.082656 0.230494 0.001059
0.176177 0.241671 0.001855
0.293800 0.236607 0.001523
0.418022 0.221373 0.000700
0.542629 0.206065 0.000027
0.666130 0.198882 0.000003
0.776304 0.199310 0.000000
0.864735 0.205482 0.000000
0.927551 0.213923 0.000000
0.966230 0.222714 0.000000
0.987835 0.232264 0.000000
0.997921 0.242331 0.000000
0.001806 0.301441 0.000000
0.003316 0.310868 0.000000
0.016135 0.327267 0.000000
0.048904 0.352061 0.000177
0.112012 0.374720 0.001103
0.210915 0.388298 0.002735
0.337676 0.390693 0.002539
0.458814 0.380580 0.001362
0.576100 0.364504 0.000336
0.690145 0.349827 0.000026
0.792281 0.347098 0.000004
0.877013 0.350399 0.000037
0.939227 0.358166 0.000059
0.974757 0.365284 0.000054
0.992042 0.371316 0.000040
0.999152 0.378682 0.000030
0.014502 0.449250 0.000000
0.023660 0.458177 0.000000
0.046044 0.472449 0.000002
0.088688 0.493346 0.000722
0.170531 0.513979 0.003869
0.278335 0.530472 0.006706
0.393413 0.536350 0.007434
0.509004 0.533673 0.005802
0.612548 0.523705 0.003133
0.714448 0.512431 0.000828
0.811618 0.505899 0.000400
0.889424 0.509564 0.000489
0.945893 0.512406 0.000492
0.978526 0.516206 0.000444
0.993886 0.520595 0.000393
0.999375 0.524434 0.000361
0.067319 0.588162 0.003474
0.079821 0.594788 0.004261
0.110676 0.608117 0.006180
0.167491 0.620696 0.009770
0.252371 0.639508 0.014178
0.354443 0.651734 0.016862
0.463706 0.658499 0.016824
0.565337 0.660497 0.014995
0.658369 0.657370 0.011456
0.743787 0.652535 0.007486
0.827809 0.648117 0.004262
0.899173 0.649148 0.002438
0.951544 0.652416 0.001864
0.981407 0.655881 0.001693
0.994962 0.658197 0.001544
0.999507 0.660276 0.001438
0.157895 0.700596 0.021254
0.176154 0.705223 0.023125
0.210062 0.714799 0.026787
0.271338 0.723081 0.029632
0.350675 0.734830 0.032928
0.443998 0.744982 0.034302
0.539903 0.752873 0.033493
0.626498 0.757561 0.030469
0.709593 0.758034 0.024643
0.778459 0.756792 0.016987
0.847917 0.756638 0.011607
0.912667 0.759591 0.007454
0.959446 0.761717 0.004522
0.984557 0.764065 0.003233
0.996047 0.766622 0.002954
0.999623 0.768178 0.002783
0.271462 0.785128 0.046395
0.291427 0.787233 0.047099
0.326309 0.790809 0.048271
0.376535 0.796929 0.049955
0.446223 0.801612 0.050736
0.526128 0.808091 0.050367
0.603694 0.813756 0.048972
0.680159 0.818060 0.044361
0.747934 0.821958 0.038900
0.812227 0.824379 0.030961
0.868314 0.826125 0.020997
0.922574 0.828923 0.013409
0.965351 0.832704 0.008544
0.987255 0.837251 0.005116
0.996910 0.839940 0.003800
0.999719 0.841634 0.003439
0.356136 0.845885 0.071163
0.373809 0.847562 0.071707
0.406028 0.849505 0.071996
0.452634 0.853197 0.071574
0.512356 0.855193 0.071800
0.579719 0.858389 0.070070
0.646671 0.860774 0.066478
0.718186 0.863326 0.060923
0.776596 0.866434 0.053200
0.839198 0.869077 0.041925
0.885356 0.871458 0.032644
0.932912 0.874592 0.021117
0.971865 0.877798 0.013131
0.988680 0.881248 0.007972
0.997449 0.884675 0.004743
0.999786 0.886920 0.003754
0.388012 0.886403 0.088908
0.411445 0.886529 0.088537
0.448082 0.887276 0.087434
0.493844 0.888428 0.086986
0.549253 0.890726 0.084998
0.609546 0.892680 0.082882
0.674160 0.895340 0.078394
0.738849 0.898557 0.072833
0.796610 0.900040 0.065150
0.853814 0.901374 0.054489
0.899085 0.902740 0.041277
0.941437 0.904696 0.030311
0.976551 0.906489 0.018771
0.990536 0.909014 0.011604
0.997799 0.911253 0.006899
0.999783 0.912967 0.004134
0.378555 0.918023 0.102989
0.411067 0.917815 0.102388
0.452368 0.917059 0.100260
0.501882 0.916868 0.098813
0.557804 0.916961 0.095772
0.617860 0.917050 0.091777
0.683690 0.917663 0.085092
0.747675 0.918485 0.079151
0.806545 0.920022 0.071601
0.862150 0.921813 0.061864
0.908459 0.923649 0.049810
0.947963 0.924235 0.037136
0.979304 0.924720 0.026238
0.991882 0.925679 0.015449
0.998161 0.926800 0.009760
0.999749 0.927575 0.006289
0.338078 0.940267 0.110034
0.379350 0.940189 0.109530
0.429141 0.939501 0.107561
0.485727 0.938557 0.104797
0.546667 0.937427 0.100489
0.610803 0.936267 0.095477
0.679900 0.935054 0.088562
0.746465 0.934225 0.081218
0.807969 0.934123 0.073917
0.865330 0.934246 0.064855
0.913670 0.934968 0.054256
0.951432 0.935732 0.040701
0.980853 0.936141 0.031505
0.992819 0.936723 0.021052
0.998349 0.937426 0.013026
0.999715 0.941937 0.284342
0.000000 0.000215 0.005062
0.000382 0.000111 0.015317
0.002760 0.000018 0.011792
0.007689 0.000013 0.009548
0.021759 0.000000 0.008497
0.054704 0.000000 0.005434
0.114971 0.000000 0.002005
0.213570 0.000000 0.000000
0.337616 0.000000 0.000000
0.474804 0.000000 0.000000
0.601918 0.000000 0.000000
0.709082 0.000000 0.000000
0.799635 0.000000 0.000000
0.855428 0.000000 0.000000
0.890859 0.000000 0.000000
0.911392 0.000000 0.000000
0.000000 0.001148 0.012777
0.000648 0.001156 0.016335
0.004404 0.000962 0.014435
0.014099 0.000630 0.011477
0.035126 0.000208 0.008597
0.074932 0.000000 0.004809
0.144460 0.000000 0.001435
0.244065 0.000000 0.000026
0.365968 0.000000 0.000000
0.497094 0.000000 0.000000
0.621487 0.000000 0.000000
0.731340 0.000000 0.000000
0.815355 0.000000 0.000000
0.868042 0.000000 0.000000
0.901318 0.000000 0.000000
0.921508 0.000000 0.000000
0.000000 0.004713 0.013645
0.000904 0.005107 0.014775
0.005341 0.005168 0.014838
0.018674 0.005187 0.013397
0.045486 0.004074 0.010448
0.096151 0.001728 0.005511
0.182383 0.000270 0.001219
0.295533 0.000000 0.000108
0.423071 0.000000 0.000000
0.549770 0.000000 0.000000
0.664426 0.000000 0.000000
0.760102 0.000000 0.000000
0.835037 0.000000 0.000000
0.885092 0.000000 0.000000
0.915401 0.000000 0.000000
0.934471 0.000000 0.000000
0.000000 0.014413 0.010477
0.001200 0.015775 0.010564
0.006291 0.017170 0.011350
0.020639 0.017961 0.012263
0.051833 0.018102 0.011720
0.109558 0.014013 0.007241
0.205797 0.004222 0.001802
0.329443 0.000386 0.000127
0.464527 0.000000 0.000000
0.590613 0.000000 0.000000
0.701228 0.000027 0.000000
0.790730 0.000000 0.000000
0.859664 0.000000 0.000000
0.905228 0.000000 0.000000
0.934804 0.000000 0.000000
0.951995 0.000000 0.000000
0.000000 0.035904 0.005113
0.000938 0.038723 0.005082
0.006331 0.043226 0.006611
0.022411 0.046813 0.008572
0.057378 0.047980 0.010043
0.127391 0.044180 0.008406
0.230548 0.033540 0.002491
0.357726 0.019619 0.000216
0.495865 0.009913 0.000016
0.623039 0.007242 0.000001
0.732492 0.009300 0.000000
0.821026 0.013853 0.000000
0.886421 0.019551 0.000000
0.929301 0.025165 0.000000
0.956836 0.031230 0.000000
0.973391 0.037049 0.000000
0.000011 0.079335 0.000890
0.000126 0.083645 0.000876
0.003254 0.094135 0.001508
0.018463 0.108347 0.002978
0.059858 0.118682 0.004515
0.145178 0.119461 0.005020
0.262045 0.106131 0.003913
0.388914 0.089720 0.000785
0.525357 0.077648 0.000181
0.654144 0.071791 0.000133
0.763653 0.073121 0.000124
0.850950 0.080348 0.000124
0.911912 0.089159 0.000118
0.952192 0.099409 0.000123
0.976750 0.110312 0.000150
0.990588 0.121292 0.000178
0.000000 0.159858 0.000039
0.000000 0.167427 0.000042
0.000007 0.184624 0.000000
0.010107 0.212014 0.000010
0.061067 0.237674 0.000936
0.158186 0.249373 0.002423
0.289679 0.242351 0.002283
0.424045 0.221064 0.001038
0.553200 0.201983 0.000307
0.678642 0.192970 0.000732
0.786854 0.193031 0.000849
0.872545 0.199537 0.000928
0.932014 0.207358 0.001008
0.968440 0.216031 0.001209
0.988971 0.225847 0.001414
0.998231 0.236518 0.001664
0.000000 0.284342 0.000000
0.000001 0.294525 0.000000
0.001625 0.313303 0.000000
0.019921 0.344545 0.000000
0.078212 0.373950 0.000586
0.184890 0.397086 0.002233
0.321440 0.399465 0.002638
0.454385 0.386416 0.001496
0.579988 0.364909 0.000380
0.697231 0.347374 0.000491
0.801524 0.343705 0.001639
0.885328 0.348294 0.002417
0.942860 0.353092 0.003060
0.976745 0.360720 0.003382
0.992873 0.366639 0.003677
0.999233 0.374137 0.003920
0.000366 0.431628 0.000000
0.000531 0.441789 0.000000
0.013531 0.459921 0.000000
0.050208 0.485200 0.000116
0.124779 0.512610 0.002350
0.238662 0.534971 0.006542
0.369250 0.543992 0.008115
0.496985 0.540814 0.006476
0.609149 0.528449 0.003471
0.716715 0.513378 0.001485
0.816517 0.504088 0.001700
0.892694 0.505042 0.002909
0.950302 0.511055 0.003910
0.980496 0.514182 0.004515
0.994602 0.517812 0.005048
0.999448 0.521505 0.005420
0.024403 0.572379 0.001358
0.034165 0.580629 0.001975
0.064841 0.596255 0.003645
0.113559 0.616357 0.006901
0.199650 0.637135 0.012779
0.316483 0.652845 0.016661
0.437817 0.663053 0.017756
0.551728 0.665921 0.016065
0.650819 0.662114 0.012269
0.741459 0.655508 0.007882
0.828696 0.648906 0.004884
0.903090 0.649630 0.004312
0.954475 0.651593 0.004770
0.982728 0.654377 0.005623
0.995526 0.656830 0.006212
0.999567 0.658871 0.006692
0.095323 0.690692 0.015939
0.115737 0.696538 0.018453
0.155448 0.705900 0.022265
0.211487 0.718957 0.028037
0.301398 0.731130 0.031848
0.403870 0.745309 0.034811
0.513676 0.755609 0.034880
0.610607 0.760397 0.032182
0.700801 0.760851 0.026328
0.773435 0.759291 0.018111
0.845993 0.757928 0.012191
0.912841 0.759955 0.008231
0.961069 0.761562 0.006629
0.985650 0.764233 0.006790
0.996483 0.766341 0.007438
0.999671 0.767878 0.008078
0.211007 0.781337 0.044824
0.229652 0.784104 0.046100
0.267687 0.787541 0.047261
0.327286 0.795257 0.049470
0.402020 0.801538 0.051730
0.492473 0.808963 0.052185
0.581123 0.814821 0.051445
0.663734 0.820099 0.047372
0.738971 0.823892 0.041285
0.806076 0.826338 0.033527
0.865606 0.827965 0.023563
0.921339 0.829609 0.014661
0.966335 0.834439 0.010104
0.987506 0.836179 0.007952
0.997203 0.840145 0.007748
0.999756 0.841904 0.008255
0.306064 0.843788 0.071855
0.329387 0.845470 0.072454
0.363739 0.849013 0.073761
0.410120 0.852913 0.074494
0.475654 0.855184 0.074069
0.551142 0.857970 0.073656
0.626263 0.861413 0.070723
0.702554 0.864312 0.065884
0.767631 0.867377 0.058715
0.832319 0.870208 0.047696
0.882897 0.873069 0.036596
0.931623 0.875554 0.025429
0.970674 0.877949 0.015192
0.988786 0.881707 0.010438
0.997624 0.885237 0.008192
0.999802 0.887488 0.007916
0.351857 0.885581 0.092371
0.374983 0.886327 0.092579
0.412365 0.887273 0.092255
0.460392 0.888492 0.092223
0.519625 0.890561 0.090065
0.586404 0.892684 0.088911
0.656516 0.895837 0.084822
0.727994 0.898911 0.079683
0.788205 0.900683 0.072822
0.849895 0.902054 0.062719
0.896329 0.903731 0.049717
0.939970 0.905328 0.036311
0.976524 0.907089 0.024500
0.990510 0.909735 0.014700
0.997871 0.911834 0.010201
0.999791 0.913506 0.008297
0.351403 0.918042 0.113522
0.383798 0.918179 0.113379
0.425865 0.918169 0.112307
0.476582 0.917889 0.110932
0.536031 0.917645 0.108547
0.602962 0.918241 0.105696
0.668925 0.918269 0.099567
0.738386 0.919006 0.091958
0.799054 0.920660 0.081838
0.858305 0.922426 0.072671
0.905164 0.924365 0.061607
0.946316 0.924914 0.047378
0.979385 0.925414 0.033914
0.991607 0.926202 0.022722
0.998122 0.927391 0.013856
0.999757 0.928223 0.010620
0.318829 0.940587 0.125889
0.362041 0.940566 0.125488
0.409443 0.940758 0.124789
0.466521 0.939603 0.122135
0.530414 0.938405 0.119035
0.598028 0.937291 0.114146
0.668195 0.935971 0.107953
0.739352 0.935034 0.100128
0.802408 0.934922 0.090106
0.861875 0.935045 0.078558
0.909764 0.935588 0.068742
0.949729 0.936379 0.056047
0.981066 0.936958 0.042141
0.992640 0.937457 0.031005
0.998288 0.938164 0.020609
0.999718 0.942181 0.344291
0.000000 0.000388 0.013175
0.000058 0.000155 0.032135
0.001286 0.000015 0.032994
0.006854 0.000008 0.021412
0.018666 0.000000 0.017480
0.044268 0.000000 0.014725
0.097907 0.000000 0.009808
0.192282 0.000000 0.002200
0.317615 0.000000 0.000100
0.456293 0.000000 0.000000
0.588507 0.000000 0.000000
0.698566 0.000000 0.000000
0.784878 0.000000 0.000000
0.839925 0.000000 0.000000
0.874355 0.000000 0.000000
0.895094 0.000000 0.000000
0.000000 0.001131 0.021320
0.000076 0.000698 0.035388
0.001925 0.000475 0.038430
0.011886 0.000285 0.029411
0.030027 0.000080 0.020886
0.065570 0.000000 0.014721
0.128706 0.000000 0.007962
0.225604 0.000000 0.001547
0.347939 0.000000 0.000006
0.482048 0.000000 0.000000
0.608885 0.000000 0.000000
0.715632 0.000000 0.000000
0.795993 0.000000 0.000000
0.848795 0.000000 0.000000
0.882314 0.000000 0.000000
0.903969 0.000000 0.000000
0.000000 0.004411 0.028704
0.000255 0.004433 0.036752
0.002242 0.004519 0.039566
0.015330 0.003328 0.033613
0.043358 0.002065 0.026554
0.095385 0.000721 0.018656
0.180240 0.000125 0.008110
0.290180 0.000000 0.001821
0.414288 0.000000 0.000097
0.538560 0.000000 0.000000
0.652019 0.000000 0.000000
0.749186 0.000000 0.000000
0.820953 0.000000 0.000000
0.868842 0.000000 0.000000
0.897874 0.000000 0.000000
0.920276 0.000000 0.000000
0.000000 0.014806 0.029051
0.000097 0.015852 0.031258
0.002405 0.017270 0.034845
0.017024 0.016606 0.034843
0.050454 0.015436 0.030117
0.111516 0.010925 0.023098
0.211505 0.003042 0.011545
0.335286 0.000152 0.002780
0.467734 0.000000 0.000325
0.592260 0.000000 0.000000
0.701637 0.000000 0.000000
0.789306 0.000000 0.000000
0.853239 0.000000 0.000000
0.895594 0.000000 0.000000
0.922216 0.000000 0.000000
0.941305 0.000000 0.000000
0.000000 0.038155 0.022444
0.000169 0.040527 0.022176
0.002969 0.044171 0.023698
0.018403 0.046859 0.026312
0.055032 0.047316 0.029181
0.127083 0.043344 0.026239
0.234005 0.032410 0.016678
0.363943 0.018676 0.006896
0.503371 0.007801 0.001244
0.632120 0.002363 0.000107
0.742731 0.000344 0.000000
0.825871 0.000000 0.000000
0.886929 0.001775 0.000001
0.924511 0.004943 0.000000
0.949433 0.010462 0.000000
0.965855 0.018637 0.000000
0.000002 0.085175 0.010686
0.000018 0.089276 0.010518
0.001946 0.101495 0.011098
0.015580 0.113913 0.014192
0.056836 0.122648 0.020773
0.144213 0.119815 0.023995
0.264558 0.105928 0.021475
0.394039 0.089712 0.013938
0.532690 0.076732 0.006644
0.664362 0.067704 0.002898
0.773785 0.063324 0.001019
0.859137 0.064925 0.000411
0.917380 0.069221 0.000178
0.953729 0.075942 0.000227
0.975677 0.085068 0.000326
0.988023 0.096464 0.000641
0.000000 0.171948 0.001181
0.000000 0.176959 0.001167
0.000026 0.199191 0.002156
0.008506 0.222365 0.004435
0.054953 0.245794 0.009751
0.154002 0.254749 0.016844
0.291949 0.245905 0.019448
0.428704 0.222851 0.019157
0.560191 0.202108 0.013124
0.688354 0.190085 0.007404
0.799331 0.186270 0.004291
0.882619 0.188951 0.002670
0.938169 0.193874 0.002239
0.971656 0.202062 0.002945
0.990534 0.211935 0.003945
0.998582 0.221814 0.004834
0.000000 0.289022 0.000061
0.000000 0.291742 0.000040
0.000000 0.318239 0.000114
0.005210 0.347998 0.001273
0.060725 0.382537 0.005617
0.166252 0.403035 0.011594
0.311752 0.406446 0.015258
