lut/7fd2d97d-3b13-4424-b8e3-0515cbd06545.cube
TITLE "Extreme Contrast Warmth"
LUT_3D_SIZE 6
0.000000 0.000000 0.000000
0.010782 0.000314 0.000159
0.119299 0.000000 0.000004
0.484302 0.000000 0.000000
0.804414 0.000000 0.000000
0.918456 0.000000 0.000000
0.002173 0.013703 0.000436
0.022161 0.017799 0.000669
0.184898 0.009367 0.000089
0.560933 0.001729 0.000000
0.855640 0.000000 0.000000
0.956407 0.013377 0.000000
0.003208 0.175081 0.000091
0.042722 0.209915 0.000404
0.297485 0.232673 0.001451
0.659254 0.201893 0.000002
0.924446 0.216374 0.000000
0.997626 0.245375 0.000000
0.090704 0.595239 0.004760
0.195508 0.625410 0.011495
0.477460 0.655612 0.016275
0.745215 0.650818 0.007285
0.949941 0.652744 0.001239
0.999467 0.660629 0.000496
0.385131 0.847245 0.070087
0.474489 0.852539 0.069811
0.657045 0.860327 0.062981
0.841761 0.868397 0.038798
0.972025 0.876971 0.011048
0.999773 0.886534 0.001979
0.350891 0.939831 0.094445
0.493845 0.937614 0.089248
0.685472 0.934227 0.076072
0.866699 0.933504 0.051950
0.980650 0.935536 0.022405
0.999706 0.941540 0.228464
0.000000 0.000388 0.013175
0.006854 0.000008 0.021412
0.097907 0.000000 0.009808
0.456293 0.000000 0.000000
0.784878 0.000000 0.000000
0.895094 0.000000 0.000000
0.000000 0.014806 0.029051
0.017024 0.016606 0.034843
0.211505 0.003042 0.011545
0.592260 0.000000 0.000000
0.853239 0.000000 0.000000
0.941305 0.000000 0.000000
0.000000 0.171948 0.001181
0.008506 0.222365 0.004435
0.291949 0.245905 0.019448
0.688354 0.190085 0.007404
0.938169 0.193874 0.002239
0.998582 0.221814 0.004834
0.000064 0.543220 0.000020
0.047250 0.600102 0.003200
0.395003 0.668581 0.020815
0.738628 0.659727 0.010022
0.959096 0.649678 0.008264
0.999652 0.656161 0.014602
0.218214 0.838596 0.071266
0.339317 0.850734 0.075823
0.590622 0.862390 0.075944
0.821310 0.871781 0.055349
0.970104 0.879450 0.018041
0.999816 0.887832 0.012863
0.285760 0.940857 0.142131
0.430846 0.940766 0.139200
0.647237 0.937154 0.128478
0.856156 0.935877 0.101590
0.981291 0.938031 0.058678
0.999744 0.943098 0.357881
0.000000 0.000033 0.084523
0.000000 0.000000 0.203066
0.075461 0.000000 0.100550
0.336183 0.000000 0.055864
0.710947 0.000000 0.031260
0.882712 0.000000 0.029218
0.000000 0.010096 0.166867
0.000000 0.007397 0.279529
0.182539 0.000004 0.206640
0.523457 0.000000 0.094905
0.798975 0.000000 0.053318
0.932471 0.000000 0.095402
0.000000 0.187421 0.180788
0.000000 0.222506 0.214619
0.281882 0.248964 0.300643
0.707572 0.199855 0.218989
0.943144 0.188468 0.186216
0.998934 0.207170 0.176633
0.000000 0.576335 0.148802
0.025137 0.626363 0.163599
0.357315 0.677399 0.229922
0.747449 0.665761 0.229278
0.969383 0.656500 0.186027
0.999793 0.655605 0.167037
0.057473 0.832315 0.196022
0.145063 0.850251 0.202401
0.464936 0.866421 0.225142
0.792396 0.874552 0.231572
0.972177 0.884273 0.171058
0.999880 0.893260 0.144710
0.119806 0.935981 0.235433
0.254138 0.942218 0.239364
0.536819 0.941244 0.245570
0.813890 0.938248 0.230996
0.976651 0.941603 0.178772
0.999681 0.942021 0.577397
0.000000 0.000091 0.259802
0.000000 0.000000 0.446045
0.028489 0.000000 0.515870
0.288878 0.000000 0.280509
0.597997 0.000000 0.283522
0.840518 0.000000 0.386776
0.000000 0.005152 0.378792
0.000000 0.004149 0.539633
0.059346 0.001493 0.772870
0.446780 0.000000 0.435277
0.676206 0.000000 0.350028
0.909538 0.000000 0.529314
0.000000 0.175781 0.587104
0.000000 0.189791 0.711992
0.063552 0.261175 0.869896
0.703938 0.193944 0.717617
0.914573 0.140430 0.667135
0.991697 0.220036 0.671840
0.000000 0.607032 0.589553
0.000000 0.624226 0.612353
0.110706 0.694693 0.734482
0.737296 0.664072 0.754718
0.955267 0.639599 0.685355
0.999477 0.642128 0.663240
0.002820 0.866621 0.628541
0.035391 0.876411 0.624354
0.391761 0.876512 0.660137
0.775317 0.863216 0.694711
0.962236 0.874330 0.672771
0.999798 0.888512 0.635208
0.036783 0.961523 0.645843
0.184177 0.961536 0.657316
0.480707 0.946194 0.659612
0.789917 0.934934 0.666435
0.969732 0.938415 0.664143
0.999721 0.943958 0.637655
0.000000 0.000124 0.558093
0.000000 0.000000 0.724517
0.000000 0.000000 0.998895
0.350151 0.000000 0.791645
0.616638 0.000000 0.599175
0.813121 0.000000 0.681408
0.000000 0.012872 0.680787
0.000000 0.011190 0.817514
0.000000 0.027734 0.999956
0.491360 0.000124 0.925799
0.689300 0.000000 0.690856
0.886866 0.000000 0.803968
0.000000 0.213586 0.890850
0.000000 0.234692 0.938759
0.000000 0.294645 0.999179
0.584352 0.300797 0.997858
0.891246 0.210357 0.927549
0.973888 0.277980 0.925988
0.000000 0.635116 0.957106
0.000000 0.649637 0.969932
0.062785 0.700077 1.000000
0.573708 0.687300 1.000000
0.927225 0.643208 0.966908
0.992589 0.647340 0.967241
0.000000 0.896992 0.966588
0.000000 0.902435 0.973401
0.007233 0.918144 0.992402
0.628306 0.880905 0.997478
0.942422 0.856758 0.976432
0.999399 0.873415 0.981493
0.000002 0.986329 0.995289
0.045807 0.987495 0.997704
0.357892 0.971438 0.997523
0.734212 0.943640 0.982988
0.957037 0.931488 0.977784
0.999517 0.937908 0.984025
0.000000 0.005060 0.901586
0.000000 0.005618 0.988243
0.000000 0.024960 1.000000
0.372181 0.032348 0.999880
0.754459 0.007644 0.927437
0.853492 0.000000 0.879525
0.000000 0.049029 0.965262
0.000000 0.060587 0.999931
0.000000 0.103447 1.000000
0.402569 0.129965 1.000000
0.814246 0.103411 0.973192
0.911947 0.085428 0.944889
0.000000 0.297316 0.997741
0.000000 0.319430 0.999207
0.000000 0.378527 1.000000
0.397564 0.416638 1.000000
0.868068 0.396375 0.998918
0.970989 0.368081 0.992262
0.000000 0.677621 1.000000
0.000000 0.686920 1.000000
0.000000 0.720746 1.000000
0.396066 0.733443 1.000000
0.887523 0.694904 0.999783
0.984844 0.670990 0.998735
0.000000 0.914875 1.000000
0.000000 0.919521 1.000000
0.000000 0.932501 1.000000
0.579844 0.891345 1.000000
0.925892 0.864734 1.000000
0.995557 0.858744 1.000000
0.000000 0.990953 1.000000
0.015306 0.993102 1.000000
0.290608 0.980945 1.000000
0.704491 0.948530 1.000000
0.954073 0.931264 1.000000
0.998657 0.931235 1.000000
