lut/87f243e8-b50c-4f4c-8a88-b9a3d951f6a1.cube
TITLE "Gritty Cyan Contrast"
LUT_3D_SIZE 33
0 0 0
0 0 0
0 0 0
0 0 0
0 0 0
0.0109255 0 0
0.0248264 0 0
0.0384985 0 0
0.0526284 0 0
0.0678721 0 0
0.0849012 0 0
0.104479 0 0
0.127733 0 0
0.15555 0 0
0.188678 0 0
0.228046 0 0
0.272068 0 0
0.318288 0 0
0.364431 0 0
0.409079 0 0
0.454932 0 0
0.501274 0 0
0.546746 0 0
0.58999 0 0
0.629664 0 0
0.664683 0 0
0.695293 0 0
0.721981 0 0
0.745281 0 0
0.765667 0 0
0.783886 0 0
0.800488 0 0
0.815915 0 0
0 0 0
0 0 0
0 0 0
0 0 0
0 0 0
0.0119783 0 0
0.0258335 0 0
0.0395209 0 0
0.0537118 0 0
0.0690623 0 0
0.0862593 0 0
0.105928 0 0
0.129763 0 0
0.158114 0 0
0.191867 0 0
0.231556 0 0
0.275608 0 0
0.321736 0 0
0.367651 0 0
0.412192 0 0
0.458076 0 0
0.504372 0 0
0.549737 0 0
0.592813 0 0
0.632242 0 0
0.667018 0 0
0.697459 0 0
0.724071 0 0
0.747356 0 0
0.767803 0 0
0.786175 0 0
0.803006 0 0
0.818708 0 0
0 0 0
0 0 0
0 0 0
0 0 0
0 0 0
0.0130312 0 0
0.0268559 0 0
0.0405432 0 0
0.0547799 0 0
0.0704662 0 0
0.0879683 0 0
0.10808 0 0
0.131991 0 0
0.160525 0 0
0.194568 0 0
0.234531 0 0
0.278737 0 0
0.32488 0 0
0.370672 0 0
0.415259 0 0
0.461265 0 0
0.507622 0 0
0.553002 0 0
0.596002 0 0
0.635309 0 0
0.669978 0 0
0.700389 0 0
0.727031 0 0
0.750408 0 0
0.771054 0 0
0.7897 0 0
0.806867 0 0
0.82298 0 0
0 0.00325017 0
0 0.00358587 0
0 0.00393683 0
0 0.00427253 0
0 0.00442512 0
0.014023 0.00494392 0
0.0280003 0.00552377 0
0.0418097 0.00605783 0
0.0561685 0.00636301 0
0.0717479 0.00627146 0
0.0892195 0.00561532 0
0.109422 0.00419623 0
0.133532 0.00167849 0
0.162371 0 0
0.196796 0 0
0.23714 0 0
0.28159 0 0
0.32784 0 0
0.373617 0 0
0.418387 0 0
0.464637 0 0
0.511162 0 0
0.556649 0 0
0.599695 0 0
0.638987 0 0
0.673655 0 0
0.704158 0 0
0.730953 0 0
0.754559 0 0
0.775509 0 0
0.794553 0 0
0.812192 0 0
0.828855 0 0
0 0.0181888 0
0 0.0184329 0
0 0.0190127 0
0 0.0195163 0
0.000762951 0.0199741 0
0.015259 0.0202182 0
0.0290074 0.0205997 0
0.04271 0.0209506 0
0.057023 0.021088 0
0.0726329 0.0208591 0
0.0902266 0.0200961 0
0.110689 0.0185702 0
0.135134 0.0159762 0
0.164416 0.0121157 0
0.19939 0.00675975 0
0.240253 0 0
0.285084 0 0
0.331579 0 0
0.377447 0 0
0.422568 0 0
0.469184 0 0
0.516045 0 0
0.561746 0 0
0.604974 0 0
0.644373 0 0
0.679194 0 0
0.709911 0 0
0.737011 0 0
0.760983 0 0
0.782422 0 0
0.802075 0 0
0.820417 0 0
0.837873 0 0
0 0.0332647 0
0 0.0336767 0
0 0.0340276 0
0 0.0343328 0
0.00210575 0.0346227 0
0.0164034 0.0347601 0
0.0300603 0.03505 0
0.0437324 0.0353552 0
0.0581064 0.035462 0
0.0738689 0.0352331 0
0.0916915 0.0344701 0
0.112505 0.0329595 0
0.137407 0.0304112 0
0.167254 0.0266117 0
0.202869 0.0213321 0
0.244343 0.0145876 0
0.289631 0.0069276 0
0.336477 0 0
0.382544 0 0
0.428138 0 0
0.475227 0 0
0.522469 0 0
0.568521 0 0
0.612024 0 0
0.651621 0 0
0.686732 0 0
0.717815 0 0
0.745403 0 0
0.769985 0 0
0.792111 0 0
0.812558 0 0
0.831769 0 0
0.850172 0 0
0 0.0480964 0
0 0.0483711 0
0 0.0486152 0
0 0.0488594 0
0.00292973 0.0490883 0
0.0171511 0.0492561 0
0.0307927 0.0496071 0
0.0445563 0.0499733 0
0.0590982 0.0501717 0
0.0751202 0.0500649 0
0.0932937 0.0494392 0
0.114565 0.0480812 0
0.140047 0.0457008 0
0.17055 0.0420844 0
0.206928 0.0370184 0
0.249088 0.0305333 0
0.294942 0.0232242 0
0.342199 0.0157168 0
0.388571 0.00865187 0
0.43476 0.00181582 0
0.482414 0 0
0.530159 0 0
0.576669 0 0
0.620615 0 0
0.660624 0 0
0.696239 0 0
0.727901 0 0
0.756146 0 0
0.781476 0 0
0.80444 0 0
0.825803 0 0
0.846006 0 0
0.865476 0 0
0 0.0629435 0
0 0.0632029 0
0 0.0634775 0
0 0.0637827 0
0.00291447 0.0641031 0
0.0171664 0.0644236 0
0.03093 0.0649424 0
0.0448768 0.065507 0
0.0596933 0.0659342 0
0.0760815 0.0660563 0
0.0946975 0.0656901 0
0.116564 0.0646067 0
0.142702 0.0625162 0
0.173983 0.0592203 0
0.211215 0.05449 0
0.25417 0.0484169 0
0.300679 0.0415808 0
0.348455 0.034638 0
0.395209 0.0282139 0
0.442176 0.0220188 0
0.490562 0.0157626 0
0.53904 0.00981155 0
0.586221 0.00456245 0
0.630762 0.000381476 0
0.671351 0 0
0.707591 0 0
0.739986 0 0
0.769024 0 0
0.795209 0.0012665 0
0.81915 0.00517281 0
0.841581 0.0099794 0
0.862898 0.0155795 0
0.883558 0.0218662 0
0 0.0785229 0
0 0.0789044 0
0 0.0793317 0
0 0.0798199 0
0.00175479 0.080354 0
0.0161288 0.0809491 0
0.0301061 0.0817731 0
0.044358 0.0826429 0
0.0595712 0.0834211 0
0.0764172 0.0839094 0
0.0955978 0.0839399 0
0.118135 0.0832532 0
0.145068 0.08159 0
0.177218 0.0787213 0
0.215427 0.0744488 0
0.259266 0.0689097 0
0.306584 0.0627604 0
0.355062 0.0565957 0
0.402472 0.0510719 0
0.450401 0.0457618 0
0.499702 0.0404364 0
0.54902 0.0355077 0
0.597009 0.0313268 0
0.642283 0.0283055 0
0.683574 0.0268101 0
0.720577 0.0269017 0
0.753811 0.0284886 0
0.78378 0.0314488 0
0.810971 0.0356451 0
0.836011 0.0409552 0
0.859632 0.0471809 0
0.882231 0.0542458 0
0.904189 0.0619974 0
0 0.0955367 0
0 0.0961471 0
0 0.0968643 0
0 0.097673 0
0 0.0985428 0
0.0136721 0.0995346 0
0.0279545 0.100786 0
0.0426032 0.102113 0
0.0583047 0.103365 0
0.0757305 0.104341 0
0.0955673 0.104906 0
0.118898 0.104738 0
0.146746 0.103655 0
0.17995 0.101427 0
0.219333 0.0978561 0
0.264271 0.0931258 0
0.312551 0.0878614 0
0.361883 0.0826886 0
0.410071 0.0782177 0
0.459083 0.07393 0
0.509407 0.0697185 0
0.559701 0.0659495 0
0.608576 0.0630198 0
0.654704 0.0613107 0
0.696818 0.0611887 0
0.734707 0.0627146 0
0.768917 0.0657511 0
0.799939 0.0701915 0
0.82826 0.0759136 0
0.854459 0.0827039 0
0.87921 0.0903334 0
0.902831 0.0986648 0
0.925734 0.107561 0
0 0.114839 0
0 0.115831 0
0 0.11696 0
0 0.118212 0
0 0.119554 0
0.00895705 0.121096 0
0.0236667 0.122896 0
0.038819 0.124819 0
0.0551156 0.126665 0
0.0732433 0.128328 0
0.0939498 0.12961 0
0.118288 0.130236 0
0.147265 0.129961 0
0.181689 0.128588 0
0.222385 0.125902 0
0.268544 0.122133 0
0.317906 0.117922 0
0.36817 0.113893 0
0.417319 0.110628 0
0.467521 0.10753 0
0.51899 0.10457 0
0.570352 0.102144 0
0.620264 0.100618 0
0.667353 0.100389 0
0.710414 0.101808 0
0.749294 0.104875 0
0.784512 0.109422 0
0.816464 0.115267 0
0.84564 0.122255 0
0.872633 0.130175 0
0.898054 0.138796 0
0.922301 0.147997 0
0.945708 0.157626 0
0 0.137255 0
0 0.138766 0
0 0.140429 0
0 0.14226 0
0 0.144213 0
0.00148013 0.146426 0
0.0167697 0.148974 0
0.0326238 0.151705 0
0.0497444 0.154421 0
0.0688029 0.156985 0
0.0905165 0.159182 0
0.116014 0.160754 0
0.146242 0.161471 0
0.18204 0.161089 0
0.224155 0.159442 0
0.271641 0.156802 0
0.322194 0.153796 0
0.373556 0.151064 0
0.423758 0.149142 0
0.475288 0.147387 0
0.528023 0.145861 0
0.580591 0.14493 0
0.631601 0.144915 0
0.679637 0.146181 0
0.723461 0.148989 0
0.763027 0.153323 0
0.798825 0.158984 0
0.831281 0.16582 0
0.860883 0.173678 0
0.888228 0.182315 0
0.913924 0.191531 0
0.938338 0.201205 0
0.961822 0.211154 0
0 0.163546 0
0 0.165698 0
0 0.168063 0
0 0.170672 0
0 0.17348 0
0 0.176623 0
0.00712596 0.180148 0
0.0238346 0.183856 0
0.0419013 0.187594 0
0.0620127 0.191211 0
0.0848859 0.194491 0
0.111666 0.197162 0
0.143282 0.198993 0
0.180575 0.199771 0
0.224247 0.199329 0
0.273167 0.197955 0
0.325032 0.196323 0
0.377584 0.195071 0
0.429023 0.194659 0
0.481926 0.194324 0
0.535836 0.194186 0
0.589364 0.194522 0
0.641108 0.195712 0
0.689662 0.198047 0
0.733806 0.201846 0
0.773632 0.207019 0
0.809598 0.213413 0
0.84213 0.220829 0
0.871733 0.229145 0
0.899016 0.238087 0
0.924559 0.247501 0
0.948714 0.257206 4.57771e-05
0.971847 0.267094 0.00909438
0 0.194522 0
0 0.197543 0
0 0.200855 0
0 0.20444 0
0 0.20824 0
0 0.212467 0
0 0.21709 0
0.0125429 0.221927 0
0.0317388 0.226841 0
0.0530709 0.231632 0
0.0772717 0.236133 0
0.105516 0.240055 0
0.138689 0.243153 0
0.177661 0.245212 0
0.223072 0.246113 0
0.273564 0.246143 0
0.326787 0.245914 0
0.380438 0.245991 0
0.432883 0.246784 0
0.486809 0.247501 0
0.541512 0.24831 0
0.595621 0.2495 0
0.647715 0.251453 0
0.696406 0.254459 0
0.74052 0.258808 0
0.78024 0.264408 0
0.815991 0.271077 0
0.848249 0.27866 0
0.87747 0.286992 0
0.904326 0.295811 0
0.929351 0.304982 0
0.952895 0.314305 0.00422675
0.975357 0.323705 0.0126802
0 0.230289 0
0 0.234318 0
0 0.238666 0
0 0.243351 0
0 0.248295 0
0 0.253727 0
0 0.259556 0
0.00117494 0.26566 0
0.0217136 0.271855 0
0.0444648 0.277974 0
0.0702068 0.283818 0
0.10013 0.289097 0
0.135027 0.293523 0
0.175708 0.296864 0
0.222721 0.298878 0
0.274525 0.299977 0
0.328771 0.30074 0
0.383139 0.301717 0
0.436255 0.303273 0
0.490837 0.304616 0
0.545983 0.305928 0
0.600305 0.307561 0
0.652399 0.309819 0
0.700847 0.313069 0
0.744595 0.31754 0
0.783825 0.32311 0
0.819028 0.329641 0
0.850645 0.33695 0
0.879149 0.344854 0
0.905348 0.353262 0
0.930022 0.362249 0
0.953567 0.37174 0.00491341
0.976379 0.381582 0.0137636
0 0.270329 0
0 0.275486 0
0 0.281025 0
0 0.286931 0
0 0.293141 0
0 0.29987 0
0 0.307073 0
0 0.314565 0
0.0148013 0.322148 0
0.0391089 0.329625 0
0.066392 0.336721 0
0.0977951 0.343099 0
0.134142 0.348486 0
0.176196 0.352651 0
0.22443 0.355383 0
0.277165 0.357107 0
0.332082 0.358404 0
0.386786 0.359869 0
0.440284 0.361746 0
0.49514 0.363272 0
0.550362 0.364675 0
0.604532 0.366293 0
0.656245 0.368444 0
0.704097 0.371496 0
0.747097 0.375647 0
0.785519 0.380774 0
0.820096 0.386984 0
0.851408 0.394247 0
0.879957 0.402441 0
0.906493 0.411322 0
0.931472 0.420722 0
0.955276 0.430533 0.00662242
0.978286 0.44062 0.0157473
0 0.314137 0
0 0.320562 0
0 0.327413 0
0 0.334661 0
0 0.342275 0
0 0.350423 0
0 0.358968 0
0 0.367681 0
0.0131533 0.376364 0
0.0386816 0.384787 0
0.0671702 0.392691 0
0.0997024 0.399741 0
0.137118 0.405676 0
0.180179 0.410208 0
0.229267 0.41323 0
0.282567 0.415167 0
0.337728 0.416587 0
0.392401 0.418112 0
0.445869 0.419883 0
0.500633 0.421164 0
0.555535 0.422232 0
0.60914 0.423423 0
0.660121 0.425116 0
0.707408 0.427955 0
0.750103 0.432227 0
0.788602 0.437781 0
0.823346 0.44448 0
0.85481 0.452171 0
0.883482 0.4607 0
0.910109 0.469825 0
0.935119 0.479393 0.00135805
0.958923 0.489296 0.0102998
0.981888 0.499382 0.0194247
0 0.362097 0
0 0.369955 0
0 0.37821 0
0 0.386877 0
0 0.395666 0
0 0.404929 0
0 0.41445 0
0 0.424018 0
0.014725 0.433402 0
0.0409857 0.442405 0
0.070161 0.450752 0
0.103334 0.458091 0
0.141329 0.464164 0
0.184909 0.468711 0
0.234333 0.471641 0
0.287678 0.473396 0
0.342596 0.474586 0
0.396735 0.475776 0
0.449729 0.477043 0
0.504067 0.477867 0
0.558724 0.478798 0
0.612314 0.480171 0
0.663462 0.482368 0
0.710765 0.48574 0
0.753445 0.490425 0
0.791867 0.496345 0
0.82649 0.503319 0
0.857816 0.511193 0
0.88632 0.519829 0
0.912749 0.528969 0
0.93753 0.538476 0.00370794
0.961059 0.548226 0.0124666
0.983703 0.558099 0.0213321
0 0.415229 0
0 0.424262 0
0 0.433585 0
0 0.443153 0
0 0.452766 0
0 0.46273 0
0 0.472816 0
0 0.482811 0
0.0166476 0.492485 0
0.0432746 0.501625 0
0.072755 0.509972 0
0.106203 0.517174 0
0.144396 0.522972 0
0.188128 0.527108 0
0.237491 0.529519 0
0.290501 0.530694 0
0.345083 0.531518 0
0.399054 0.532708 0
0.452399 0.534218 0
0.50724 0.53547 0
0.562219 0.536782 0
0.615991 0.538521 0
0.667124 0.541024 0
0.714244 0.544625 0
0.756664 0.549508 0
0.794812 0.55552 0
0.829129 0.562493 0
0.86009 0.570306 0
0.888228 0.578775 0
0.914244 0.587671 0
0.938598 0.596872 0.00471504
0.961639 0.60621 0.0130617
0.983749 0.615595 0.0214542
0 0.471824 0
0 0.481605 0
0 0.491554 0
0 0.50161 0
0 0.511635 0
0 0.521859 0
0 0.532082 0
0 0.542062 0
0.0190127 0.551598 0
0.0456245 0.560479 0
0.0750591 0.568399 0
0.108385 0.575036 0
0.146487 0.580209 0
0.190448 0.583963 0
0.240284 0.586328 0
0.293889 0.587823 0
0.348959 0.589059 0
0.403143 0.590616 0
0.456901 0.592371 0
0.512032 0.593805 0
0.567132 0.595254 0
0.620844 0.59707 0
0.671748 0.599619 0
0.718486 0.60322 0
0.760449 0.608026 0
0.798093 0.61387 0
0.831891 0.6206 0
0.862303 0.628092 0
0.889845 0.636133 0
0.915251 0.644526 0
0.938949 0.653147 0.00502022
0.961303 0.66183 0.0127718
0.982696 0.670466 0.0204776
0 0.529885 0
0 0.540002 0
0 0.550149 0
0 0.560281 0
0 0.570275 0
0 0.580346 0
0 0.590265 0
0 0.599817 0
0.0219272 0.608789 0
0.0483253 0.617151 0
0.0779736 0.624857 0
0.111879 0.631556 0
0.150866 0.637034 0
0.195758 0.641062 0
0.246311 0.643626 0
0.30042 0.645289 0
0.355734 0.646677 0
0.409918 0.648371 0
0.46392 0.650095 0
0.519127 0.651453 0
0.574121 0.652781 0
0.627558 0.654429 0
0.678019 0.656764 0
0.724132 0.660105 0
0.765438 0.664561 0
0.802396 0.669978 0
0.835447 0.676219 0
0.86508 0.683116 0
0.891844 0.690486 0
0.916442 0.698131 0
0.939284 0.705898 0.00529488
0.960723 0.713664 0.0122377
0.98117 0.721309 0.0190433
0 0.587457 0
0 0.597467 0
0 0.607401 0
0 0.617151 0
0 0.626703 0
0 0.63621 0
0 0.645762 0
0.00302129 0.655253 0
0.027863 0.664454 0
0.0549935 0.673167 0
0.085359 0.681132 0
0.120012 0.688014 0
0.159716 0.693568 0
0.205295 0.697581 0
0.256367 0.700099 0
0.31075 0.701701 0
0.366079 0.702983 0
0.420081 0.704524 0
0.474113 0.705974 0
0.529152 0.706996 0
0.583841 0.707942 0
0.636774 0.709178 0
0.686564 0.71104 0
0.731868 0.713863 0
0.772305 0.717723 0
0.808347 0.722454 0
0.840467 0.727932 0
0.869123 0.733974 0
0.894881 0.740414 0
0.918456 0.747051 0.000213626
0.94023 0.753719 0.00621042
0.960616 0.760357 0.0121614
0.980011 0.766857 0.0179904
0 0.642557 0
0 0.652049 0
0 0.661433 0
0 0.670924 0
0 0.680552 0
0 0.690425 0
0 0.700343 0
0.0142367 0.710094 0
0.0396124 0.719493 0
0.0672313 0.728313 0
0.0981308 0.736278 0
0.133272 0.743069 0
0.17348 0.74847 0
0.219532 0.752209 0
0.270878 0.754437 0
0.325277 0.755718 0
0.380392 0.756634 0
0.433997 0.757809 0
0.4878 0.758709 0
0.542458 0.759152 0
0.596597 0.759487 0
0.648783 0.760052 0
0.697658 0.761196 0
0.741894 0.763256 0
0.781231 0.766262 0
0.816114 0.770077 0
0.847059 0.774533 0
0.87451 0.779507 0
0.899123 0.784848 0
0.921569 0.790356 0.00318914
0.94229 0.795956 0.00823987
0.961685 0.801526 0.0132906
0.980148 0.806989 0.0182193
0 0.694591 0
0 0.70428 0
0 0.714061 0
0 0.723888 0
0 0.733822 0
0 0.743893 0
0.00668345 0.753933 0
0.0307317 0.763714 0
0.0563668 0.773053 0
0.0842451 0.78175 0
0.115404 0.789471 0
0.150805 0.795941 0
0.191257 0.800931 0
0.237522 0.804181 0
0.288869 0.805875 0
0.343023 0.806577 0
0.39765 0.806928 0
0.450599 0.807462 0
0.503944 0.807599 0
0.557946 0.807218 0
0.611231 0.806683 0
0.662425 0.806348 0
0.71014 0.806531 0
0.753048 0.807584 0
0.791043 0.809552 0
0.824643 0.812299 0
0.854337 0.815702 0
0.880613 0.819638 0
0.904143 0.823957 0.00294499
0.925566 0.828473 0.00704967
0.945327 0.833082 0.0112612
0.963806 0.83769 0.0154574
0.981399 0.842191 0.0195621
0 0.746151 0
0 0.756085 0
0 0.766064 0
0 0.775998 0
0 0.785962 0
0.00384527 0.796002 0
0.027039 0.80592 0
0.051133 0.815503 0
0.0767834 0.824552 0
0.104662 0.832868 0
0.135836 0.840116 0
0.171237 0.846021 0.00140383
0.211673 0.85034 0.00538643
0.257893 0.852857 0.00756847
0.308965 0.853788 0.00816358
0.3626 0.853697 0.00775158
0.41648 0.853223 0.00694286
0.468559 0.852872 0.00627146
0.521141 0.852003 0.00508125
0.574228 0.850568 0.00332647
0.626444 0.848951 0.00138857
0.676417 0.847517 0
0.72282 0.846647 0
0.764385 0.846693 0
0.801099 0.847669 0
0.833494 0.849439 0.000335698
0.862028 0.851896 0.00247196
0.887221 0.854902 0.00518807
0.909743 0.858274 0.00827039
0.93022 0.861875 0.0115816
0.949081 0.865599 0.0149996
0.96672 0.869337 0.0184482
0.983551 0.872984 0.0218051
0 0.796948 0
0 0.806897 0
0 0.816815 0
0 0.826612 0
0.00444038 0.836378 0
0.0272068 0.846159 0
0.0502022 0.855711 0
0.0740826 0.864851 0
0.0994888 0.873365 0.00340276
0.127108 0.881056 0.0108339
0.158053 0.887572 0.0171359
0.19321 0.892683 0.0220035
0.233387 0.896117 0.0251926
0.279286 0.897658 0.0265049
0.329824 0.897566 0.0261845
0.382681 0.896452 0.0248417
0.435538 0.894926 0.0230869
0.486519 0.893462 0.0214084
0.53817 0.891417 0.0191501
0.590249 0.888869 0.0163729
0.641382 0.886183 0.0134737
0.690211 0.883741 0.0108186
0.735363 0.881926 0.0087892
0.775677 0.881056 0.00770581
0.8112 0.881132 0.00758373
0.842451 0.882033 0.00827039
0.869917 0.883619 0.0096437
0.894087 0.885771 0.0115969
0.915679 0.888319 0.0139467
0.935302 0.891096 0.0165255
0.953338 0.894026 0.0192569
0.97023 0.896971 0.0220035
0.986343 0.899855 0.0247044
0 0.846357 0
0 0.856077 0
0 0.865705 0
0.00712596 0.87512 0
0.0299229 0.884474 0
0.0522774 0.893721 0.00207523
0.074815 0.902678 0.0108644
0.0982223 0.911131 0.0191501
0.12314 0.918883 0.0267491
0.150256 0.925704 0.033402
0.180713 0.931273 0.0388342
0.215366 0.935317 0.0427253
0.255009 0.937621 0.0448615
0.300343 0.937942 0.0450446
0.350118 0.93666 0.0436103
0.402014 0.934386 0.0411994
0.453773 0.931777 0.0384375
0.503731 0.929259 0.0357824
0.554528 0.926146 0.032517
0.605661 0.922576 0.028809
0.655756 0.918929 0.0250248
0.703502 0.915572 0.0215305
0.747494 0.912902 0.0187228
0.786618 0.911208 0.0168917
0.821012 0.910491 0.0160372
0.851194 0.910597 0.016022
0.877653 0.911421 0.0167086
0.900908 0.912825 0.0179751
0.921645 0.914626 0.0196536
0.940459 0.916686 0.0215915
0.957763 0.918898 0.0236667
0.973953 0.921157 0.025803
0.989441 0.923369 0.0278935
0 0.893858 0
0 0.90312 0
0.0109102 0.912215 0.00164797
0.0336461 0.921004 0.0103456
0.0557717 0.929702 0.0189212
0.0774395 0.938201 0.0273289
0.0992752 0.946303 0.0353399
0.12195 0.953841 0.042771
0.146105 0.960571 0.0494087
