lut/87f243e8-b50c-4f4c-8a88-b9a3d951f6a1.cube
TITLE "Gritty Cyan Contrast"
LUT_3D_SIZE 5
0 0 0
0.0526284 0 0
0.272068 0 0
0.629664 0 0
0.815915 0 0
0 0.0785229 0
0.0595712 0.0834211 0
0.306584 0.0627604 0
0.683574 0.0268101 0
0.904189 0.0619974 0
0 0.314137 0
0.0131533 0.376364 0
0.337728 0.416587 0
0.750103 0.432227 0
0.981888 0.499382 0.0194247
0 0.746151 0
0.0767834 0.824552 0
0.41648 0.853223 0.00694286
0.801099 0.847669 0
0.983551 0.872984 0.0218051
0.0822766 1 0.100649
0.226963 1 0.12842
0.52932 1 0.0969558
0.859968 1 0.0473182
1 1 0.0425422
0 0 0.068452
0.053666 0 0.0715801
0.275776 0 0.045594
0.632288 0 0
0.818112 0 0
0 0.0796674 0.0758373
0.0625315 0.0866865 0.0826734
0.316457 0.069749 0.065568
0.699519 0.0411688 0.0367895
0.927092 0.0854963 0.0809033
0 0.332937 0
0.0365301 0.40267 0.0594034
0.364843 0.443549 0.0941939
0.775586 0.459098 0.1037
1 0.526726 0.165362
0 0.773327 0.0520638
0.101717 0.850263 0.127977
0.438544 0.873075 0.150118
0.814801 0.860777 0.137484
0.99025 0.88069 0.157397
0.0931563 1 0.238804
0.233036 1 0.263584
0.533898 1 0.230594
0.860914 1 0.182055
1 1 0.179309
0 0 0.336889
0.0420081 0 0.346746
0.266011 0 0.326604
0.621561 0 0.270161
0.807202 0 0.265187
0 0.0675975 0.366766
0.052491 0.0769513 0.382773
0.313924 0.0643626 0.376623
0.703456 0.043595 0.362081
0.936645 0.0956893 0.420127
0 0.339864 0.325093
0.0456703 0.414725 0.399924
0.375113 0.453681 0.438636
0.785397 0.470375 0.455024
1 0.536843 0.521202
0 0.784283 0.407019
0.108843 0.858122 0.485618
0.441291 0.87361 0.506096
0.809384 0.854795 0.492515
0.978134 0.869535 0.512703
0.0850538 1 0.594491
0.220401 1 0.619516
0.520165 1 0.588037
0.843778 1 0.542916
0.983169 1 0.544442
0 0 0.722377
0.0223087 0 0.729625
0.248524 0 0.705135
0.604501 0 0.646571
0.791409 0 0.641535
0 0.0497139 0.743114
0.0381628 0.0629435 0.759243
0.308843 0.0564431 0.755322
0.706294 0.0449836 0.746136
0.943862 0.103578 0.806668
0 0.345388 0.709453
0.0518807 0.42385 0.783886
0.382635 0.461097 0.816785
0.793317 0.479789 0.830915
1 0.544488 0.890761
0 0.793103 0.782986
0.113298 0.863249 0.853361
0.441489 0.87155 0.861875
0.802609 0.847471 0.837995
0.965957 0.858305 0.849042
0.0760357 1 0.93753
0.208316 1 0.953521
0.508141 1 0.913985
0.829496 0.996674 0.862715
0.968154 0.991119 0.85893
0 0 0.900496
0.0187076 0 0.903517
0.247501 0 0.873869
0.604562 0 0.813107
0.793561 0 0.808286
0 0.0492714 0.909606
0.0422522 0.0673686 0.926467
0.322972 0.0677653 0.92549
0.728267 0.0655528 0.921752
0.967956 0.128374 0.982879
0 0.369268 0.884627
0.0741436 0.449042 0.956817
0.407385 0.485756 0.98584
0.817014 0.505058 0.997345
1 0.566522 1
0 0.817227 0.949462
0.13164 0.882231 1
0.455406 0.883223 1
0.809873 0.854154 0.978958
0.968246 0.861509 0.984161
0.0811322 1 1
0.210803 1 1
0.510842 1 1
0.829999 0.995956 0.989746
0.968048 0.991119 0.984787
