lut/87f243e8-b50c-4f4c-8a88-b9a3d951f6a1.cube
TITLE "Gritty Cyan Contrast"
LUT_3D_SIZE 9
0 0 0
0 0 0
0.0526284 0 0
0.127733 0 0
0.272068 0 0
0.454932 0 0
0.629664 0 0
0.745281 0 0
0.815915 0 0
0 0.0181888 0
0.000762951 0.0199741 0
0.057023 0.021088 0
0.135134 0.0159762 0
0.285084 0 0
0.469184 0 0
0.644373 0 0
0.760983 0 0
0.837873 0 0
0 0.0785229 0
0.00175479 0.080354 0
0.0595712 0.0834211 0
0.145068 0.08159 0
0.306584 0.0627604 0
0.499702 0.0404364 0
0.683574 0.0268101 0
0.810971 0.0356451 0
0.904189 0.0619974 0
0 0.163546 0
0 0.17348 0
0.0419013 0.187594 0
0.143282 0.198993 0
0.325032 0.196323 0
0.535836 0.194186 0
0.733806 0.201846 0
0.871733 0.229145 0
0.971847 0.267094 0.00909438
0 0.314137 0
0 0.342275 0
0.0131533 0.376364 0
0.137118 0.405676 0
0.337728 0.416587 0
0.555535 0.422232 0
0.750103 0.432227 0
0.883482 0.4607 0
0.981888 0.499382 0.0194247
0 0.529885 0
0 0.570275 0
0.0219272 0.608789 0
0.150866 0.637034 0
0.355734 0.646677 0
0.574121 0.652781 0
0.765438 0.664561 0
0.891844 0.690486 0
0.98117 0.721309 0.0190433
0 0.746151 0
0 0.785962 0
0.0767834 0.824552 0
0.211673 0.85034 0.00538643
0.41648 0.853223 0.00694286
0.626444 0.848951 0.00138857
0.801099 0.847669 0
0.909743 0.858274 0.00827039
0.983551 0.872984 0.0218051
0 0.938888 0.0114443
0.0805676 0.971481 0.0438087
0.167132 0.997971 0.0700999
0.293477 1 0.0793011
0.48603 0.993194 0.0649424
0.681208 0.973251 0.044831
0.838163 0.959152 0.0305791
0.932082 0.958358 0.029633
0.995514 0.963027 0.034165
0.0822766 1 0.100649
0.153582 1 0.117235
0.226963 1 0.12842
0.345876 1 0.123095
0.52932 1 0.0969558
0.715129 1 0.067689
0.859968 1 0.0473182
0.945129 1 0.0417792
1 1 0.0425422
0 0 0.0122377
0 0 0.0135805
0.053193 0 0.0148928
0.12874 0 0.0109102
0.274052 0 0
0.456703 0 0
0.631052 0 0
0.746242 0 0
0.817044 0 0
0 0.0187533 0.0163882
0.00138857 0.0205386 0.0181735
0.0574807 0.0215 0.0191196
0.136156 0.0163119 0.0139315
0.28719 0 0
0.47187 0 0
0.647395 0 0
0.764462 0 0
0.842588 0 0
0 0.0791485 0.0175937
0.00259403 0.0813611 0.0192874
0.0610513 0.0850538 0.0224308
0.147951 0.0839551 0.020737
0.311437 0.0661784 0.00234989
0.506157 0.0454719 0
0.691417 0.0338598 0
0.820401 0.0450446 0
0.915618 0.0737163 0.00709545
0 0.166751 0
0 0.178088 0
0.0470741 0.193912 0.00796521
0.151003 0.207172 0.018204
0.335714 0.206622 0.0145571
0.548486 0.206485 0.0112764
0.747097 0.215503 0.0170748
0.88481 0.243351 0.0416419
0.984283 0.280949 0.0758831
0 0.323384 0
0 0.353841 0
0.0249485 0.389609 0
0.150423 0.419654 0.0114443
0.35172 0.430503 0.0185092
0.568765 0.435431 0.0196384
0.76318 0.445991 0.0263676
0.896361 0.474983 0.0515145
0.994461 0.513619 0.0862898
0 0.544182 0
0 0.584344 0
0.0339818 0.622202 0
0.164279 0.65095 0.0185245
0.369879 0.660624 0.0247044
0.587976 0.666438 0.0270695
0.77792 0.677623 0.0348516
0.902571 0.702434 0.0563211
0.990005 0.731563 0.0821546
0 0.760143 0
0 0.799969 0.0114595
0.0898756 0.838056 0.0481422
0.224552 0.862699 0.0714275
0.428382 0.864027 0.071458
0.63653 0.857939 0.0641031
0.808865 0.855146 0.06009
0.915526 0.864378 0.0681621
0.987839 0.877775 0.0804456
0.00523384 0.950866 0.0775769
0.090837 0.981857 0.108354
0.175799 1 0.132799
0.301289 1 0.1402
0.492744 0.998352 0.124331
0.68661 0.977127 0.102983
0.841794 0.962112 0.0878614
0.934432 0.960586 0.0862745
0.99707 0.964645 0.0902724
0.0886397 1 0.161303
0.158541 1 0.176532
0.230945 1 0.186496
0.34963 1 0.179965
0.53257 1 0.153094
0.717754 1 0.123308
0.861433 1 0.102907
0.94583 1 0.0972
1 1 0.0978408
0 0 0.068452
0 0 0.0700236
0.053666 0 0.0715801
0.129641 0 0.0677653
0.275776 0 0.045594
0.458274 0 0.012726
0.632288 0 0
0.747097 0 0
0.818112 0 0
0 0.01944 0.0737469
0.00177005 0.0208743 0.0755322
0.0577554 0.0216983 0.0767224
0.137041 0.0165103 0.071931
0.289219 0 0.0486152
0.474495 0 0.0183719
0.650416 0 0
0.768063 0 0
0.847486 0 0
0 0.0796674 0.0758373
0.00335698 0.0823224 0.0784009
0.0625315 0.0866865 0.0826734
0.150866 0.0863508 0.0822461
0.316457 0.069749 0.065568
0.512825 0.0506905 0.0464179
0.699519 0.0411688 0.0367895
0.830137 0.0547799 0.0502937
0.927092 0.0854963 0.0809033
0 0.170047 0.0482338
0 0.182879 0.0587167
0.0524453 0.200458 0.0738994
0.158984 0.21561 0.0866102
0.346624 0.217182 0.0856947
0.561059 0.218723 0.0847334
0.759976 0.228763 0.0922103
0.897154 0.256825 0.117693
0.995621 0.293721 0.151995
0 0.332937 0
0 0.365545 0.0253605
0.0365301 0.40267 0.0594034
0.163195 0.433112 0.0867933
0.364843 0.443549 0.0941939
0.581155 0.447776 0.0953841
0.775586 0.459098 0.1037
0.90837 0.48838 0.129992
1 0.526726 0.165362
0 0.557809 0
0 0.597436 0.035111
0.0455482 0.635111 0.0700236
0.176974 0.664103 0.0963302
0.383062 0.673609 0.103212
0.600626 0.678904 0.105989
0.788968 0.689235 0.113878
0.911635 0.712688 0.134997
0.997009 0.739986 0.160021
0 0.773327 0.0520638
0.00663767 0.812924 0.0911116
0.101717 0.850263 0.127977
0.23592 0.873518 0.150851
0.438544 0.873075 0.150118
0.64477 0.865095 0.141924
0.814801 0.860777 0.137484
0.919432 0.868605 0.145266
0.99025 0.88069 0.157397
0.0155184 0.961227 0.157351
0.0992752 0.990402 0.187304
0.182635 1 0.210925
0.307256 1 0.217578
0.497566 1 0.201282
0.69012 0.97911 0.179812
0.843534 0.963165 0.16495
0.934874 0.960937 0.163897
0.996704 0.96434 0.168521
0.0931563 1 0.238804
0.161654 1 0.253773
0.233036 1 0.263584
0.351522 1 0.257053
0.533898 1 0.230594
0.71841 1 0.20145
0.860914 1 0.182055
0.944533 1 0.177478
1 1 0.179309
0 0 0.159945
0 0 0.163104
0.0511788 0 0.166278
0.127764 0 0.164279
0.27425 0 0.143282
0.456565 0 0.112047
0.630182 0 0.0834821
0.744595 0 0.0720684
0.815793 0 0.0743572
0 0.0168765 0.170809
0 0.0179294 0.17406
0.0547341 0.018616 0.17702
0.13463 0.0133822 0.174121
0.287907 0 0.152895
0.473762 0 0.125231
0.650019 0 0.10338
0.768307 0 0.101808
0.848997 0 0.116274
0 0.0768444 0.178744
0.000762951 0.0799115 0.183703
0.0606088 0.0849165 0.190631
0.150439 0.0853895 0.193088
0.31809 0.0699626 0.17966
0.516106 0.0525521 0.164309
0.704219 0.0451057 0.158953
0.836393 0.0610361 0.17702
0.934676 0.0934005 0.211551
0 0.170016 0.159701
0 0.184298 0.173739
0.0544442 0.203632 0.192813
0.163592 0.220676 0.209598
0.353933 0.224125 0.212818
0.569604 0.226963 0.215412
0.768414 0.237629 0.225834
0.904646 0.265492 0.253468
1 0.301595 0.289342
0 0.339101 0.120394
0 0.373495 0.153979
0.0439765 0.411566 0.191287
0.17142 0.441993 0.221012
0.372992 0.451637 0.229969
0.589014 0.455573 0.233265
0.783169 0.467414 0.244495
0.915282 0.496712 0.273213
1 0.534478 0.310475
0 0.566751 0.133425
0 0.605432 0.171664
0.052491 0.643397 0.209293
0.184771 0.672374 0.238025
0.391058 0.681407 0.246906
0.607813 0.685893 0.251347
0.794263 0.695109 0.260624
0.914687 0.716945 0.282597
0.997909 0.74229 0.308171
0 0.781506 0.195346
0.0137179 0.8206 0.236362
0.107988 0.856901 0.274678
0.241474 0.878508 0.298375
0.442603 0.87602 0.29807
0.646906 0.866133 0.290471
0.814542 0.860243 0.286931
0.917144 0.866621 0.29575
0.986419 0.877348 0.308995
0.0198672 0.965667 0.305592
0.101625 0.992844 0.336034
0.183337 1 0.360235
0.307057 1 0.367468
0.496178 0.998703 0.352056
0.687388 0.974853 0.331701
0.839033 0.957977 0.318364
0.929061 0.955016 0.31899
0.990036 0.957732 0.325338
0.0914778 1 0.389227
0.158511 1 0.405219
0.22887 1 0.416144
0.347173 1 0.410834
0.528954 1 0.385931
0.712779 1 0.358511
0.854063 1 0.341146
0.936858 1 0.338628
0.994202 1 0.34255
0 0 0.336889
0 0 0.341848
0.0420081 0 0.346746
0.119081 0 0.346456
0.266011 0 0.326604
0.448203 0 0.29691
0.621561 0 0.270161
0.735683 0 0.260792
0.807202 0 0.265187
0 0.00753796 0.353536
0 0.00830091 0.358221
0.0451362 0.00894179 0.362783
0.125734 0.00376898 0.361517
0.280217 0 0.342016
0.466773 0 0.316442
0.64358 0 0.297047
0.762676 0 0.298283
0.844831 0 0.315663
0 0.0675975 0.366766
0 0.0711833 0.373709
0.052491 0.0769513 0.382773
0.144045 0.0784619 0.387533
0.313924 0.0643626 0.376623
0.513756 0.0487984 0.364187
0.703456 0.043595 0.362081
0.837217 0.0618601 0.383368
0.936645 0.0956893 0.420127
0 0.164065 0.354543
0 0.179995 0.371359
0.0508736 0.201236 0.393393
0.162829 0.220371 0.413214
0.355718 0.225559 0.418997
0.572457 0.229511 0.423438
0.770993 0.240635 0.434958
0.906157 0.268162 0.462776
1 0.304143 0.499016
0 0.339864 0.325093
0 0.37586 0.36112
0.0456703 0.414725 0.399924
0.173754 0.444984 0.430091
0.375113 0.453681 0.438636
0.591516 0.458061 0.442863
0.785397 0.470375 0.455024
0.916793 0.499657 0.484154
1 0.536843 0.521202
0 0.569711 0.342763
0 0.607797 0.380926
0.0541085 0.646326 0.419623
0.187213 0.675258 0.448783
0.393683 0.683803 0.457618
0.609613 0.687495 0.461662
0.794141 0.695567 0.470176
0.912291 0.71577 0.490867
0.993622 0.739391 0.515053
0 0.784283 0.407019
0.0153811 0.822858 0.447944
0.108843 0.858122 0.485618
0.241611 0.87805 0.508019
0.441291 0.87361 0.506096
0.6439 0.862028 0.497108
0.809384 0.854795 0.492515
0.91017 0.859953 0.500374
0.978134 0.869535 0.512703
0.0187686 0.96466 0.515251
0.0986954 0.990021 0.544198
0.179004 1 0.566995
0.302037 1 0.572824
0.490181 0.99115 0.556283
0.680247 0.966201 0.535042
0.830396 0.948669 0.521248
0.919326 0.94519 0.521523
0.97966 0.947433 0.52755
0.0850538 1 0.594491
0.150851 1 0.609476
0.220401 1 0.619516
0.338796 1 0.613428
0.520165 1 0.588037
0.703502 1 0.560311
0.843778 1 0.542916
0.925978 1 0.540444
0.983169 1 0.544442
0 0 0.539086
0 0 0.54403
0.0312047 0 0.548943
0.108736 0 0.54847
0.256306 0 0.528206
0.438621 0 0.498527
0.611872 0 0.472145
0.725902 0 0.463447
0.79794 0 0.46865
0 0 0.555596
0 0 0.560159
0.0343481 0 0.564828
0.115877 0 0.563775
0.271748 0 0.544656
0.45919 0 0.51989
0.636805 0 0.501823
0.756878 0 0.504768
0.840696 0 0.524071
0 0.0574197 0.569207
0 0.061738 0.576791
0.0438544 0.0684672 0.586755
0.137377 0.0712596 0.592721
0.309682 0.0587015 0.583276
0.511498 0.0451362 0.572778
0.702998 0.0423896 0.573053
0.838132 0.0628061 0.596414
0.938506 0.0978866 0.634363
0 0.157916 0.559777
0 0.175677 0.578347
0.0474556 0.199023 0.60238
0.162325 0.22031 0.624277
0.357519 0.227039 0.63151
0.575113 0.231876 0.636774
0.773144 0.243244 0.648447
0.906981 0.270176 0.675639
1 0.306676 0.712291
0 0.340795 0.536889
0 0.378195 0.574243
0.0470893 0.417594 0.61355
0.17557 0.447471 0.643259
0.376913 0.455421 0.651011
0.593957 0.460487 0.655802
0.787427 0.473152 0.668147
0.917998 0.502281 0.696895
1 0.538781 0.732937
0 0.572091 0.555901
0 0.610162 0.594034
0.0556039 0.649149 0.633066
0.189441 0.677897 0.661875
0.395941 0.685847 0.669886
0.610925 0.688594 0.672709
0.793423 0.69543 0.679622
0.909316 0.713985 0.698253
0.988846 0.735988 0.720348
0 0.786786 0.620768
0.0166629 0.824735 0.660822
0.109194 0.858824 0.697002
0.241123 0.876967 0.71725
0.439445 0.870634 0.713008
0.640467 0.857496 0.701961
0.803891 0.849012 0.695567
0.902998 0.853071 0.701701
0.969772 0.861646 0.712337
0.0170291 0.962997 0.724224
0.0952468 0.986664 0.751003
0.174258 1 0.77171
0.296757 1 0.775402
0.484016 0.983444 0.75697
0.673091 0.957534 0.734051
0.821897 0.939513 0.719005
0.909865 0.935607 0.718013
0.96968 0.937514 0.722789
0.0783703 1 0.796719
0.143053 1 0.809934
0.212024 1 0.818326
0.330602 1 0.81059
0.511681 1 0.783795
0.694652 1 0.754818
0.834058 1 0.736446
0.915785 0.995605 0.732998
0.972961 0.995895 0.736019
0 0 0.722377
0 0 0.725933
0.0223087 0 0.729625
0.10013 0 0.727214
0.248524 0 0.705135
0.431144 0 0.674052
0.604501 0 0.646571
0.718654 0 0.637049
0.791409 0 0.641535
0 0 0.733944
0 0 0.736965
0.0257572 0 0.740307
0.1084 0 0.737987
0.265873 0 0.717754
0.454429 0 0.692287
0.633112 0 0.674067
0.754421 0 0.67718
0.840116 0 0.696803
0 0.0497139 0.743114
0 0.054963 0.749844
0.0381628 0.0629435 0.759243
0.133898 0.0672465 0.764874
0.308843 0.0564431 0.755322
0.512886 0.0451209 0.745174
0.706294 0.0449836 0.746136
0.842695 0.0674144 0.769574
0.943862 0.103578 0.806668
0 0.155016 0.731472
0 0.174853 0.75021
0.0477607 0.200534 0.774655
0.165545 0.224002 0.796811
0.362905 0.232105 0.803464
0.581201 0.237705 0.807507
0.778576 0.249134 0.817288
0.911376 0.275761 0.842161
1 0.31313 0.877668
0 0.345388 0.709453
0 0.384039 0.74612
0.0518807 0.42385 0.783886
0.180652 0.453178 0.811078
0.382635 0.461097 0.816785
0.60029 0.466804 0.820233
0.793317 0.479789 0.830915
0.923018 0.508751 0.857466
1 0.544488 0.890761
0 0.577661 0.723049
0 0.616434 0.759915
0.0610056 0.655848 0.797406
0.195529 0.684382 0.824018
0.402014 0.691707 0.829419
0.616007 0.693462 0.829267
0.796429 0.699016 0.832914
0.91017 0.71603 0.84802
0.988083 0.736614 0.866712
0 0.793103 0.782986
0.0217136 0.830381 0.820371
0.113298 0.863249 0.853361
0.244358 0.879576 0.86978
0.441489 0.87155 0.861875
0.641077 0.857008 0.847425
0.802609 0.847471 0.837995
0.900191 0.850584 0.841215
0.965957 0.858305 0.849042
0.0190585 0.965118 0.876066
0.0957656 0.987274 0.899351
0.173648 1 0.91664
0.29575 1 0.91696
0.482277 0.980163 0.895476
0.670573 0.95349 0.869825
0.818158 0.935119 0.852445
0.905287 0.930938 0.849241
0.964721 0.932601 0.851865
0.0760357 1 0.93753
0.139757 1 0.947829
0.208316 1 0.953521
0.32723 1 0.943114
0.508141 1 0.913985
0.690852 1 0.882887
0.829496 0.996674 0.862715
0.910872 0.9906 0.857542
0.968154 0.991119 0.85893
0 0 0.834119
0 0 0.836133
0.0188754 0 0.838376
0.0970474 0 0.834073
0.246357 0 0.810285
0.429358 0 0.777966
0.602869 0 0.74963
0.717235 0 0.739559
0.790784 0 0.743679
0 0 0.840436
0 0 0.842054
0.0228885 0 0.844251
0.106737 0 0.840909
0.265858 0 0.819852
0.45565 0 0.79411
0.635462 0 0.776165
0.758099 0 0.779904
0.845747 0 0.800366
0 0.047837 0.845823
0 0.0540627 0.852018
0.0384833 0.0634318 0.861295
0.136522 0.0693065 0.867018
0.314153 0.0603494 0.857862
0.520485 0.0513313 0.848585
0.715679 0.0536507 0.850599
0.852995 0.07776 0.874342
0.95465 0.114717 0.910857
0 0.158251 0.83331
0 0.180224 0.85272
0.0543221 0.208301 0.878141
0.174731 0.233661 0.900755
0.373922 0.242817 0.907088
0.592599 0.248829 0.910201
0.788983 0.260029 0.91841
0.921218 0.286839 0.942153
1 0.324849 0.977035
0 0.35584 0.813519
0 0.395422 0.84976
0.0618753 0.435309 0.886259
0.1906 0.463783 0.911299
0.393759 0.472175 0.916213
0.611811 0.478309 0.918822
0.80415 0.491402 0.928359
0.932799 0.519966 0.953323
1 0.554711 0.984451
0 0.588556 0.823255
0 0.628046 0.859586
0.071519 0.667643 0.896056
0.2065 0.695735 0.921035
0.412741 0.702205 0.924407
0.625513 0.70277 0.92192
0.803647 0.706813 0.922927
0.915251 0.722301 0.935424
0.991531 0.741436 0.951598
0 0.804227 0.880247
0.0313573 0.840589 0.915572
0.121767 0.872038 0.945983
0.25185 0.886412 0.95935
0.447761 0.876707 0.948669
0.645914 0.860731 0.931731
0.805554 0.850126 0.920195
0.901595 0.852277 0.921431
0.966384 0.859205 0.927459
0.02533 0.971466 0.965225
0.100496 0.992096 0.985885
0.177249 1 1
0.298985 1 0.998581
0.484733 0.981094 0.97499
0.672282 0.953704 0.947616
0.818631 0.934951 0.928893
0.904906 0.930465 0.924437
0.963943 0.931868 0.925872
0.0778973 1 1
0.140688 1 1
0.20885 1 1
0.328084 1 1
0.508797 1 0.988449
0.691203 1 0.956207
0.829068 0.995621 0.935225
0.910063 0.9897 0.929335
0.967422 0.990448 0.930083
0 0 0.900496
0 0 0.901946
0.0187076 0 0.903517
0.0972763 0 0.89836
0.247501 0 0.873869
0.430884 0 0.841306
0.604562 0 0.813107
0.719127 0 0.803494
0.793561 0 0.808286
0 0 0.904692
0 0 0.905898
0.023331 0 0.907958
0.1084 0 0.904585
0.269184 0 0.883696
0.460288 0 0.858732
0.641276 0 0.842069
0.765255 0 0.84741
0.854887 0 0.869688
0 0.0492714 0.909606
0 0.0565347 0.916274
0.0422522 0.0673686 0.926467
0.142611 0.0748608 0.933288
0.322972 0.0677653 0.92549
0.53164 0.0610971 0.91809
0.728267 0.0655528 0.921752
0.866163 0.0910048 0.946365
0.967956 0.128374 0.982879
0 0.164996 0.899596
0 0.18912 0.920638
0.064332 0.219532 0.947906
0.18703 0.246403 0.971557
0.387686 0.256275 0.978149
0.606378 0.262379 0.98088
0.801434 0.272999 0.988113
0.933639 0.300481 1
1 0.338933 1
0 0.369268 0.884627
0 0.409415 0.921004
0.0741436 0.449042 0.956817
0.203037 0.476844 0.980789
0.407385 0.485756 0.98584
0.625605 0.492088 0.988281
0.817014 0.505058 0.997345
0.94435 0.532967 1
1 0.566522 1
0 0.60209 0.893217
0 0.642084 0.929702
0.0842298 0.68162 0.965774
0.219471 0.709056 0.989776
0.425208 0.714443 0.991791
0.63653 0.713558 0.987579
0.812222 0.715969 0.986709
0.921721 0.729931 0.997436
0.996368 0.747631 1
0 0.817227 0.949462
0.042649 0.852461 0.983352
0.13164 0.882231 1
0.260716 0.894621 1
0.455406 0.883223 1
0.652125 0.865843 0.991775
0.809873 0.854154 0.978958
0.904387 0.85536 0.979049
0.968246 0.861509 0.984161
0.0329747 0.979187 1
0.106615 0.998306 1
0.182239 1 1
0.303593 1 1
0.488594 0.983429 1
0.67541 0.955322 1
0.820508 0.936172 0.98468
0.905913 0.93138 0.979782
0.964538 0.932525 0.980835
0.0811322 1 1
0.143038 1 1
0.210803 1 1
0.330343 1 1
0.510842 1 1
0.692943 1 1
0.829999 0.995956 0.989746
0.910628 0.990188 0.983917
0.968048 0.991119 0.984787
