lut/8cf4785f-c1a5-41ee-b3cf-59a7ca0a6e23.cube
TITLE "Extreme Punchy Cinematic"
LUT_3D_SIZE 5
0 0 0
0.230549 0 0.0116121
0.609583 0 0
1 0.196246 0
1 0.340368 0.125383
0 0.197833 0
0.165606 0.167727 0
0.56199 0.135058 0
0.997452 0.249592 0
1 0.361563 0.125856
0.172152 0.616266 0.107546
0.180819 0.553124 0.0422675
0.551766 0.536934 0.110506
0.918334 0.570245 0.134676
1 0.57705 0.157977
0.33463 0.937026 0.248447
0.329915 0.907225 0.243198
0.617105 0.830503 0.300542
0.858976 0.831235 0.257801
1 0.805768 0.19472
0.289143 1 0.220295
0.331823 1 0.252003
0.529229 1 0.277455
0.826902 1 0.374945
1 1 0.261723
0 0 0.219928
0.261051 0 0.230442
0.597223 0 0.198489
0.990021 0.170733 0.257176
1 0.334524 0.297841
0 0.188296 0.178286
0.168994 0.160952 0.14667
0.522499 0.127367 0.121386
0.916716 0.219181 0.163928
1 0.352987 0.215167
0.160494 0.601022 0.169665
0.1561 0.550195 0.116991
0.53669 0.522652 0.165454
0.901671 0.555993 0.148547
1 0.56672 0.15935
0.333059 0.928008 0.250797
0.326894 0.898085 0.241871
0.605509 0.819883 0.295232
0.848859 0.821408 0.255451
1 0.796735 0.194537
0.304524 1 0.231601
0.344762 1 0.261814
0.518486 1 0.274876
0.817533 1 0.371984
1 1 0.271458
0 0 0.662226
0 0 0.702083
0.706905 0 0.65864
1 0.261295 0.710613
1 0.371099 0.67924
0 0.205386 0.323445
0.0553902 0.15816 0.52369
0.579095 0.0967117 0.527642
0.955154 0.234958 0.570718
1 0.351064 0.586831
0.210025 0.596582 0.581155
0.193256 0.546517 0.532021
0.5449 0.52401 0.502831
0.886488 0.549569 0.514794
1 0.565011 0.512367
0.333944 0.916609 0.556848
0.326253 0.887068 0.527352
0.5364 0.849912 0.4916
0.841703 0.81622 0.516548
1 0.788678 0.440269
0.312627 1 0.436301
0.351049 1 0.433921
0.462547 1 0.406958
0.798856 1 0.51426
1 1 0.443717
0 0 0.887434
0.338445 0 0.966598
0.685573 0.17847 1
1 0.312078 1
1 0.487495 1
0 0.229999 0.560494
0 0.187228 0.90724
0.552224 0.176562 0.96968
1 0.284199 0.972854
1 0.409796 0.93402
0.281102 0.615915 0.916564
0.26334 0.574121 0.789517
0.564614 0.535882 0.830915
0.927489 0.544778 0.850126
1 0.559731 0.819394
0.368841 0.904997 0.886641
0.361303 0.876158 0.857908
0.54049 0.84033 0.821683
0.841108 0.81033 0.784939
1 0.783169 0.745235
0.324407 1 0.742214
0.358862 1 0.737743
0.460349 1 0.710002
0.729747 1 0.680568
1 1 0.686656
0.625254 0 1
0.749538 0 1
0.89659 0.303731 1
1 0.466346 1
1 0.58999 1
0 0.273548 0.971435
0.499733 0.131609 1
0.792798 0.204685 1
0.978424 0.390799 1
1 0.523293 1
0.307912 0.649195 0.882307
0.287526 0.608988 0.834287
0.477653 0.570077 1
0.886076 0.560037 1
1 0.540887 1
0.375326 0.89247 1
0.373571 0.86508 1
0.553841 0.850675 0.971832
0.838041 0.80148 1
1 0.762341 1
0.344808 1 1
0.379416 1 1
0.482673 1 1
0.730877 1 1
1 0.993606 0.966278
