lut/8cf4785f-c1a5-41ee-b3cf-59a7ca0a6e23.cube
TITLE "Extreme Punchy Cinematic"
LUT_3D_SIZE 33
0 0 0
0 0 0
0 0 0
0 0 0
0 0 0
0 0 0
0.0519265 0 0.00955215
0.183719 0 0.0337682
0.230549 0 0.0116121
0.275349 0 0
0.325933 0 0
0.376608 0 0
0.427344 0 0
0.475288 0 0
0.520134 0 0
0.564981 0 0
0.609583 0 0
0.655009 0 0
0.698146 0 0
0.74342 0 0
0.793805 0 0
0.853849 0 0
0.916335 0.11165 0
0.978531 0.158892 0
1 0.196246 0
1 0.227726 0
1 0.254246 0.0550393
1 0.276982 0.0820478
1 0.296025 0.0990463
1 0.311589 0.110735
1 0.323659 0.118257
1 0.33315 0.122972
1 0.340368 0.125383
0 0 0
0 0 0
0 0 0
0 0 0
0 0 0
0 0 0
0.0519265 0 0.00955215
0.183719 0 0.0337682
0.230549 0 0.0116121
0.275349 0 0
0.325933 0 0
0.376608 0 0
0.427344 0 0
0.475288 0 0
0.520134 0 0
0.564981 0 0
0.609583 0 0
0.655009 0 0
0.698146 0 0
0.74342 0 0
0.793805 0 0
0.853849 0 0
0.916335 0.11165 0
0.978531 0.158892 0
1 0.196246 0
1 0.227726 0
1 0.254246 0.0550393
1 0.276982 0.0820478
1 0.296025 0.0990463
1 0.311589 0.110735
1 0.323659 0.118257
1 0.33315 0.122972
1 0.340368 0.125383
0 0 0
0 0 0
0 0 0
0 0 0
0 0 0
0 0 0
0 0 0
0.169543 0 0.0311742
0.223758 0 0.0232242
0.267247 0 0
0.317327 0 0
0.367864 0 0
0.41799 0 0
0.466148 0 0
0.510536 0 0
0.554925 0 0
0.598856 0 0
0.643061 0 0
0.686213 0 0
0.730922 0 0
0.780804 0 0
0.840146 0 0
0.90219 0.0974746 0
0.964904 0.149828 0
1 0.188846 0
1 0.220813 0
1 0.2486 0.0454719
1 0.272633 0.0778058
1 0.292119 0.0958419
1 0.307897 0.107942
1 0.321599 0.11725
1 0.331136 0.122026
1 0.338964 0.125063
0 0 0
0 0 0
0 0 0
0 0 0
0 0 0
0 0 0
0 0 0
0.17113 0 0.0314641
0.2224 0 0.020737
0.264454 0 0
0.312581 0 0
0.361517 0 0
0.410285 0 0
0.456245 0 0
0.498634 0 0
0.540856 0 0
0.583474 0 0
0.62472 0 0
0.667201 0 0
0.711177 0 0
0.760067 0 0
0.818463 0 0
0.880201 0.0701305 0
0.942977 0.133928 0
1 0.175998 0
1 0.210163 0
1 0.239307 0.0171359
1 0.264652 0.068925
1 0.285435 0.0899977
1 0.303059 0.10457
1 0.317174 0.114427
1 0.327825 0.120409
1 0.336522 0.124269
0 0 0
0 0 0
0 0 0
0 0 0
0 0 0
0 0 0
0 0 0
0.161242 0 0.0296483
0.217197 0 0
0.26247 0 0
0.312184 0 0
0.361776 0 0
0.410498 0 0
0.456519 0 0
0.498833 0 0
0.541024 0 0
0.583444 0 0
0.624704 0 0
0.665797 0 0
0.708064 0 0
0.754925 0 0
0.812146 0 0
0.871427 0.0641642 0
0.931594 0.127062 0
0.991714 0.168612 0
1 0.203159 0
1 0.232792 0
1 0.257374 0.0607309
1 0.27895 0.0845045
1 0.297032 0.0997787
1 0.312688 0.111528
1 0.324483 0.118746
1 0.333608 0.123079
0 0 0
0 0 0
0 0 0
0 0 0
0 0 0
0 0 0
0 0 0
0.146639 0 0.0251164
0.199374 0 0
0.249821 0 0
0.304784 0 0
0.357717 0 0
0.408499 0 0
0.456046 0 0
0.49929 0 0
0.542 0 0
0.584192 0 0
0.626474 0 0
0.667613 0 0
0.709285 0 0
0.756985 0 0
0.813245 0 0
0.87274 0.0926833 0
0.932647 0.140627 0
0.992172 0.177462 0
1 0.210254 0
1 0.237903 0
1 0.261357 0.0612039
1 0.282368 0.08542
1 0.29987 0.101122
1 0.314199 0.112016
1 0.325368 0.119142
1 0.334691 0.124208
0 0.0974441 0
0 0.0974441 0
0 0.0895705 0
0 0.0702678 0
0 0 0
0 0.0304112 0
0 0.08365 0
0.134051 0.0815442 0
0.185214 0.0842451 0
0.231724 0.0862593 0
0.285893 0.0725567 0
0.34313 0.0427405 0
0.398566 0 0
0.449256 0 0
0.495094 0 0
0.539818 0 0
0.583734 0 0
0.626917 0 0
0.668254 0 0
0.711528 0 0
0.759258 0 0
0.815915 0.0836805 0
0.875242 0.127749 0
0.935271 0.163882 0
0.995102 0.195895 0
1 0.224033 0
1 0.249668 0
1 0.271504 0.0644999
1 0.290867 0.0870985
1 0.307362 0.102373
1 0.320424 0.11252
1 0.33109 0.119661
1 0.33933 0.124056
0 0.166278 0
0 0.166278 0
0 0.164202 0
0 0.160159 0
0 0.150454 0
0 0.139132 0
0.0141604 0.133242 0
0.120485 0.133547 0
0.176837 0.131899 0
0.223728 0.128191 0
0.271885 0.122911 0
0.323568 0.114702 0
0.378958 0.10251 0
0.433631 0.0877241 0
0.482918 0.0720684 0
0.530755 0.0562448 0
0.576822 0.0453193 0
0.622766 0.0507057 0
0.665782 0.0656443 0
0.709895 0.0855573 0
0.759182 0.109133 0
0.816876 0.136706 0
0.87744 0.165774 0
0.937377 0.193149 0
0.997375 0.22005 0
1 0.244526 0
1 0.267109 0.0273136
1 0.28716 0.0694896
1 0.304387 0.0898451
1 0.319387 0.10428
1 0.331167 0.113802
1 0.341268 0.121035
1 0.348363 0.124773
0 0.197833 0
0 0.197833 0
0 0.195438 0
0 0.191836 0
0 0.18677 0
0 0.176806 0
0.0759289 0.167422 0
0.128862 0.165347 0
0.165606 0.167727 0
0.215915 0.166918 0
0.265141 0.163409 0
0.312825 0.159243 0
0.363088 0.154284 0
0.41323 0.14815 0
0.462409 0.142306 0
0.512825 0.137377 0
0.56199 0.135058 0
0.610178 0.136645 0
0.655421 0.142138 0
0.701991 0.151339 0
0.753689 0.164858 0
0.813443 0.1832 0
0.875288 0.204562 0
0.93695 0.227283 0
0.997452 0.249592 0
1 0.270787 0
1 0.290517 0.0441596
1 0.30779 0.0751965
1 0.32314 0.0938735
1 0.336202 0.106966
1 0.347097 0.116426
1 0.355154 0.122179
1 0.361563 0.125856
0 0.237827 0
0 0.237827 0
0 0.235157 0
0 0.230625 0
0 0.225849 0
0 0.217456 0
0.0700847 0.206577 0
0.129854 0.201404 0
0.166751 0.201663 0
0.20444 0.204425 0
0.256123 0.204273 0
0.307607 0.201419 0
0.355245 0.198642 0
0.402136 0.196063 0
0.447059 0.194049 0
0.493553 0.192615 0
0.541497 0.192752 0
0.589761 0.194934 0
0.637034 0.199191 0
0.685634 0.2056 0
0.739559 0.21529 0
0.802319 0.229725 0
0.866484 0.246708 0
0.929717 0.264942 0
0.992294 0.284169 0
1 0.302174 0
1 0.318868 0.0564279
1 0.334417 0.0829328
1 0.347311 0.0990768
1 0.358694 0.111223
1 0.367422 0.119127
1 0.374365 0.124498
1 0.379889 0.127947
0 0.283024 0
0 0.283024 0
0 0.279927 0
0 0.275273 0
0 0.270405 0
0 0.26302 0
0 0.252445 0
0.121752 0.242405 0
0.169604 0.239139 0
0.206592 0.240024 0
0.245716 0.243229 0
0.298955 0.244724 0
0.352255 0.24303 0
0.398932 0.242069 0
0.441932 0.241962 0
0.485328 0.24271 0
0.529351 0.244923 0
0.5738 0.24799 0
0.618036 0.252201 0
0.665141 0.257801 0
0.719326 0.265934 0
0.783032 0.277134 0
0.849454 0.291096 0
0.915343 0.3066 0
0.979278 0.322271 0
1 0.338125 0.0214084
1 0.351965 0.0680858
1 0.365011 0.0902724
1 0.376211 0.105257
1 0.385229 0.115557
1 0.392935 0.123369
1 0.398032 0.127489
1 0.401923 0.12987
0 0.332448 0
0 0.332448 0
0 0.329244 0
0 0.323751 0
0 0.318517 0
0 0.311437 0
0 0.301564 0
0.100023 0.289464 0
0.164004 0.280949 0
0.207767 0.279835 0
0.24625 0.281834 0
0.289693 0.28632 0
0.344335 0.289479 0
0.39791 0.290517 0
0.442802 0.29163 0
0.485588 0.293523 0
0.527825 0.296437 0
0.570062 0.300084 0
0.611475 0.304601 0
0.654917 0.310018 0
0.704326 0.316976 0
0.764401 0.326879 0
0.828809 0.338476 0
0.894087 0.350881 0
0.959747 0.364126 0
1 0.376974 0.049424
1 0.389075 0.0800183
1 0.399558 0.0983291
1 0.408774 0.111757
1 0.416342 0.121462
1 0.422202 0.128145
1 0.426001 0.131685
1 0.428779 0.133684
0 0.388403 0
0 0.388403 0
0 0.384436 0
0 0.3785 0
0 0.372473 0
0 0.36524 0
0 0.355383 0
0.0478676 0.342672 0
0.1523 0.3299 0
0.208667 0.323827 0
0.252277 0.324468 0
0.292775 0.328374 0
0.338643 0.334936 0
0.391974 0.340063 0
0.44416 0.343694 0
0.491493 0.346319 0
0.534005 0.349325 0
0.575265 0.353429 0
0.614984 0.358022 0
0.655985 0.363119 0
0.702342 0.369696 0
0.75758 0.378347 0
0.815946 0.387732 0
0.876173 0.397772 0
0.93843 0.408423 0.0298619
1 0.419074 0.0708324
1 0.428428 0.0917067
1 0.437354 0.107897
1 0.444389 0.119188
1 0.450187 0.127703
1 0.454078 0.132937
1 0.456657 0.136034
1 0.458167 0.137392
0 0.447517 0
0 0.447517 0
0 0.443366 0
0 0.436454 0
0 0.42974 0
0 0.422324 0
0 0.412222 0
0 0.399374 0
0.142397 0.384222 0
0.211398 0.372915 0
0.262074 0.370169 0
0.305196 0.372778 0
0.347204 0.378759 0
0.392645 0.386465 0
0.442466 0.393271 0
0.494667 0.398383 0
0.542199 0.402167 0
0.585031 0.405982 0
0.623972 0.410086 0
0.663401 0.414893 0
0.707103 0.420554 0
0.758984 0.427939 0
0.813581 0.436133 0
0.868925 0.444251 0.0421912
0.925734 0.452628 0.0718242
0.98349 0.460853 0.0912947
1 0.468208 0.105898
1 0.474739 0.117723
1 0.480766 0.127962
1 0.484382 0.134203
1 0.487358 0.139178
1 0.488457 0.141253
1 0.488869 0.142092
0 0.505089 0
0 0.505089 0
0 0.500633 0
0 0.493019 0
0 0.485817 0
0 0.478264 0
0 0.468421 0
0.0504616 0.455497 0
0.144167 0.439612 0
0.215518 0.42388 0
0.272648 0.416602 0.010956
0.319493 0.417319 0.0672618
0.362264 0.422049 0.0739452
0.403388 0.429114 0.0473945
0.44622 0.43711 0
0.49514 0.444617 0
0.545129 0.450477 0
0.591867 0.454826 0
0.63331 0.458762 0
0.672557 0.462501 0
0.715114 0.467445 0
0.763867 0.473335 0.0164645
0.815396 0.480049 0.0605783
0.867353 0.486564 0.080705
0.920272 0.493263 0.0966201
0.973541 0.499428 0.109346
1 0.505241 0.120241
1 0.510384 0.129442
1 0.514427 0.136629
1 0.517357 0.142061
1 0.518685 0.145144
1 0.51899 0.146731
1 0.518227 0.146654
0.12166 0.562371 0.0518044
0.12166 0.562371 0.0518044
0.11696 0.557794 0.0441749
0.10753 0.54992 0.019791
0.0986191 0.542535 0
0.08748 0.534722 0
0.0793164 0.525368 0
0.10454 0.51281 0
0.158007 0.497047 0
0.223102 0.479225 0
0.284352 0.467185 0.0588846
0.334707 0.463981 0.0964675
0.379126 0.466987 0.111315
0.419638 0.472816 0.112154
0.458244 0.480339 0.0971084
0.500175 0.488121 0.0625315
0.546532 0.495735 0
0.593881 0.501503 0
0.63801 0.505913 0
0.680415 0.509773 0.0395514
0.723552 0.513527 0.0602731
0.770855 0.517754 0.0781262
0.81976 0.523018 0.0939956
0.868498 0.52784 0.106157
0.918639 0.533074 0.11751
0.96875 0.537743 0.126925
1 0.541817 0.134798
1 0.545541 0.141726
1 0.547951 0.146532
1 0.54992 0.150607
1 0.550118 0.152178
1 0.549554 0.152728
1 0.548257 0.152239
0.172152 0.616266 0.107546
0.172152 0.616266 0.107546
0.168002 0.611414 0.103609
0.161761 0.603967 0.0975967
0.154589 0.596109 0.090486
0.147982 0.588663 0.0836957
0.14052 0.579675 0.0742351
0.147967 0.568063 0.0610666
0.180819 0.553124 0.0422675
0.234836 0.534752 0.0428626
0.295323 0.518257 0.0841077
0.349432 0.511116 0.118853
0.396201 0.51191 0.138567
0.436805 0.515801 0.146563
0.473716 0.52195 0.144747
0.511498 0.529259 0.131456
0.551766 0.536934 0.110506
0.595361 0.543954 0.0923018
0.638651 0.549065 0.0860304
0.682231 0.552972 0.0897231
0.727443 0.555993 0.0966812
0.77644 0.559457 0.106325
0.824247 0.563012 0.11667
0.870741 0.566278 0.125643
0.918334 0.570245 0.134676
0.965362 0.573098 0.141268
1 0.576104 0.147662
1 0.578256 0.152499
1 0.579721 0.156115
1 0.580468 0.158633
1 0.580102 0.159503
1 0.579171 0.159564
1 0.57705 0.157977
0.209369 0.664973 0.141192
0.209369 0.664973 0.141192
0.206363 0.660594 0.138537
0.200656 0.653086 0.133486
0.195743 0.646128 0.129107
0.189822 0.638575 0.123781
0.184131 0.630793 0.118395
0.185046 0.61976 0.110323
0.205554 0.605539 0.100282
0.249332 0.588052 0.0945907
0.306722 0.569787 0.109056
0.362905 0.558251 0.138003
0.411749 0.555642 0.16051
0.45304 0.557641 0.172137
0.489494 0.562142 0.176791
0.525307 0.568353 0.172992
0.561196 0.575174 0.160678
0.5991 0.581811 0.14342
0.638468 0.587518 0.129198
0.680598 0.59202 0.122667
0.726665 0.5953 0.123415
0.777813 0.598138 0.12871
0.827115 0.600748 0.135485
0.872923 0.602502 0.141756
0.918029 0.604456 0.148104
0.963363 0.606607 0.15407
1 0.608133 0.158648
1 0.609155 0.162158
1 0.609735 0.164828
1 0.609491 0.166201
1 0.608545 0.166461
1 0.607019 0.165789
1 0.604807 0.164126
0.239078 0.708293 0.166964
0.239078 0.708293 0.166964
0.236652 0.704234 0.164889
0.23183 0.697139 0.160723
0.22739 0.690318 0.156878
0.222461 0.683192 0.152605
0.217609 0.676066 0.148379
0.215457 0.665644 0.141726
0.229541 0.652964 0.134356
0.2645 0.636439 0.127489
0.317296 0.617929 0.132387
0.374044 0.603021 0.154528
0.424994 0.597009 0.178195
0.467781 0.597192 0.193164
0.503944 0.599893 0.200534
0.538476 0.604288 0.20209
0.571664 0.609644 0.196109
0.605676 0.615595 0.183871
0.641108 0.621714 0.169192
0.679362 0.626474 0.155581
0.723445 0.63003 0.147677
0.775174 0.633021 0.147921
0.825818 0.63447 0.15111
0.873152 0.635523 0.155276
0.91809 0.636439 0.160067
0.961608 0.636957 0.164233
1 0.6374 0.167742
1 0.637644 0.17055
1 0.637095 0.171984
1 0.636011 0.172473
1 0.634714 0.172473
1 0.632578 0.171145
1 0.630228 0.169421
0.263752 0.748623 0.188037
0.263752 0.748623 0.188037
0.261753 0.744823 0.186343
0.25771 0.738201 0.182895
0.253941 0.731762 0.179675
0.249546 0.72491 0.175937
0.245563 0.718349 0.172519
0.242664 0.709316 0.167514
0.25211 0.697871 0.161578
0.280629 0.683024 0.155459
0.327535 0.664958 0.155108
0.383246 0.647883 0.170016
0.436164 0.638437 0.193225
0.480323 0.635935 0.210559
0.517067 0.637186 0.220447
0.551278 0.640116 0.225437
0.583108 0.644038 0.224445
0.614145 0.648539 0.217014
0.645441 0.653559 0.205325
0.679713 0.658518 0.190295
0.720562 0.66305 0.176135
0.769619 0.665705 0.167086
0.821012 0.667292 0.166339
0.870222 0.66772 0.168261
0.915846 0.667262 0.170352
0.959274 0.666819 0.17319
1 0.666255 0.175845
1 0.665187 0.177371
1 0.664302 0.178729
1 0.662516 0.178561
1 0.660594 0.177966
1 0.658351 0.176745
1 0.655497 0.174456
0.285298 0.788739 0.206317
0.285298 0.788739 0.206317
0.283253 0.784909 0.204578
0.280522 0.779187 0.202274
0.277012 0.772915 0.199298
0.273869 0.766903 0.196628
0.270253 0.760571 0.193576
0.267735 0.753246 0.190265
0.273655 0.742992 0.185428
0.296437 0.729824 0.180194
0.337026 0.712764 0.17705
0.390799 0.695277 0.185977
0.445457 0.682887 0.206912
0.491356 0.677256 0.225864
0.528893 0.676356 0.238102
0.562936 0.677577 0.245136
0.594675 0.680461 0.248478
0.624048 0.683528 0.245792
0.652384 0.687221 0.238285
0.682353 0.691066 0.22591
0.71841 0.695506 0.20943
0.76376 0.699306 0.192935
0.81294 0.700847 0.183566
0.862333 0.700786 0.181094
0.910262 0.700023 0.181445
0.954742 0.698421 0.181994
0.996612 0.696529 0.182834
1 0.694804 0.184009
1 0.69279 0.184375
1 0.690608 0.18407
1 0.688258 0.1832
1 0.685573 0.181613
1 0.68249 0.179278
0.304143 0.830289 0.222263
0.304143 0.830289 0.222263
0.302937 0.82707 0.221241
0.300359 0.821469 0.219074
0.298054 0.816068 0.217121
0.295369 0.810391 0.214847
0.293248 0.805127 0.213046
0.290562 0.798703 0.210407
0.294148 0.789975 0.206943
0.311711 0.77847 0.202655
0.346792 0.763821 0.199344
0.39678 0.746899 0.20322
0.451743 0.732021 0.219379
0.500053 0.723262 0.239002
0.539223 0.719829 0.253773
0.573556 0.718807 0.26302
0.604944 0.720012 0.268559
0.633646 0.721614 0.270115
0.660517 0.724147 0.26746
0.688167 0.727337 0.260227
0.71928 0.730495 0.246555
0.758663 0.734142 0.2271
0.803479 0.736675 0.20914
0.850797 0.736889 0.197971
0.898665 0.7355 0.193317
0.945235 0.733303 0.191531
0.988876 0.730526 0.190417
1 0.727932 0.190112
1 0.72517 0.190021
1 0.72253 0.18967
1 0.719432 0.188251
1 0.716365 0.186526
1 0.713115 0.184207
0.317876 0.868605 0.233936
0.317876 0.868605 0.233936
0.316747 0.865446 0.232975
0.315404 0.860761 0.23183
0.313619 0.855741 0.230304
0.312047 0.850889 0.228977
0.31014 0.845777 0.227344
0.3084 0.84062 0.225834
0.310155 0.833066 0.223316
0.323888 0.82324 0.220157
0.353841 0.810559 0.217182
0.39939 0.79527 0.21828
0.453361 0.779644 0.229374
0.50425 0.768582 0.24831
0.545312 0.762448 0.264591
0.581125 0.759472 0.276585
0.612772 0.758923 0.284245
0.641108 0.75903 0.287938
0.667445 0.760327 0.289128
0.693248 0.761913 0.286
0.721767 0.764141 0.277531
0.756283 0.766888 0.261463
0.795041 0.769223 0.240253
0.838224 0.770596 0.221027
0.884428 0.770047 0.208316
0.93077 0.767437 0.201373
0.97673 0.764523 0.19823
1 0.761364 0.196399
1 0.757794 0.194583
1 0.754421 0.193683
1 0.751064 0.192493
1 0.747906 0.191119
1 0.744259 0.188647
0.32781 0.903944 0.242451
0.32781 0.903944 0.242451
0.327016 0.90103 0.241779
0.325963 0.896559 0.240864
0.324544 0.891814 0.239643
0.3234 0.887282 0.238666
0.322164 0.882673 0.237583
0.320867 0.878065 0.2365
0.321233 0.871382 0.234562
0.332021 0.862974 0.232441
0.357397 0.851957 0.229953
0.398978 0.838895 0.230259
0.450919 0.823835 0.237339
0.502815 0.811185 0.253285
0.54638 0.802899 0.270451
0.584375 0.798047 0.284947
0.61706 0.795789 0.295003
0.645685 0.794522 0.300694
0.671595 0.794461 0.303716
0.696895 0.794858 0.304128
0.724117 0.795972 0.300298
0.755901 0.797848 0.289815
0.790616 0.800031 0.272572
0.828458 0.801556 0.250507
0.870008 0.801602 0.229557
0.915236 0.800443 0.215381
0.961303 0.797711 0.207523
1 0.794049 0.202914
1 0.790127 0.199847
1 0.786206 0.19733
1 0.782498 0.195819
1 0.778836 0.194308
1 0.775128 0.192233
0.33463 0.937026 0.248447
0.33463 0.937026 0.248447
0.334051 0.934264 0.247944
0.333089 0.929854 0.247089
0.332662 0.925841 0.246693
0.33164 0.921386 0.245808
0.330831 0.917082 0.245075
0.329686 0.912581 0.244099
0.329915 0.907225 0.243198
0.337453 0.899367 0.241215
0.359075 0.889906 0.23949
0.395605 0.877974 0.238712
0.444755 0.864164 0.243061
0.496803 0.851225 0.255634
0.542504 0.84123 0.272175
0.582757 0.834485 0.288151
0.617105 0.830503 0.300542
0.646799 0.827985 0.308644
0.67332 0.827115 0.313802
0.698558 0.826581 0.316258
0.725261 0.826505 0.316106
0.755657 0.827268 0.31078
0.787564 0.828626 0.298772
0.821546 0.830121 0.280522
0.858976 0.831235 0.257801
0.900267 0.831174 0.236408
0.944396 0.829328 0.220615
0.989517 0.825925 0.211032
1 0.82211 0.205707
1 0.818128 0.202213
1 0.813855 0.199039
1 0.809598 0.19649
1 0.805768 0.19472
0.339605 0.968841 0.252979
0.33962 0.968856 0.252995
0.339147 0.966155 0.252552
0.338674 0.962097 0.25211
0.337911 0.957824 0.251423
0.337392 0.953735 0.250935
0.336843 0.949599 0.250431
0.336233 0.94548 0.249882
0.335607 0.940414 0.248905
0.341436 0.93373 0.247852
0.359319 0.925216 0.246479
0.391608 0.914488 0.245518
0.436728 0.901732 0.247608
0.487373 0.888853 0.256504
0.534264 0.877928 0.270939
0.577325 0.869932 0.287892
0.613489 0.864012 0.301915
0.644999 0.860426 0.312627
0.67245 0.858564 0.319982
0.698085 0.857114 0.324331
0.725109 0.856428 0.326711
0.75523 0.856245 0.325841
0.785916 0.856809 0.319234
0.817349 0.857755 0.306096
0.85095 0.858808 0.286946
0.887984 0.859525 0.263569
0.92845 0.858854 0.241047
0.97203 0.856825 0.22417
1 0.853819 0.214145
1 0.849653 0.207752
1 0.845258 0.203265
1 0.84094 0.199802
1 0.836774 0.197055
0.343023 0.999649 0.256306
0.343023 0.999649 0.256306
0.342855 0.997162 0.256123
0.342412 0.993103 0.25568
0.342168 0.989181 0.255406
0.341543 0.985 0.254826
0.341131 0.980972 0.254429
0.340459 0.976776 0.253803
0.340246 0.972549 0.253483
0.343862 0.966217 0.252506
0.358404 0.958419 0.251392
0.386877 0.948928 0.250629
0.428183 0.937438 0.251591
0.476188 0.924788 0.25713
0.523491 0.913771 0.269001
0.568246 0.904326 0.284962
0.606928 0.897276 0.300359
0.640482 0.892424 0.313237
0.669169 0.889311 0.322637
0.696056 0.887297 0.329442
0.723476 0.88571 0.333791
0.753796 0.884749 0.335805
0.78436 0.884642 0.333989
0.814481 0.884855 0.326131
0.84593 0.885771 0.312245
0.879332 0.886534 0.292317
0.91603 0.886931 0.268284
0.956146 0.886107 0.245121
0.999527 0.884169 0.227512
1 0.880568 0.215747
1 0.876539 0.208835
1 0.872282 0.204105
1 0.86807 0.200519
0.346136 1 0.259464
0.346136 1 0.259464
0.345754 1 0.259113
0.345464 1 0.258762
0.34493 1 0.258259
0.344625 1 0.257923
0.34435 1 0.257618
0.343999 1 0.257252
0.343496 1 0.256764
