lut/8cf4785f-c1a5-41ee-b3cf-59a7ca0a6e23.cube
TITLE "Extreme Punchy Cinematic"
LUT_3D_SIZE 9
0 0 0
0 0 0
0.230549 0 0.0116121
0.427344 0 0
0.609583 0 0
0.793805 0 0
1 0.196246 0
1 0.296025 0.0990463
1 0.340368 0.125383
0 0 0
0 0 0
0.217197 0 0
0.410498 0 0
0.583444 0 0
0.754925 0 0
0.991714 0.168612 0
1 0.27895 0.0845045
1 0.333608 0.123079
0 0.197833 0
0 0.18677 0
0.165606 0.167727 0
0.363088 0.154284 0
0.56199 0.135058 0
0.753689 0.164858 0
0.997452 0.249592 0
1 0.32314 0.0938735
1 0.361563 0.125856
0 0.388403 0
0 0.372473 0
0.1523 0.3299 0
0.338643 0.334936 0
0.534005 0.349325 0
0.702342 0.369696 0
0.93843 0.408423 0.0298619
1 0.444389 0.119188
1 0.458167 0.137392
0.172152 0.616266 0.107546
0.154589 0.596109 0.090486
0.180819 0.553124 0.0422675
0.396201 0.51191 0.138567
0.551766 0.536934 0.110506
0.727443 0.555993 0.0966812
0.918334 0.570245 0.134676
1 0.579721 0.156115
1 0.57705 0.157977
0.285298 0.788739 0.206317
0.277012 0.772915 0.199298
0.273655 0.742992 0.185428
0.445457 0.682887 0.206912
0.594675 0.680461 0.248478
0.71841 0.695506 0.20943
0.910262 0.700023 0.181445
1 0.69279 0.184375
1 0.68249 0.179278
0.33463 0.937026 0.248447
0.332662 0.925841 0.246693
0.329915 0.907225 0.243198
0.444755 0.864164 0.243061
0.617105 0.830503 0.300542
0.725261 0.826505 0.316106
0.858976 0.831235 0.257801
1 0.82211 0.205707
1 0.805768 0.19472
0.348791 1 0.262348
0.34815 1 0.261555
0.346609 1 0.259953
0.410758 1 0.257389
0.585946 0.963531 0.291752
0.715785 0.943572 0.339696
0.839292 0.938613 0.347082
0.970565 0.940307 0.27602
1 0.930556 0.211185
0.289143 1 0.220295
0.307012 1 0.233448
0.331823 1 0.252003
0.388312 1 0.270619
0.529229 1 0.277455
0.682795 1 0.327108
0.826902 1 0.374945
0.94876 1 0.371496
1 1 0.261723
0 0 0
0 0 0
0.226307 0 0.0218357
0.411978 0 0
0.589227 0 0
0.769924 0 0
1 0.18378 0
1 0.290959 0.110567
1 0.339055 0.131792
0 0 0
0 0 0
0.204562 0 0.0258946
0.391302 0 0
0.565377 0 0
0.738277 0 0
0.979553 0.160601 0
1 0.276509 0.08159
1 0.333227 0.123156
0 0.194629 0
0 0.184894 0
0.162264 0.164034 0
0.358724 0.14995 0
0.556756 0.128206 0
0.746471 0.15668 0
0.989548 0.243015 0
1 0.318853 0.0911116
1 0.358968 0.125093
0 0.383062 0
0 0.366873 0
0.146349 0.325322 0
0.333135 0.32958 0
0.527367 0.343389 0
0.694697 0.362844 0
0.93193 0.40206 0
1 0.439429 0.116747
1 0.454643 0.136706
0.166201 0.609354 0.101884
0.148775 0.589502 0.084535
0.172091 0.546715 0.0207523
0.388968 0.504952 0.133394
0.544274 0.529839 0.10454
0.720546 0.549554 0.0910506
0.911818 0.564324 0.131029
1 0.575006 0.154314
1 0.573266 0.157443
0.282612 0.783459 0.204028
0.27425 0.76759 0.196948
0.269001 0.737438 0.182528
0.438926 0.67715 0.202808
0.588327 0.674296 0.244953
0.712779 0.69012 0.206821
0.905501 0.69543 0.17995
1 0.688594 0.183368
1 0.67892 0.17908
0.333806 0.93312 0.247715
0.331746 0.921859 0.245899
0.328573 0.903273 0.242298
0.440055 0.860517 0.241474
0.612451 0.826215 0.298375
0.721035 0.82237 0.314611
0.855131 0.827482 0.257038
1 0.818479 0.205447
1 0.802152 0.194598
0.348577 1 0.262074
0.347707 1 0.261112
0.346181 1 0.25951
0.407813 1 0.257115
0.581628 0.960266 0.290089
0.712139 0.940215 0.338537
0.835767 0.935149 0.346334
0.967224 0.937026 0.275792
1 0.927031 0.211093
0.295369 1 0.224857
0.312764 1 0.23772
0.337026 1 0.25594
0.386175 1 0.270268
0.52488 1 0.276326
0.678477 1 0.325307
0.823041 1 0.373632
0.945113 1 0.370672
1 1 0.265629
0 0 0.219928
0 0 0.244633
0.261051 0 0.230442
0.447364 0 0.209262
0.597223 0 0.198489
0.760174 0 0.216495
0.990021 0.170733 0.257176
1 0.280949 0.290486
1 0.334524 0.297841
0 0.02533 0.0975357
0 0.0362249 0.188586
0.223819 0 0.194766
0.397299 0 0.171237
0.549554 0 0.161212
0.707042 0 0.17322
0.933547 0.130709 0.208499
1 0.260227 0.245869
1 0.326253 0.26041
0 0.188296 0.178286
0 0.177111 0.166873
0.168994 0.160952 0.14667
0.354665 0.144488 0.12874
0.522499 0.127367 0.121386
0.686839 0.143694 0.130663
0.916716 0.219181 0.163928
1 0.301839 0.200168
1 0.352987 0.215167
0 0.376806 0.132509
0 0.360464 0.115236
0.0979629 0.339391 0.0902724
0.331609 0.325567 0.119066
0.51632 0.335378 0.0770123
0.694484 0.354467 0.0826123
0.941863 0.394644 0.114611
1 0.432685 0.149355
1 0.450233 0.159213
0.160494 0.601022 0.169665
0.141848 0.580636 0.148928
0.1561 0.550195 0.116991
0.382269 0.501732 0.192493
0.53669 0.522652 0.165454
0.710094 0.540154 0.117342
0.901671 0.555993 0.148547
1 0.56791 0.162554
1 0.56672 0.15935
0.278599 0.776287 0.222873
0.269642 0.759869 0.210636
0.262669 0.733669 0.192233
0.423392 0.677073 0.217121
0.580774 0.666941 0.266377
0.704662 0.682536 0.21883
0.897581 0.687831 0.178531
1 0.682292 0.181979
1 0.673381 0.178653
0.333059 0.928008 0.250797
0.330602 0.916396 0.247028
0.326894 0.898085 0.241871
0.431617 0.856077 0.240131
0.605509 0.819883 0.295232
0.714733 0.81622 0.31249
0.848859 0.821408 0.255451
1 0.812833 0.204883
1 0.796735 0.194537
0.348089 1 0.26157
0.347234 1 0.260594
0.345632 1 0.258946
0.403021 0.996033 0.256336
0.575174 0.955428 0.287755
0.706264 0.934783 0.336446
0.830365 0.929808 0.345144
0.961593 0.931517 0.274861
1 0.921431 0.210636
0.304524 1 0.231601
0.321279 1 0.244083
0.344762 1 0.261814
0.382635 1 0.269383
0.518486 1 0.274876
0.67216 1 0.32282
0.817533 1 0.371984
0.9393 1 0.369177
1 1 0.271458
0 0 0.457908
0 0 0.510521
0.239109 0 0.471382
0.481804 0 0.437552
0.684398 0 0.449638
0.850828 0.0476997 0.466957
1 0.208392 0.484428
1 0.292424 0.501534
1 0.337438 0.503258
0 0 0.286336
0 0 0.410513
0.201434 0 0.428672
0.438544 0 0.394995
0.626169 0 0.398932
0.780514 0 0.408591
0.975372 0.166918 0.429618
1 0.270909 0.456443
1 0.328237 0.465522
0 0.195361 0.296254
0 0.184466 0.263615
0.168841 0.157275 0.339055
0.379889 0.124132 0.340719
0.541527 0.111788 0.332235
0.6822 0.139696 0.338643
0.891112 0.213184 0.369299
1 0.294575 0.40531
1 0.349035 0.42063
0 0.375128 0.363119
0 0.358618 0.346853
0.113207 0.336614 0.324559
0.33901 0.324773 0.307179
0.515389 0.332464 0.309056
0.678233 0.351263 0.321782
0.890227 0.388647 0.349355
1 0.427497 0.371649
1 0.451118 0.37673
0.179339 0.59588 0.387259
0.162966 0.575677 0.367971
0.168078 0.545235 0.339147
0.353429 0.525643 0.318929
0.538613 0.522118 0.344488
0.698833 0.534096 0.3308
0.910338 0.549447 0.330098
1 0.559655 0.327306
1 0.559976 0.318517
0.277638 0.769589 0.405386
0.268925 0.753429 0.389792
0.260075 0.727626 0.36527
0.383032 0.703029 0.342336
0.580713 0.670039 0.409689
0.701228 0.680232 0.379599
0.88574 0.681758 0.330785
1 0.67747 0.324453
1 0.6654 0.296559
0.32961 0.922057 0.384329
0.327092 0.91043 0.373388
0.323079 0.892378 0.356664
0.396338 0.871763 0.339422
0.575723 0.834913 0.38291
0.712871 0.815625 0.441047
0.844251 0.818433 0.377905
1 0.807691 0.288762
1 0.792645 0.282445
0.34583 1 0.348058
0.344869 1 0.339208
0.343771 1 0.326406
0.383993 1 0.313848
0.530938 0.971939 0.333837
0.693049 0.93817 0.409384
0.827176 0.926528 0.435706
0.956878 0.927794 0.35288
1 0.916335 0.250797
0.31075 1 0.289906
0.327184 1 0.293904
0.350347 1 0.300587
0.374548 1 0.295903
0.487663 1 0.302022
0.647364 1 0.352926
0.811261 1 0.421561
0.935058 1 0.419852
1 1 0.315328
0 0 0.662226
0 0 0.730678
0 0 0.702083
0.470085 0 0.658259
0.706905 0 0.65864
0.912657 0.14435 0.683696
1 0.261295 0.710613
1 0.317601 0.702785
1 0.371099 0.67924
0 0.0408484 0.485588
0 0 0.613092
0 0 0.655436
0.424872 0 0.608637
0.648936 0 0.601434
0.848844 0.0746471 0.624582
1 0.230976 0.657404
1 0.30045 0.656504
1 0.336828 0.64007
0 0.205386 0.323445
0 0.195026 0.317815
0.0553902 0.15816 0.52369
0.375128 0.116228 0.536553
0.579095 0.0967117 0.527642
0.759426 0.149737 0.54786
0.955154 0.234958 0.570718
1 0.304707 0.584283
1 0.351064 0.586831
0.0805371 0.37911 0.543832
0.0517128 0.36199 0.52546
0.12285 0.346426 0.447868
0.348531 0.326757 0.475624
0.541756 0.330129 0.49424
0.696681 0.352148 0.503075
0.880858 0.390372 0.521324
1 0.428031 0.540139
1 0.452262 0.54612
0.210025 0.596582 0.581155
0.195041 0.576715 0.561578
0.193256 0.546517 0.532021
0.359854 0.526131 0.50988
0.5449 0.52401 0.502831
0.69691 0.533852 0.507378
0.886488 0.549569 0.514794
1 0.561868 0.518791
1 0.565011 0.512367
0.295186 0.765499 0.588388
0.286152 0.749172 0.572366
0.276204 0.723888 0.547753
0.386709 0.699748 0.523201
0.554726 0.687114 0.508751
0.702937 0.679698 0.52282
0.881804 0.678111 0.501518
1 0.669932 0.479759
1 0.658854 0.462821
0.333944 0.916609 0.556848
0.331273 0.905226 0.545434
0.326253 0.887068 0.527352
0.393194 0.867002 0.507881
0.5364 0.849912 0.4916
0.705333 0.819638 0.545144
0.841703 0.81622 0.516548
1 0.803754 0.457588
1 0.788678 0.440269
0.345327 1 0.507134
0.344121 1 0.496544
0.342611 1 0.480674
0.378912 0.997345 0.463706
0.497948 0.981094 0.449134
0.653452 0.954223 0.477943
0.82649 0.926207 0.554711
0.953658 0.925521 0.486076
1 0.912139 0.391119
0.312627 1 0.436301
0.328527 1 0.435279
0.351049 1 0.433921
0.369879 1 0.420111
0.462547 1 0.406958
0.59852 1 0.420996
0.798856 1 0.51426
0.934646 1 0.542992
1 1 0.443717
0 0 0.810819
0 0 0.842512
0 0 0.879057
0.428504 0 0.86656
0.707622 0 0.862013
0.922789 0.186648 0.873549
1 0.283207 0.882383
1 0.347951 0.871672
1 0.42945 0.842481
0 0.0562295 0.663081
0 0.0351873 0.779721
0 0 0.846372
0.376074 0 0.81059
0.648875 0 0.798627
0.861128 0.137987 0.811597
1 0.258671 0.830228
1 0.320867 0.829389
1 0.395071 0.803449
0 0.216373 0.41384
0 0.205173 0.41355
0 0.166522 0.694377
0.331518 0.129137 0.728908
0.579934 0.120241 0.713436
0.777935 0.170428 0.724071
1 0.258717 0.747463
1 0.322194 0.756878
1 0.35523 0.740124
0.0979934 0.399496 0.601038
0.0770581 0.381918 0.57203
0.131807 0.357351 0.450858
0.347768 0.334401 0.627848
0.553567 0.335988 0.656565
0.732708 0.355032 0.666957
0.938552 0.392782 0.688106
1 0.428885 0.690227
1 0.450721 0.684047
0.268589 0.600229 0.732341
0.254643 0.580484 0.712444
0.246693 0.550484 0.68246
0.366354 0.537255 0.613016
0.554681 0.526955 0.650126
0.717678 0.532387 0.662715
0.888121 0.550271 0.66009
1 0.5635 0.659312
1 0.566812 0.649805
0.316747 0.763409 0.745907
0.308141 0.747539 0.73019
0.2972 0.722484 0.705592
0.395773 0.698726 0.681682
0.556527 0.685756 0.666362
0.705074 0.679057 0.655436
0.874327 0.677058 0.647211
1 0.67277 0.635203
1 0.664347 0.620356
0.348196 0.91136 0.703746
0.345418 0.900053 0.692332
0.340444 0.882216 0.674434
0.400198 0.862257 0.654536
0.536721 0.845533 0.636622
0.673915 0.831983 0.622614
0.841672 0.814221 0.631296
1 0.800519 0.597299
1 0.781308 0.564141
0.352255 1 0.649973
0.350668 1 0.639216
0.348592 1 0.623072
0.380987 0.992889 0.605585
0.495354 0.977203 0.589822
0.622644 0.962951 0.576242
0.82179 0.927718 0.641215
0.951843 0.923323 0.599344
1 0.908904 0.53431
0.31516 1 0.574533
0.330327 1 0.572686
0.351904 1 0.569894
0.368978 1 0.555016
0.458427 1 0.540215
0.574182 1 0.527855
0.768688 1 0.570932
0.934676 1 0.640925
1 1 0.554406
0 0 0.887434
0.246906 0 0.925017
0.338445 0 0.966598
0.473869 0 1
0.685573 0.17847 1
0.913054 0.245548 1
1 0.312078 1
1 0.411795 1
1 0.487495 1
0 0.0300603 0.839933
0 0 0.873091
0.240085 0 0.935485
0.385031 0 1
0.624262 0.133211 1
0.855497 0.210178 1
1 0.287053 1
1 0.375677 1
1 0.458 0.993622
0 0.229999 0.560494
0 0.217487 0.563394
0 0.187228 0.90724
0.176165 0.169955 0.978576
0.552224 0.176562 0.96968
0.77615 0.217182 0.971496
1 0.284199 0.972854
1 0.334905 0.961379
1 0.409796 0.93402
0.118013 0.411276 0.572442
0.0991836 0.393408 0.551125
0.131655 0.378592 0.555886
0.302022 0.352346 0.842344
0.544335 0.355062 0.894408
0.73756 0.370916 0.892775
0.961944 0.400809 0.895979
1 0.427375 0.887678
1 0.442878 0.867964
0.281102 0.615915 0.916564
0.268635 0.597742 0.892668
0.26334 0.574121 0.789517
0.373785 0.555322 0.651759
0.564614 0.535882 0.830915
0.729717 0.536828 0.855558
0.927489 0.544778 0.850126
1 0.553231 0.842268
1 0.559731 0.819394
0.366781 0.76051 0.925505
0.359838 0.745754 0.910704
0.349493 0.721813 0.886885
0.426017 0.700633 0.854261
0.561379 0.695491 0.738293
0.713069 0.678279 0.828077
0.893156 0.670054 0.827924
1 0.668666 0.805814
1 0.664225 0.785885
0.368841 0.904997 0.886641
0.366125 0.893782 0.875456
0.361303 0.876158 0.857908
0.412604 0.85655 0.838727
0.54049 0.84033 0.821683
0.672984 0.827237 0.806607
0.841108 0.81033 0.784939
0.998535 0.797147 0.765957
1 0.783169 0.745235
0.370581 1 0.824598
0.36878 1 0.813779
0.36614 1 0.797391
0.393729 0.986694 0.77995
0.500481 0.971176 0.763638
0.622919 0.95758 0.748608
0.786908 0.940398 0.730312
0.951827 0.920378 0.734737
1 0.904677 0.70074
0.324407 1 0.742214
0.338598 1 0.740444
0.358862 1 0.737743
0.37705 1 0.725261
0.460349 1 0.710002
0.572015 1 0.696712
0.729747 1 0.680568
0.93109 1 0.746242
1 1 0.686656
0.407019 0 0.979263
0.505348 0 1
0.583108 0 1
0.676875 0 1
0.803021 0.195987 1
0.90515 0.313039 1
1 0.406287 1
1 0.473304 1
1 0.537133 1
0.168383 0 0.922118
0.341909 0 0.959594
0.517021 0 1
0.604288 0 1
0.73051 0.16405 1
0.855161 0.266651 1
1 0.364996 1
1 0.441138 1
1 0.509712 1
0 0.247547 0.750851
0 0.234287 0.752422
0.173556 0.160647 0.990616
0.477546 0.14641 1
0.607691 0.212314 1
0.750454 0.275563 1
1 0.320638 1
1 0.390372 1
1 0.466926 1
0.134463 0.435157 0.661479
0.112245 0.417121 0.645335
0.0633097 0.403311 0.710445
0.106508 0.381491 1
0.49308 0.387335 1
0.712993 0.398596 1
0.950088 0.418524 1
1 0.433097 1
1 0.438254 1
0.300801 0.638575 0.893812
0.288487 0.61976 0.863371
0.274449 0.587564 0.755123
0.373831 0.577905 0.781811
0.545541 0.551003 1
0.716899 0.547845 1
0.921721 0.549706 1
1 0.548943 1
1 0.543191 1
0.355123 0.764218 1
0.350713 0.750942 1
0.348135 0.731899 1
0.427222 0.718776 0.847257
0.551263 0.710887 0.83537
0.712825 0.680247 1
0.895033 0.667063 1
1 0.655924 0.990997
1 0.646525 0.964706
0.41001 0.897765 1
0.407965 0.886809 1
0.404166 0.869581 1
0.446113 0.850202 1
0.556985 0.836774 0.986618
0.671977 0.832395 0.885359
0.843915 0.804639 0.95465
1 0.786603 0.943221
1 0.77734 0.913832
0.391119 1 1
0.389273 1 0.994858
0.386648 0.997375 0.978805
0.409628 0.979965 0.961837
0.507836 0.964904 0.946609
0.624689 0.951446 0.93225
0.784054 0.934539 0.912825
0.950652 0.91577 0.889143
1 0.901442 0.869276
0.336858 1 0.911391
0.350744 1 0.909911
0.370596 1 0.907622
0.394537 1 0.900801
0.470436 1 0.885161
0.576928 1 0.871275
0.729946 1 0.853208
0.894347 1 0.832624
1 1 0.817166
0.625254 0 1
0.684886 0 1
0.749538 0 1
0.814664 0.19704 1
0.89659 0.303731 1
0.970367 0.382879 1
1 0.466346 1
1 0.539117 1
1 0.58999 1
0.481956 0 1
0.572931 0 1
0.706447 0 1
0.770794 0.105653 1
0.854063 0.252567 1
0.932418 0.343236 1
1 0.436408 1
1 0.510567 1
1 0.563592 1
0 0.273548 0.971435
0 0.258839 0.971298
0.499733 0.131609 1
0.701656 0.12221 1
0.792798 0.204685 1
0.881758 0.286549 1
0.978424 0.390799 1
1 0.466514 1
1 0.523293 1
0.122896 0.466072 0.802777
0.0834058 0.448173 0.789441
0 0.431952 0.907759
0.415457 0.396155 1
0.657145 0.395026 1
0.760876 0.41503 1
0.912093 0.442298 1
1 0.446403 1
1 0.493278 1
0.307912 0.649195 0.882307
0.297139 0.631907 0.861799
0.287526 0.608988 0.834287
0.354788 0.598825 0.959319
0.477653 0.570077 1
0.663706 0.563989 1
0.886076 0.560037 1
1 0.552636 1
1 0.540887 1
0.361822 0.783169 1
0.36051 0.770565 1
0.363165 0.751247 1
0.433204 0.732601 0.89749
0.538369 0.72166 0.985901
0.680858 0.685069 1
0.869642 0.667689 1
1 0.65391 1
1 0.63827 1
0.375326 0.89247 1
0.374701 0.881651 1
0.373571 0.86508 1
0.43032 0.856474 1
0.553841 0.850675 0.971832
0.6607 0.8421 0.953704
0.838041 0.80148 1
1 0.780575 1
1 0.762341 1
0.428153 1 1
0.426734 1 1
0.42446 0.989975 1
0.443076 0.972457 1
0.531044 0.957382 1
0.63769 0.945693 1
0.781476 0.938918 0.988388
0.952758 0.909575 1
1 0.890654 1
0.344808 1 1
0.359045 1 1
0.379416 1 1
0.407935 1 1
0.482673 1 1
0.582925 1 1
0.730877 1 1
0.884199 1 1
1 0.993606 0.966278
