lut/96d8d92e-3a78-4957-ac1e-6ac0a762d581.cube
TITLE "Classic Warm Glow"
LUT_3D_SIZE 9
0.00537118 0.00907912 0.00901808
0.0518807 0.00869764 0.00898756
0.104326 0.00842298 0.00863661
0.173404 0.0102846 0.0080415
0.314214 0.0324559 0.00721752
0.480949 0.0725261 0.00781262
0.605615 0.0977188 0.009308
0.695384 0.110918 0.0110323
0.771832 0.119493 0.0128023
0.00671397 0.0537575 0.00936904
0.0512398 0.0530404 0.00921645
0.103914 0.052369 0.00848402
0.172839 0.0541085 0.00781262
0.312932 0.0759594 0.00695811
0.480446 0.116533 0.00756847
0.606241 0.142321 0.00907912
0.696437 0.155962 0.0108339
0.773022 0.164843 0.012604
0.0107271 0.108385 0.0175631
0.0542458 0.107805 0.0175174
0.105211 0.105852 0.0145113
0.17023 0.104829 0.0107424
0.304006 0.119905 0.00700389
0.479912 0.161669 0.00726329
0.611109 0.189136 0.00869764
0.702281 0.203571 0.0104677
0.778561 0.212955 0.0122988
0.0163119 0.169574 0.0301366
0.059144 0.170077 0.03093
0.104219 0.16907 0.0296635
0.169436 0.165713 0.0203861
0.288426 0.1729 0.0083772
0.461997 0.20557 0.00735485
0.604776 0.235264 0.00843824
0.702617 0.251347 0.00984207
0.779828 0.261006 0.0114443
0.0229496 0.252171 0.0592966
0.0647135 0.258824 0.0649424
0.106996 0.262547 0.0679484
0.163638 0.259113 0.0631723
0.284871 0.260777 0.0347295
0.462058 0.281056 0.007187
0.603128 0.292668 0.00729381
0.703639 0.303593 0.00863661
0.787259 0.314244 0.0102998
0.0397192 0.386923 0.129976
0.0819104 0.397543 0.138918
0.125185 0.404837 0.145281
0.175601 0.402594 0.143359
0.254139 0.396307 0.129015
0.487053 0.418936 0.0459449
0.644846 0.427131 0.00227359
0.738415 0.409842 0.00483711
0.811109 0.392065 0.00735485
0.0810101 0.533165 0.211429
0.120775 0.543801 0.220554
0.161303 0.551125 0.227115
0.206638 0.551507 0.227573
0.269169 0.551186 0.226139
0.410712 0.551705 0.193942
0.679835 0.578515 0.0559548
0.790738 0.575204 0
0.872221 0.560983 0.00178531
0.0964523 0.665995 0.28513
0.127626 0.674586 0.293202
0.165209 0.681239 0.299382
0.228809 0.680354 0.296345
0.286687 0.679911 0.295003
0.397742 0.689204 0.283543
0.588815 0.680827 0.249226
0.816419 0.704021 0.0996262
0.910826 0.694804 0
0.0961624 0.787243 0.350484
0.124086 0.792737 0.355688
0.161089 0.797147 0.359915
0.229801 0.798154 0.358495
0.303136 0.796567 0.35404
0.383749 0.800427 0.350149
0.55668 0.809705 0.309743
0.740276 0.800305 0.296986
0.949752 0.824521 0.149203
0.0052491 0.0108492 0.0547646
0.0512398 0.0101625 0.0548562
0.10341 0.00950637 0.0543221
0.172274 0.0110323 0.0531624
0.312947 0.0329137 0.0518349
0.479606 0.073106 0.0520485
0.604623 0.0984512 0.0532387
0.694713 0.111864 0.0545815
0.77142 0.1205 0.0558938
0.00553903 0.0545663 0.0537575
0.0502174 0.0538796 0.0537728
0.103365 0.0528573 0.052842
0.172061 0.0547341 0.052369
0.311849 0.0764477 0.0513161
0.479484 0.117113 0.0516976
0.605661 0.143053 0.0529488
0.696208 0.156847 0.0543526
0.772915 0.165881 0.0556954
0.00906386 0.108904 0.0616922
0.0529793 0.108522 0.0619059
0.104219 0.106462 0.0589303
0.169863 0.105409 0.0550393
0.303716 0.120516 0.0512245
0.479347 0.162188 0.0513466
0.611307 0.189853 0.0525216
0.702678 0.204349 0.0539712
0.77879 0.213672 0.0553902
0.0144198 0.170367 0.0746929
0.0577859 0.171237 0.0757763
0.103258 0.170626 0.074876
0.169024 0.167086 0.0653697
0.290608 0.174792 0.0527504
0.463447 0.206867 0.0514229
0.605829 0.236332 0.0522621
0.703517 0.252369 0.053315
0.780331 0.261784 0.0545815
0.021088 0.255024 0.10576
0.0634165 0.26186 0.111574
0.106157 0.266102 0.114885
0.163409 0.262928 0.110323
0.286275 0.2645 0.0813916
0.46627 0.285023 0.0512093
0.606149 0.295583 0.0511635
0.70515 0.304921 0.0522774
0.787488 0.315175 0.0535592
0.0384833 0.391241 0.177951
0.0821088 0.401984 0.18703
0.126085 0.409339 0.193362
0.176516 0.407782 0.191989
0.25568 0.401831 0.177722
0.492027 0.424674 0.0920424
0.649714 0.433188 0.0461433
0.742061 0.414939 0.0485847
0.813062 0.395331 0.0507515
0.0796521 0.537469 0.2598
0.120195 0.548119 0.268956
0.161563 0.555383 0.275456
0.207553 0.556207 0.276188
0.270527 0.556481 0.275029
0.414527 0.557427 0.242161
0.682948 0.582727 0.103456
0.793805 0.579843 0.0441596
0.87509 0.566186 0.0456092
0.0932479 0.669932 0.333837
0.125338 0.678676 0.341939
0.163912 0.685237 0.347967
0.228901 0.684321 0.344717
0.287831 0.683986 0.343328
0.400916 0.693553 0.331228
0.591745 0.685237 0.29723
0.818662 0.707301 0.148608
0.913375 0.69839 0.0438392
0.0934462 0.790295 0.398657
0.12166 0.795682 0.4038
0.160388 0.799954 0.407691
0.230091 0.801114 0.406455
0.303731 0.799634 0.401938
0.385657 0.803616 0.397574
0.559457 0.813504 0.357412
0.742153 0.804547 0.346075
0.952911 0.828626 0.198932
0.00627146 0.0167239 0.104692
0.0518044 0.0161593 0.105013
0.102907 0.0146792 0.104921
0.16762 0.0146944 0.104341
0.30956 0.0308995 0.0994278
0.477653 0.073106 0.0970474
0.603723 0.0992294 0.096849
0.69395 0.112978 0.0975204
0.770794 0.121874 0.0984054
0.00611887 0.0601663 0.103731
0.0509194 0.06009 0.104341
0.102708 0.0583352 0.103853
0.167651 0.0583658 0.103243
0.308919 0.0748455 0.0987259
0.47805 0.117266 0.0966049
0.605219 0.143908 0.0966049
0.695811 0.1579 0.0973068
0.772686 0.167056 0.0982376
0.00880446 0.111406 0.11014
0.0530709 0.111177 0.110338
0.10338 0.1093 0.108766
0.167788 0.106996 0.104799
0.302358 0.11986 0.0985885
0.47837 0.162203 0.096437
0.611414 0.190509 0.0966506
0.703273 0.205219 0.097261
0.779034 0.214527 0.0982071
0.012726 0.172152 0.122225
0.0567636 0.17351 0.123796
0.103471 0.173831 0.123781
0.16788 0.169558 0.114443
0.291966 0.175418 0.100221
0.464805 0.207385 0.0968185
0.606409 0.236683 0.0968032
0.704158 0.252934 0.0971847
0.780713 0.26244 0.0979019
0.0185245 0.258274 0.153353
0.0622416 0.266316 0.16054
0.105974 0.272175 0.165209
0.162142 0.268971 0.160678
0.288182 0.268849 0.129839
0.469932 0.288014 0.096376
0.608972 0.298009 0.0954147
0.706889 0.30605 0.0961166
0.787243 0.315633 0.0969558
0.0365148 0.395605 0.226947
0.0810559 0.407309 0.236881
0.125933 0.41561 0.24387
0.176089 0.414725 0.242832
0.256245 0.408713 0.228641
0.494728 0.429908 0.142061
0.653696 0.438758 0.0901656
0.745434 0.420035 0.0923781
0.814588 0.398779 0.0941482
0.0774548 0.541894 0.309636
0.118898 0.552392 0.318624
0.159487 0.560708 0.32604
0.207919 0.560769 0.325567
0.271366 0.561822 0.324834
0.416526 0.56379 0.291341
0.682216 0.58584 0.157794
0.795956 0.5841 0.0883497
0.877287 0.570443 0.0892805
0.0888228 0.673991 0.384588
0.122393 0.682841 0.392615
0.160906 0.689799 0.398901
0.228504 0.68864 0.394934
0.288533 0.688579 0.393256
0.402594 0.697993 0.380529
0.593408 0.690089 0.346044
0.819394 0.710323 0.199222
0.915877 0.70161 0.0881666
0.089189 0.793256 0.449592
0.118593 0.798825 0.454826
0.157031 0.803143 0.458671
0.229282 0.804211 0.456764
0.30338 0.802762 0.451896
0.386587 0.806912 0.447013
0.560876 0.817578 0.406729
0.742916 0.809247 0.396231
0.952209 0.832654 0.2551
0.00695811 0.0295109 0.166598
0.0522774 0.0289769 0.167041
0.104097 0.0254978 0.163684
0.160586 0.0241398 0.164782
0.308248 0.0203708 0.153719
0.47216 0.0648814 0.144961
0.601602 0.0980545 0.146731
0.694026 0.113527 0.145052
0.77084 0.122942 0.143709
0.00675975 0.0727855 0.165026
0.0517128 0.0728618 0.166094
0.103746 0.0693523 0.162783
0.160204 0.0678264 0.163806
0.307622 0.0645304 0.152789
0.473121 0.109361 0.14464
0.6038 0.142763 0.146685
0.696376 0.158389 0.145373
0.773022 0.16791 0.14432
0.00807202 0.122866 0.169635
0.0527657 0.123003 0.170581
0.103136 0.120882 0.169146
0.16286 0.116716 0.166217
0.303136 0.112016 0.153674
0.476204 0.155444 0.145388
0.610956 0.189105 0.14699
0.703853 0.205066 0.147112
0.778668 0.214496 0.146639
0.0118257 0.176089 0.174929
0.0564126 0.17789 0.177249
0.104402 0.180179 0.180285
0.168048 0.178119 0.178103
0.295781 0.175341 0.161303
0.468696 0.20531 0.151537
0.608179 0.235874 0.146685
0.705333 0.252644 0.144991
0.781277 0.262242 0.145373
0.013138 0.268803 0.212268
0.0559701 0.278248 0.221012
0.100389 0.286793 0.228855
0.157641 0.287083 0.226398
0.295491 0.277821 0.188556
0.47599 0.287327 0.149798
0.611994 0.297002 0.144945
0.708797 0.305318 0.143618
0.787518 0.314824 0.144259
0.0217594 0.4094 0.28751
0.0600137 0.423835 0.301534
0.0981918 0.435523 0.312764
0.156588 0.43827 0.312581
0.257832 0.425452 0.291142
0.505104 0.438865 0.193469
0.659861 0.441993 0.13579
0.749416 0.423713 0.138079
0.815961 0.400366 0.140108
0.0488441 0.555688 0.370047
0.073106 0.570001 0.385153
0.105806 0.579355 0.395789
0.164004 0.585962 0.39826
0.267063 0.574197 0.38204
0.420569 0.574746 0.344503
0.690242 0.593011 0.205875
0.79707 0.586816 0.132586
0.877089 0.570214 0.133394
0.0413367 0.684901 0.445212
0.0639811 0.691066 0.455344
0.100053 0.696651 0.46331
0.154986 0.710384 0.46978
0.267582 0.705272 0.456474
0.398047 0.704768 0.434974
0.599832 0.700526 0.398642
0.822934 0.715389 0.249744
0.919051 0.703716 0.132448
0.0344396 0.795239 0.508019
0.0659953 0.796811 0.513924
0.101991 0.803311 0.521401
0.146807 0.816831 0.528862
0.252659 0.825483 0.525307
0.384878 0.816495 0.504753
0.558434 0.826398 0.46038
0.747555 0.819364 0.449287
0.955139 0.840742 0.314473
0.0188449 0.0640116 0.261372
0.0641642 0.0639048 0.262287
0.11191 0.0599069 0.257984
0.163317 0.0553292 0.253956
0.266621 0.0584726 0.26215
0.474372 0.0398718 0.228855
0.606851 0.0810407 0.196811
0.694438 0.109239 0.193286
0.768795 0.121569 0.195422
0.0181277 0.107042 0.260426
0.0635691 0.107195 0.261387
0.111513 0.103609 0.25745
0.162875 0.0986648 0.252735
0.266667 0.101762 0.260884
0.476951 0.0839094 0.228412
0.610208 0.125414 0.196979
0.698009 0.15346 0.193683
0.77203 0.166415 0.195148
0.0183261 0.153231 0.262989
0.0639506 0.153964 0.264454
0.111604 0.152209 0.262928
0.164202 0.146563 0.256016
0.266163 0.148302 0.262989
0.485634 0.130358 0.231983
0.623468 0.168368 0.201068
0.708751 0.198108 0.195483
0.779278 0.211597 0.195544
0.0159915 0.205539 0.267933
0.0621958 0.209735 0.273838
0.111513 0.213336 0.279728
0.169207 0.212268 0.27953
0.275288 0.209339 0.277073
0.488228 0.187747 0.239734
0.625757 0.217777 0.209522
0.712077 0.247608 0.20412
0.781537 0.260868 0.203128
0.0132753 0.282231 0.282933
0.0580148 0.293217 0.295109
0.102998 0.305226 0.308507
0.161471 0.313375 0.316869
0.295537 0.306935 0.306188
0.481071 0.295827 0.262821
0.616999 0.297398 0.236789
0.71313 0.304387 0.216648
0.79115 0.314412 0.20383
0.00418097 0.423148 0.35668
0.0469978 0.436744 0.370291
0.0896773 0.448524 0.382376
0.133822 0.461814 0.395132
0.240421 0.471168 0.395499
0.511681 0.457221 0.293584
0.673564 0.445548 0.223941
0.7635 0.423453 0.208515
0.8262 0.400015 0.197833
0.00846876 0.568612 0.446433
0.0504616 0.58088 0.460136
0.0922255 0.590768 0.471077
0.135317 0.600107 0.478935
0.191409 0.616587 0.48246
0.419684 0.59884 0.421439
0.699382 0.60679 0.290471
0.813947 0.594507 0.179965
0.88777 0.57525 0.177783
0.0158846 0.689296 0.515999
0.0555428 0.700008 0.528634
0.0954757 0.708034 0.537896
0.137621 0.717403 0.544533
0.181445 0.725521 0.54374
0.391623 0.720516 0.508339
0.602991 0.718471 0.459297
0.833249 0.728008 0.316823
0.933455 0.713634 0.177661
0.0252232 0.80119 0.578515
0.061387 0.808713 0.588006
0.0993057 0.815259 0.595712
0.140352 0.824491 0.602121
0.182986 0.834577 0.604425
0.3841 0.845121 0.588312
0.551019 0.844251 0.53109
0.750851 0.838117 0.511925
0.961151 0.855344 0.391379
0.0466468 0.112627 0.366735
0.0923018 0.112627 0.367819
0.139071 0.110185 0.366079
0.187289 0.105791 0.3617
0.257023 0.108873 0.371969
0.391531 0.121569 0.389166
0.58793 0.0944076 0.367697
0.720287 0.0668803 0.302525
0.785458 0.0981765 0.254597
0.0462043 0.156024 0.366812
0.0920119 0.156252 0.367895
0.138888 0.153887 0.365927
0.186755 0.148959 0.360693
0.257145 0.152529 0.371542
0.394202 0.166552 0.390448
0.589715 0.142306 0.372381
0.724895 0.111299 0.312123
0.794415 0.135164 0.262196
0.0469368 0.203906 0.37258
0.0930953 0.204822 0.374228
0.140597 0.203418 0.37319
0.1888 0.197452 0.366171
0.259586 0.199481 0.375204
0.402884 0.216266 0.397879
0.594766 0.199359 0.388357
0.732403 0.165576 0.344167
0.809888 0.167834 0.288441
0.0466621 0.258961 0.385306
0.0946365 0.264607 0.392782
0.145022 0.269978 0.399924
0.198001 0.269978 0.40029
0.2766 0.267994 0.399756
0.416098 0.275334 0.413474
0.598489 0.252491 0.39707
0.739025 0.216068 0.35259
0.818219 0.214771 0.305531
0.0390021 0.338048 0.418494
0.0871901 0.351858 0.434699
0.13698 0.365164 0.450156
0.19411 0.373312 0.460624
0.294957 0.371389 0.45771
0.449119 0.363104 0.448081
0.623972 0.321859 0.408728
0.749325 0.278599 0.357198
0.827314 0.281483 0.318669
0.00302129 0.452125 0.461341
0.0508583 0.467491 0.478523
0.0969253 0.480339 0.493233
0.145754 0.495232 0.507591
0.270115 0.505974 0.514824
0.493172 0.50222 0.500893
0.654963 0.480735 0.459022
0.755047 0.454871 0.42034
0.832013 0.415061 0.373297
0.0028687 0.578119 0.512581
0.04654 0.589654 0.525261
0.0897231 0.599634 0.536645
0.133516 0.611536 0.548363
0.199771 0.646967 0.579797
0.445548 0.650599 0.575952
0.682979 0.634821 0.488655
0.810208 0.61706 0.423789
0.899245 0.598703 0.383856
0.00981155 0.69572 0.579416
0.0512551 0.705821 0.590616
0.0927291 0.714137 0.599893
0.135714 0.727016 0.612375
0.17937 0.744305 0.62797
0.414542 0.771954 0.639139
0.599329 0.752789 0.567681
0.824857 0.749569 0.484718
0.948455 0.735195 0.377356
0.0183413 0.811002 0.646113
0.0569924 0.818372 0.654566
0.0962692 0.824765 0.661921
0.138186 0.835828 0.672633
0.181201 0.848844 0.683314
0.41593 0.884001 0.701198
0.577905 0.872526 0.659098
0.739742 0.870588 0.611399
0.955383 0.875502 0.545663
0.0698863 0.158068 0.466361
0.115831 0.1579 0.467247
0.164019 0.155962 0.466194
0.213535 0.152056 0.462303
0.275196 0.153262 0.468071
0.370916 0.16376 0.492576
0.499855 0.172457 0.499672
0.631083 0.165316 0.494591
0.762188 0.131334 0.465675
0.0697948 0.201465 0.467109
0.115724 0.201297 0.467674
0.163851 0.199222 0.466148
0.213184 0.195163 0.461723
0.275822 0.197177 0.468406
0.373861 0.209018 0.494255
0.504158 0.218921 0.503105
0.631067 0.21474 0.501106
0.756634 0.187549 0.479408
0.071458 0.250904 0.475547
0.117815 0.251743 0.477089
0.166995 0.251545 0.477516
0.217334 0.248341 0.473808
0.286366 0.250629 0.480583
0.384863 0.260197 0.503777
0.515419 0.270817 0.514
0.631556 0.270832 0.516182
0.742611 0.253056 0.502434
0.0743267 0.310338 0.494499
0.122484 0.31603 0.501808
0.17409 0.322408 0.51014
0.227619 0.324361 0.512718
0.310018 0.327382 0.515068
0.408042 0.329793 0.53225
0.526314 0.327947 0.527962
0.637812 0.323171 0.525109
0.745632 0.306523 0.511574
0.0751049 0.396368 0.542
0.123507 0.409415 0.557
0.173693 0.421653 0.571038
0.227131 0.429526 0.580957
0.322499 0.432776 0.581979
0.445167 0.43006 0.580072
0.558816 0.415137 0.566537
0.658412 0.387152 0.542611
0.767651 0.363912 0.522194
0.0508888 0.507942 0.598932
0.0959182 0.523247 0.614816
0.142336 0.536675 0.629053
0.194247 0.547082 0.640558
0.306798 0.555474 0.648829
0.485832 0.560159 0.646708
0.619272 0.54934 0.633127
0.736599 0.518135 0.601236
0.831098 0.469566 0.559121
0.0033875 0.613214 0.631815
0.0479896 0.62623 0.646799
0.0932784 0.636378 0.658976
0.139879 0.649378 0.672969
0.273121 0.667674 0.686091
0.482429 0.675624 0.684596
0.655894 0.666362 0.66772
0.777478 0.656504 0.645563
0.871977 0.648447 0.62182
0.00309758 0.705638 0.650584
0.0462196 0.71635 0.663081
0.0897841 0.7252 0.673594
0.133516 0.736767 0.684077
0.214069 0.772686 0.715831
0.460212 0.792203 0.731624
0.632181 0.789899 0.723629
0.795254 0.775738 0.670375
0.916152 0.767224 0.628946
0.010605 0.816831 0.707408
0.0520638 0.824872 0.71693
0.0931258 0.831098 0.724514
0.135927 0.842405 0.73579
0.185595 0.870146 0.761242
0.457069 0.901213 0.787884
0.626841 0.914031 0.792096
0.745678 0.902525 0.756542
0.939193 0.901549 0.734401
0.0869001 0.196307 0.555749
0.133135 0.196063 0.556512
0.183749 0.195438 0.557153
0.238376 0.195621 0.558007
0.31783 0.207004 0.576333
0.390448 0.202304 0.583673
0.481758 0.205005 0.585275
0.584161 0.209186 0.590753
0.67332 0.208927 0.593729
0.0867475 0.238849 0.556298
0.132906 0.238499 0.556634
0.183474 0.238025 0.557015
0.238132 0.238468 0.557778
0.319677 0.251362 0.577844
0.393378 0.247211 0.586023
0.487053 0.251347 0.588312
0.588113 0.256565 0.595422
0.674479 0.258564 0.601587
0.0887465 0.288548 0.565774
0.135378 0.289509 0.567437
0.18677 0.290669 0.569482
0.242435 0.291432 0.570336
0.33286 0.306722 0.592432
0.406241 0.299779 0.598764
0.498177 0.302159 0.597299
0.595651 0.307927 0.605158
0.676188 0.310124 0.612467
0.0927291 0.35285 0.591012
0.140993 0.359564 0.599527
0.194049 0.367788 0.609979
0.250248 0.371115 0.614008
0.358297 0.389197 0.630549
0.436896 0.38088 0.636545
0.514855 0.368063 0.622553
0.606134 0.363424 0.61735
0.684611 0.36347 0.62298
0.0959335 0.442039 0.643671
0.143832 0.453803 0.657176
0.194995 0.465141 0.670161
0.24918 0.473182 0.680034
0.351324 0.482383 0.686168
0.470527 0.484642 0.683268
0.553445 0.470329 0.681163
0.634531 0.444022 0.651896
0.705531 0.426764 0.641688
0.0803998 0.550179 0.702373
0.125216 0.564034 0.716243
0.173297 0.57615 0.728786
0.227543 0.584405 0.738582
0.34226 0.593179 0.747936
0.497444 0.601938 0.751049
0.612894 0.59942 0.745373
0.70071 0.583673 0.731624
0.777111 0.554116 0.707759
0.041062 0.654536 0.74786
0.0868696 0.665049 0.759045
0.134478 0.674388 0.769451
0.191089 0.683055 0.780133
0.321767 0.694133 0.789929
0.495796 0.704311 0.794965
0.642267 0.706477 0.790692
0.749645 0.699901 0.779431
0.855238 0.691936 0.765759
0.00163272 0.737255 0.764248
0.0462959 0.748867 0.777081
0.0923476 0.757855 0.786923
0.139834 0.769116 0.799878
0.293324 0.791882 0.819852
0.500435 0.805524 0.824704
0.654246 0.808606 0.822202
0.777905 0.800534 0.807034
0.899107 0.796353 0.789029
0.0028687 0.826535 0.781109
0.0464179 0.834897 0.791196
0.0897536 0.841733 0.799939
0.134112 0.85539 0.812757
0.257908 0.889494 0.843976
0.520226 0.908446 0.8589
0.665629 0.926452 0.875593
0.770581 0.943709 0.885069
0.944152 0.93341 0.849653
0.099382 0.230121 0.638788
0.145525 0.229557 0.639109
0.197665 0.228855 0.639689
0.259678 0.235966 0.648524
0.37258 0.270893 0.691539
0.435904 0.258412 0.690745
0.486198 0.23444 0.670802
0.561563 0.23389 0.665003
0.649256 0.236484 0.66775
0.0988785 0.271534 0.638819
0.145098 0.271122 0.639139
0.197436 0.270695 0.639628
0.259953 0.278447 0.648646
0.37641 0.315908 0.694575
0.439811 0.303746 0.694255
0.49044 0.28011 0.673671
0.566705 0.280858 0.669642
0.652842 0.285176 0.673945
0.101335 0.324285 0.652827
0.147906 0.325322 0.654612
0.200977 0.326802 0.657038
0.261265 0.33022 0.66067
0.380285 0.363073 0.699519
0.448157 0.352621 0.702281
0.499123 0.328618 0.680095
0.576593 0.330465 0.677333
0.657557 0.33492 0.682078
0.106111 0.398901 0.69073
0.153674 0.405264 0.698726
0.208225 0.413489 0.709102
0.266819 0.414649 0.710094
0.381933 0.430777 0.720714
0.465492 0.427604 0.729091
0.522744 0.40499 0.71632
0.590677 0.389792 0.694255
0.667506 0.389609 0.69366
0.107622 0.483589 0.738125
0.154986 0.493614 0.749706
0.207828 0.504265 0.761593
0.267475 0.512062 0.770504
0.371466 0.522148 0.777142
0.489357 0.524742 0.772564
0.567178 0.515633 0.776715
0.633936 0.49453 0.757412
0.69102 0.459327 0.719951
0.096849 0.581384 0.788251
0.142535 0.59324 0.800427
0.193576 0.604761 0.812665
0.255955 0.613916 0.823133
0.372778 0.623911 0.834043
0.501472 0.636973 0.846006
0.609857 0.640299 0.850721
0.697719 0.62977 0.843885
0.769314 0.611414 0.818799
0.0716869 0.679469 0.832303
0.118013 0.688624 0.842298
0.169238 0.697383 0.85214
0.231601 0.707179 0.86363
0.361852 0.719493 0.876234
0.496376 0.737011 0.896742
0.614908 0.748196 0.913512
0.733394 0.742092 0.902937
0.828794 0.735088 0.891386
0.0411994 0.766278 0.863752
0.0881208 0.774975 0.87335
0.136995 0.783352 0.882445
0.192721 0.794522 0.894804
0.354177 0.812787 0.91194
0.501167 0.842603 0.94403
0.623896 0.853651 0.958526
0.751385 0.847135 0.950881
0.87039 0.836347 0.931991
0.00895705 0.853513 0.887343
0.0605936 0.86157 0.897505
0.111635 0.868391 0.905989
0.17084 0.880644 0.919036
0.341482 0.897551 0.933608
0.545586 0.936126 0.968841
0.690257 0.95494 0.981323
0.801892 0.971664 0.997192
0.948837 0.981826 0.991852
