lut/96d8d92e-3a78-4957-ac1e-6ac0a762d581.cube
TITLE "Classic Warm Glow"
LUT_3D_SIZE 5
0.00537118 0.00907912 0.00901808
0.104326 0.00842298 0.00863661
0.314214 0.0324559 0.00721752
0.605615 0.0977188 0.009308
0.771832 0.119493 0.0128023
0.0107271 0.108385 0.0175631
0.105211 0.105852 0.0145113
0.304006 0.119905 0.00700389
0.611109 0.189136 0.00869764
0.778561 0.212955 0.0122988
0.0229496 0.252171 0.0592966
0.106996 0.262547 0.0679484
0.284871 0.260777 0.0347295
0.603128 0.292668 0.00729381
0.787259 0.314244 0.0102998
0.0810101 0.533165 0.211429
0.161303 0.551125 0.227115
0.269169 0.551186 0.226139
0.679835 0.578515 0.0559548
0.872221 0.560983 0.00178531
0.0961624 0.787243 0.350484
0.161089 0.797147 0.359915
0.303136 0.796567 0.35404
0.55668 0.809705 0.309743
0.949752 0.824521 0.149203
0.00627146 0.0167239 0.104692
0.102907 0.0146792 0.104921
0.30956 0.0308995 0.0994278
0.603723 0.0992294 0.096849
0.770794 0.121874 0.0984054
0.00880446 0.111406 0.11014
0.10338 0.1093 0.108766
0.302358 0.11986 0.0985885
0.611414 0.190509 0.0966506
0.779034 0.214527 0.0982071
0.0185245 0.258274 0.153353
0.105974 0.272175 0.165209
0.288182 0.268849 0.129839
0.608972 0.298009 0.0954147
0.787243 0.315633 0.0969558
0.0774548 0.541894 0.309636
0.159487 0.560708 0.32604
0.271366 0.561822 0.324834
0.682216 0.58584 0.157794
0.877287 0.570443 0.0892805
0.089189 0.793256 0.449592
0.157031 0.803143 0.458671
0.30338 0.802762 0.451896
0.560876 0.817578 0.406729
0.952209 0.832654 0.2551
0.0188449 0.0640116 0.261372
0.11191 0.0599069 0.257984
0.266621 0.0584726 0.26215
0.606851 0.0810407 0.196811
0.768795 0.121569 0.195422
0.0183261 0.153231 0.262989
0.111604 0.152209 0.262928
0.266163 0.148302 0.262989
0.623468 0.168368 0.201068
0.779278 0.211597 0.195544
0.0132753 0.282231 0.282933
0.102998 0.305226 0.308507
0.295537 0.306935 0.306188
0.616999 0.297398 0.236789
0.79115 0.314412 0.20383
0.00846876 0.568612 0.446433
0.0922255 0.590768 0.471077
0.191409 0.616587 0.48246
0.699382 0.60679 0.290471
0.88777 0.57525 0.177783
0.0252232 0.80119 0.578515
0.0993057 0.815259 0.595712
0.182986 0.834577 0.604425
0.551019 0.844251 0.53109
0.961151 0.855344 0.391379
0.0698863 0.158068 0.466361
0.164019 0.155962 0.466194
0.275196 0.153262 0.468071
0.499855 0.172457 0.499672
0.762188 0.131334 0.465675
0.071458 0.250904 0.475547
0.166995 0.251545 0.477516
0.286366 0.250629 0.480583
0.515419 0.270817 0.514
0.742611 0.253056 0.502434
0.0751049 0.396368 0.542
0.173693 0.421653 0.571038
0.322499 0.432776 0.581979
0.558816 0.415137 0.566537
0.767651 0.363912 0.522194
0.0033875 0.613214 0.631815
0.0932784 0.636378 0.658976
0.273121 0.667674 0.686091
0.655894 0.666362 0.66772
0.871977 0.648447 0.62182
0.010605 0.816831 0.707408
0.0931258 0.831098 0.724514
0.185595 0.870146 0.761242
0.626841 0.914031 0.792096
0.939193 0.901549 0.734401
0.099382 0.230121 0.638788
0.197665 0.228855 0.639689
0.37258 0.270893 0.691539
0.486198 0.23444 0.670802
0.649256 0.236484 0.66775
0.101335 0.324285 0.652827
0.200977 0.326802 0.657038
0.380285 0.363073 0.699519
0.499123 0.328618 0.680095
0.657557 0.33492 0.682078
0.107622 0.483589 0.738125
0.207828 0.504265 0.761593
0.371466 0.522148 0.777142
0.567178 0.515633 0.776715
0.69102 0.459327 0.719951
0.0716869 0.679469 0.832303
0.169238 0.697383 0.85214
0.361852 0.719493 0.876234
0.614908 0.748196 0.913512
0.828794 0.735088 0.891386
0.00895705 0.853513 0.887343
0.111635 0.868391 0.905989
0.341482 0.897551 0.933608
0.690257 0.95494 0.981323
0.948837 0.981826 0.991852
