lut/96d8d92e-3a78-4957-ac1e-6ac0a762d581.cube
TITLE "Classic Warm Glow"
LUT_3D_SIZE 33
0.00537118 0.00907912 0.00901808
0.0164492 0.00903334 0.00910964
0.0275425 0.00898756 0.00917067
0.039704 0.00885023 0.00907912
0.0518807 0.00869764 0.00898756
0.0644999 0.00856031 0.00888075
0.0773175 0.00843824 0.00875868
0.0905318 0.0083772 0.00868238
0.104326 0.00842298 0.00863661
0.118761 0.00852979 0.00860609
0.133989 0.00874342 0.00857557
0.151476 0.00918593 0.00842298
0.173404 0.0102846 0.0080415
0.201694 0.0126345 0.00758373
0.23563 0.016846 0.00740063
0.273274 0.0233921 0.00717174
0.314214 0.0324559 0.00721752
0.357259 0.0430152 0.00730907
0.400626 0.0534676 0.00738537
0.442283 0.0636149 0.00753796
0.480949 0.0725261 0.00781262
0.515663 0.0800641 0.00814832
0.548394 0.0869459 0.00851453
0.578576 0.0928359 0.00889601
0.605615 0.0977188 0.009308
0.630137 0.101656 0.00970474
0.652949 0.105043 0.010071
0.674617 0.108186 0.010544
0.695384 0.110918 0.0110323
0.715465 0.113298 0.0114748
0.735027 0.115572 0.0118868
0.753841 0.117647 0.0122835
0.771832 0.119493 0.0128023
0.00563058 0.0199893 0.00891127
0.0167239 0.0199435 0.00900282
0.0278325 0.0198978 0.00907912
0.0397955 0.0197604 0.00900282
0.0517433 0.0196231 0.00895705
0.0642863 0.0194858 0.00885023
0.0771496 0.0193484 0.00872816
0.0903944 0.0192569 0.00862135
0.104143 0.0192874 0.00859083
0.118486 0.0193942 0.00854505
0.133761 0.0195926 0.00851453
0.151247 0.0200351 0.0083772
0.173037 0.021088 0.00799573
0.200946 0.0233768 0.0075227
0.234638 0.0274968 0.00735485
0.27219 0.0339055 0.00712596
0.313054 0.0429084 0.00717174
0.356085 0.0534981 0.00726329
0.399558 0.0639506 0.00732433
0.441123 0.0741131 0.00747692
0.480156 0.0831311 0.00776684
0.515053 0.0907454 0.00810254
0.547814 0.0976425 0.0084535
0.578058 0.103517 0.00885023
0.605295 0.108461 0.00924697
0.629953 0.112413 0.0096437
0.652766 0.115877 0.0100099
0.674479 0.119005 0.0104982
0.695277 0.121798 0.0109865
0.71545 0.124254 0.0114137
0.734997 0.126482 0.0118257
0.753872 0.128542 0.0122377
0.771878 0.130388 0.0127413
0.00590524 0.0308995 0.00880446
0.0169985 0.0308537 0.00889601
0.0281071 0.0307927 0.0089723
0.0398871 0.0306859 0.00894179
0.0516213 0.0305486 0.00891127
0.0641031 0.0304112 0.00880446
0.0770275 0.0302586 0.00866712
0.0902266 0.0301518 0.00857557
0.103975 0.0301671 0.00852979
0.118273 0.0302586 0.00848402
0.133562 0.0304723 0.0084535
0.15111 0.0309148 0.00830091
0.172885 0.0319524 0.00793469
0.2009 0.0342565 0.0074464
0.234531 0.0383459 0.00729381
0.271656 0.0446174 0.00706493
0.312276 0.0534829 0.0071107
0.355291 0.0640879 0.00720226
0.398718 0.0745098 0.00727855
0.440421 0.0847639 0.00743114
0.479698 0.0938582 0.00770581
0.514534 0.101427 0.0080415
0.547387 0.108354 0.00839246
0.577707 0.114305 0.00877394
0.605081 0.11928 0.00920119
0.629847 0.123232 0.00959792
0.652674 0.126696 0.00996414
0.674388 0.129839 0.0104372
0.695293 0.132647 0.0109255
0.715404 0.135073 0.011368
0.734997 0.137346 0.01178
0.753964 0.139452 0.0121767
0.771984 0.141253 0.0127108
0.00627146 0.042298 0.00909438
0.0173648 0.0421912 0.0091249
0.0284733 0.0420996 0.00917067
0.0399786 0.0419318 0.00910964
0.0514076 0.0417639 0.00906386
0.063859 0.0415656 0.00891127
0.0768902 0.0413519 0.00872816
0.0901656 0.0412146 0.00857557
0.103868 0.0412146 0.00851453
0.118181 0.0412757 0.0084535
0.133471 0.0414588 0.00840772
0.151049 0.041886 0.00825513
0.173053 0.0429541 0.0078584
0.201312 0.0452888 0.00735485
0.23508 0.0494392 0.00721752
0.272068 0.0557412 0.00698863
0.31223 0.0644846 0.00703441
0.355108 0.0750134 0.00714122
0.398672 0.0855421 0.00720226
0.440604 0.0958267 0.00737011
0.47985 0.104936 0.00764477
0.514672 0.11252 0.00798047
0.54757 0.119463 0.00833143
0.578088 0.12546 0.00872816
0.605386 0.130419 0.00914015
0.630091 0.134295 0.00953689
0.652964 0.137758 0.00991836
0.674723 0.140948 0.0103761
0.695628 0.143694 0.0108797
0.715816 0.14612 0.0113222
0.735424 0.148394 0.0117342
0.75433 0.150576 0.0121309
0.77232 0.152331 0.012665
0.00671397 0.0537575 0.00936904
0.017792 0.0536202 0.00936904
0.0288853 0.0534829 0.0093843
0.040116 0.053254 0.00929274
0.0512398 0.0530404 0.00921645
0.0637064 0.0527962 0.00901808
0.0768292 0.0525521 0.00877394
0.0901808 0.0523842 0.00857557
0.103914 0.052369 0.00848402
0.118181 0.0524147 0.00839246
0.133425 0.0526131 0.00834669
0.150942 0.0530556 0.00819409
0.172839 0.0541085 0.00781262
0.201129 0.0564736 0.00729381
0.235325 0.0607156 0.00712596
0.272801 0.067155 0.00689708
0.312932 0.0759594 0.00695811
0.355703 0.0864729 0.00706493
0.399313 0.0970626 0.00712596
0.441154 0.107362 0.00729381
0.480446 0.116533 0.00756847
0.515511 0.124269 0.00790417
0.54847 0.131243 0.00827039
0.578973 0.137316 0.00866712
0.606241 0.142321 0.00907912
0.630823 0.146319 0.00946059
0.653727 0.149859 0.00984207
0.675471 0.153155 0.0103151
0.696437 0.155962 0.0108339
0.716625 0.158465 0.0112612
0.736294 0.160784 0.0116732
0.755138 0.162982 0.0120851
0.773022 0.164843 0.012604
0.00750744 0.0666209 0.0108186
0.018555 0.0663767 0.0107271
0.0296483 0.0661936 0.0106966
0.0406653 0.0659495 0.0105745
0.0515755 0.0656901 0.0104829
0.0640116 0.0653849 0.010193
0.0770733 0.0650187 0.00979629
0.0904402 0.0647593 0.00943008
0.104158 0.0645457 0.00907912
0.11841 0.0643778 0.00877394
0.133532 0.0642557 0.00854505
0.150912 0.0643168 0.00819409
0.172732 0.0652476 0.00773632
0.200961 0.0675822 0.00723278
0.234882 0.0717632 0.00704967
0.272435 0.0782483 0.00682078
0.312932 0.0871443 0.00686656
0.356176 0.0978408 0.00695811
0.400214 0.108614 0.00701915
0.442329 0.11899 0.007187
0.481407 0.128115 0.00749218
0.51664 0.135943 0.00781262
0.549538 0.142962 0.00817884
0.580163 0.149111 0.00857557
0.607446 0.154147 0.00900282
0.631983 0.158129 0.00939956
0.654887 0.161761 0.00978103
0.676616 0.165072 0.0102693
0.697612 0.167971 0.0107729
0.7178 0.17055 0.0111849
0.737469 0.172992 0.0115969
0.75639 0.175189 0.0120241
0.774029 0.177066 0.0125582
0.00852979 0.080354 0.0129854
0.0195926 0.0801709 0.0129397
0.0306859 0.0800031 0.0128939
0.0415961 0.0797742 0.0128176
0.0523842 0.0795758 0.0127718
0.0646677 0.0792401 0.0123751
0.0776074 0.0788128 0.011841
0.090898 0.0784009 0.0112154
0.104723 0.0780499 0.0104829
0.118959 0.07776 0.0099031
0.133822 0.0775921 0.00961318
0.150729 0.0776532 0.00927749
0.171878 0.0780041 0.00851453
0.199527 0.0795148 0.00758373
0.233722 0.0830701 0.00704967
0.272236 0.0893416 0.00669871
0.312963 0.0982986 0.00674449
0.356237 0.109041 0.00686656
0.400259 0.119829 0.0069276
0.442741 0.130358 0.00709545
0.482109 0.139559 0.00738537
0.518181 0.147692 0.00770581
0.550988 0.154711 0.00808728
0.58175 0.160906 0.00848402
0.608591 0.165805 0.00889601
0.633249 0.169879 0.009308
0.65626 0.173617 0.00968948
0.678141 0.176989 0.010193
0.699199 0.179934 0.0106813
0.719341 0.182544 0.0110933
0.739025 0.185046 0.0115053
0.757946 0.18735 0.0119631
0.775387 0.189136 0.0124819
0.00961318 0.0942245 0.015198
0.020676 0.0940414 0.0151675
0.0317845 0.093904 0.0151522
0.0425727 0.0937362 0.0151064
0.053254 0.0935683 0.0150912
0.0653697 0.0931868 0.0146334
0.0780804 0.0926986 0.0139925
0.0912947 0.0921798 0.013138
0.105211 0.0917067 0.0120546
0.119463 0.0912947 0.0111849
0.134142 0.0910353 0.0107271
0.150408 0.0910201 0.0104067
0.170596 0.0911879 0.00953689
0.196979 0.0922408 0.00828565
0.229923 0.0951705 0.00738537
0.267689 0.100618 0.00691234
0.309545 0.109224 0.00683604
0.354208 0.11986 0.00682078
0.399924 0.130983 0.00683604
0.443366 0.141711 0.00698863
0.482658 0.150912 0.00727855
0.519036 0.159213 0.00759899
0.552026 0.166262 0.00799573
0.582849 0.172473 0.00839246
0.609873 0.177493 0.0087892
0.634668 0.181659 0.00917067
0.657786 0.185412 0.00958267
0.679683 0.188785 0.0101015
0.700771 0.191745 0.0105898
0.721141 0.19443 0.0109865
0.740871 0.197009 0.0113985
0.759762 0.199405 0.0118715
0.776974 0.201129 0.0124056
0.0107271 0.108385 0.0175631
0.0217899 0.108202 0.0175021
0.0329137 0.10808 0.0175174
0.0436561 0.107927 0.0175021
0.0542458 0.107805 0.0175174
0.0660258 0.107439 0.0171206
0.0784161 0.106905 0.0165103
0.0913863 0.106371 0.015671
0.105211 0.105852 0.0145113
0.119646 0.105318 0.0132906
0.134691 0.104845 0.0121614
0.150912 0.104784 0.0116121
0.17023 0.104829 0.0107424
0.195026 0.105455 0.00921645
0.226368 0.107546 0.00779736
0.262669 0.111955 0.00714122
0.304006 0.119905 0.00700389
0.348608 0.130037 0.00689708
0.394339 0.141176 0.00691234
0.438972 0.152102 0.00704967
0.479912 0.161669 0.00726329
0.517937 0.170306 0.00753796
0.552285 0.177676 0.00790417
0.583841 0.184039 0.00828565
0.611109 0.189136 0.00869764
0.635935 0.193347 0.00907912
0.659098 0.197147 0.00949111
0.681086 0.200534 0.00999466
0.702281 0.203571 0.0104677
0.722896 0.206348 0.0108797
0.742702 0.208988 0.0112917
0.761288 0.2112 0.0117952
0.778561 0.212955 0.0122988
0.0119783 0.122728 0.0200351
0.0230564 0.122576 0.0200198
0.034165 0.122499 0.0200656
0.0448157 0.122393 0.0200656
0.0553292 0.122301 0.0201114
0.066743 0.121996 0.0198215
0.0787823 0.121477 0.0192874
0.0914015 0.120928 0.0185092
0.10515 0.120348 0.017258
0.11957 0.119661 0.0157473
0.135119 0.118929 0.0138247
0.151492 0.118837 0.0129397
0.170199 0.118929 0.012192
0.194034 0.119356 0.0104829
0.224094 0.120912 0.00843824
0.259495 0.124727 0.00750744
0.299657 0.131533 0.00720226
0.343832 0.141009 0.00698863
0.389303 0.151781 0.00700389
0.433707 0.162341 0.00712596
0.475044 0.172061 0.00729381
0.513375 0.180636 0.00758373
0.549096 0.18854 0.00793469
0.581491 0.195148 0.00830091
0.610056 0.20061 0.00869764
0.635584 0.204929 0.0090486
0.65919 0.208774 0.00944533
0.681651 0.212314 0.00994888
0.703273 0.215412 0.0103914
0.723964 0.218219 0.0107881
0.743786 0.220783 0.0112154
0.762173 0.222995 0.0116884
0.779553 0.224765 0.012192
0.0132906 0.137606 0.022858
0.0243687 0.137469 0.022858
0.0354925 0.137484 0.0229496
0.046067 0.137423 0.0230106
0.0564736 0.137362 0.0230564
0.0675059 0.137133 0.0228885
0.0792859 0.136675 0.0224155
0.0914778 0.136172 0.0217594
0.104829 0.135576 0.020737
0.118914 0.13489 0.0192874
0.134508 0.13402 0.0171359
0.151675 0.133684 0.0152285
0.170733 0.133806 0.0139162
0.193744 0.134188 0.0121309
0.222538 0.135256 0.00955215
0.256275 0.13814 0.00801099
0.29514 0.14374 0.00741588
0.33933 0.152667 0.0071107
0.385046 0.162905 0.00709545
0.429343 0.173144 0.00715648
0.470878 0.182803 0.00732433
0.50959 0.19147 0.00761425
0.54638 0.199619 0.00796521
0.579675 0.206531 0.00830091
0.609033 0.212268 0.0087129
0.634577 0.216602 0.0090486
0.658366 0.220462 0.00939956
0.681178 0.224109 0.0099031
0.702937 0.227253 0.0103304
0.723751 0.230015 0.0107424
0.743526 0.232609 0.0111391
0.761898 0.234882 0.0115816
0.778592 0.236393 0.0121004
0.014725 0.153002 0.0260624
0.0258488 0.153033 0.0261692
0.0369573 0.153079 0.0263066
0.0474098 0.153124 0.0264439
0.0577249 0.153155 0.0265812
0.0683604 0.153155 0.0266575
0.0798962 0.152728 0.0261692
0.0915389 0.15227 0.0256504
0.104494 0.15169 0.0247654
0.118105 0.150973 0.0235447
0.133608 0.149996 0.0213474
0.151125 0.14934 0.0186618
0.170626 0.149279 0.0163729
0.193561 0.149813 0.0142977
0.221424 0.15082 0.0112612
0.253788 0.152911 0.00874342
0.291234 0.157427 0.00772107
0.334142 0.165103 0.00737011
0.379812 0.174472 0.00715648
0.424857 0.184466 0.007187
0.466606 0.193851 0.00735485
0.505623 0.202487 0.00761425
0.542977 0.210697 0.00794995
0.577157 0.217838 0.00827039
0.607217 0.223697 0.00865187
0.633356 0.228321 0.0089723
0.657664 0.232273 0.00929274
0.680735 0.235966 0.00976577
0.702907 0.239216 0.0102083
0.724041 0.242161 0.0105745
0.744137 0.24477 0.010956
0.762432 0.247013 0.0113985
0.778759 0.248493 0.011841
0.0163119 0.169574 0.0301366
0.0274357 0.169711 0.0303197
0.0386969 0.169802 0.0305028
0.0489052 0.169986 0.0307469
0.059144 0.170077 0.03093
0.0695506 0.170352 0.0312505
0.0806287 0.170108 0.0309453
0.0919509 0.169635 0.0303655
0.104219 0.16907 0.0296635
0.117128 0.168368 0.0287633
0.132448 0.167285 0.0267338
0.149523 0.166232 0.0238651
0.169436 0.165713 0.0203861
0.193439 0.166308 0.0172274
0.221408 0.167544 0.0136416
0.25275 0.169314 0.00985733
0.288426 0.1729 0.0083772
0.330053 0.179461 0.00776684
0.375189 0.187747 0.00729381
0.419776 0.19675 0.00724804
0.461997 0.20557 0.00735485
0.501213 0.213855 0.0075227
0.539101 0.221942 0.00781262
0.573693 0.229145 0.0081178
0.604776 0.235264 0.00843824
0.631785 0.240131 0.00874342
0.656641 0.244251 0.00901808
0.679973 0.247944 0.00941482
0.702617 0.251347 0.00984207
0.724422 0.25449 0.0102083
0.744915 0.257282 0.0105287
0.76347 0.25948 0.0110018
0.779828 0.261006 0.0114443
0.0179294 0.187137 0.0349584
0.0290379 0.187472 0.0352789
0.0402075 0.187823 0.0356451
0.0503395 0.188159 0.0360113
0.0603952 0.18851 0.0363775
0.0707713 0.188861 0.0367742
0.0814984 0.188998 0.0368811
0.0926833 0.188678 0.036408
0.104448 0.188205 0.0357671
0.116838 0.187503 0.0348516
0.131579 0.186267 0.0331884
0.148196 0.184909 0.030457
0.167407 0.18381 0.0266117
0.191592 0.183963 0.0223392
0.221454 0.185489 0.017792
0.25301 0.187289 0.0129702
0.287297 0.190295 0.0100099
0.327306 0.195743 0.00866712
0.371084 0.202701 0.00770581
0.415641 0.211093 0.0074464
0.457954 0.218891 0.00721752
0.497765 0.226413 0.00727855
0.536126 0.234104 0.00747692
0.571206 0.241154 0.00775158
0.602838 0.247349 0.00808728
0.630365 0.252323 0.0083772
0.655741 0.25658 0.00865187
0.6795 0.260288 0.00900282
0.702388 0.263767 0.00939956
0.724804 0.267018 0.00979629
0.745525 0.269902 0.0101472
0.76434 0.272206 0.0106508
0.781155 0.273732 0.0111391
0.0193484 0.206226 0.0408637
0.0305028 0.206806 0.041413
0.0417029 0.207584 0.0420996
0.0515908 0.208362 0.042771
0.0615702 0.209049 0.0434119
0.0717937 0.209689 0.0440375
0.0822614 0.210285 0.0445869
0.0932784 0.210376 0.044419
0.104692 0.2103 0.0440986
0.116869 0.209949 0.0433967
0.131273 0.209049 0.0422522
0.147341 0.207523 0.0398871
0.16553 0.205692 0.0359655
0.188449 0.205035 0.0311742
0.218631 0.206241 0.0259251
0.25304 0.208728 0.0194247
0.288945 0.21181 0.0126955
0.328496 0.215991 0.00944533
0.371023 0.222019 0.00794995
0.414115 0.228885 0.00767529
0.455863 0.235325 0.00723278
0.495537 0.241596 0.00715648
0.533913 0.248081 0.00726329
0.569497 0.254505 0.00749218
0.601404 0.260288 0.00779736
0.629313 0.265019 0.0081178
0.655009 0.269291 0.0083772
0.678996 0.273106 0.0087129
0.702312 0.276555 0.0091249
0.724956 0.279881 0.00952163
0.746044 0.282795 0.00988785
0.76524 0.285115 0.0104067
0.782712 0.286778 0.0108492
0.0208743 0.227771 0.0487373
0.0320592 0.228824 0.0496986
0.0432441 0.229999 0.0507362
0.0530404 0.231098 0.0517281
0.0629587 0.232242 0.0527657
0.073167 0.233387 0.0538338
0.0835584 0.234546 0.054902
0.0944381 0.234958 0.0550851
0.105669 0.235004 0.0549325
0.117464 0.234852 0.0544442
0.131502 0.234302 0.0537881
0.147036 0.233112 0.0521553
0.163897 0.230945 0.0486458
0.184558 0.229191 0.0437781
0.21294 0.229343 0.0382849
0.248997 0.231907 0.031281
0.289387 0.235843 0.0205539
0.331502 0.240238 0.0112764
0.374228 0.24509 0.00831617
0.415625 0.25005 0.00788891
0.456703 0.255299 0.00727855
0.495491 0.260029 0.0071107
0.533303 0.264927 0.0071107
0.56878 0.269871 0.00735485
0.600916 0.274586 0.00762951
0.62887 0.278538 0.00793469
0.654536 0.282353 0.00817884
0.678935 0.286229 0.00852979
0.702541 0.289662 0.00889601
0.725475 0.292958 0.00926223
0.747021 0.295964 0.00965896
0.766598 0.298405 0.0101472
0.784878 0.300252 0.010605
0.0229496 0.252171 0.0592966
0.0342412 0.25391 0.0607767
0.0453651 0.255924 0.0624552
0.0549477 0.257343 0.0636759
0.0647135 0.258824 0.0649424
0.0748455 0.260349 0.0662699
0.0851453 0.261753 0.0675364
0.0959029 0.262333 0.0679026
0.106996 0.262547 0.0679484
0.118517 0.262608 0.0676432
0.132158 0.262272 0.0671702
0.147326 0.261158 0.0659037
0.163638 0.259113 0.0631723
0.181964 0.256764 0.0588693
0.206531 0.255344 0.0533303
0.241123 0.256703 0.0460212
0.284871 0.260777 0.0347295
0.333196 0.267018 0.0187076
0.379721 0.272557 0.0091249
0.421286 0.277073 0.00807202
0.462058 0.281056 0.007187
0.500282 0.284504 0.00680552
0.537163 0.287343 0.00671397
0.571435 0.289982 0.00698863
0.603128 0.292668 0.00729381
0.630823 0.294987 0.00759899
0.655909 0.297337 0.00790417
0.679942 0.300404 0.00825513
0.703639 0.303593 0.00863661
0.726787 0.306737 0.00900282
0.748638 0.309773 0.0093843
0.768673 0.312322 0.00985733
0.787259 0.314244 0.0102998
0.0250401 0.280446 0.0726024
0.0361639 0.282856 0.0746014
0.0470741 0.285145 0.076463
0.0563973 0.287007 0.0780194
0.0659037 0.288808 0.07953
0.0758679 0.290745 0.081178
0.0859388 0.292485 0.0826429
0.0966201 0.293324 0.083299
0.107897 0.294041 0.0838331
0.119799 0.294377 0.0838636
0.133288 0.294026 0.0833906
0.148363 0.293004 0.0823377
0.16466 0.290913 0.0800183
0.182025 0.28867 0.0763561
0.20322 0.286641 0.0712902
0.232288 0.28571 0.0644236
0.274189 0.288243 0.0552377
0.328298 0.294881 0.0388952
0.383276 0.302922 0.0167239
0.429099 0.308354 0.00852979
0.470085 0.311513 0.0065919
0.508125 0.31426 0.00628672
0.544671 0.316472 0.0061799
0.578851 0.317891 0.00627146
0.609857 0.318151 0.00650034
0.636942 0.317494 0.00683604
0.660899 0.316991 0.00729381
0.683833 0.317556 0.0077821
0.706874 0.319463 0.00817884
0.729854 0.321981 0.00857557
0.751812 0.324895 0.00892653
0.772015 0.327337 0.00936904
0.790661 0.32932 0.00976577
0.0272374 0.313146 0.0893568
0.0388342 0.315908 0.0916915
0.0500191 0.318853 0.0941482
0.0595712 0.321141 0.0960708
0.0694285 0.323629 0.0982071
0.0795911 0.325811 0.100099
0.0899367 0.328023 0.102022
0.10074 0.329381 0.103136
0.111772 0.330495 0.10399
0.123476 0.33077 0.104021
0.136461 0.330587 0.10367
0.15111 0.329458 0.102556
0.167285 0.327443 0.100633
0.184375 0.325368 0.0978103
0.203082 0.323049 0.0932174
0.227283 0.320912 0.0869306
0.262333 0.320623 0.0793011
0.314488 0.325246 0.0684367
0.378271 0.33434 0.0447395
0.435065 0.343008 0.0166171
0.480812 0.34728 0.00637827
0.518929 0.348928 0.00523384
0.554803 0.350011 0.0052491
0.588769 0.350744 0.00538643
0.619196 0.349752 0.00563058
0.645991 0.347677 0.00596628
0.669871 0.344961 0.00634775
0.692149 0.34258 0.00688182
0.714076 0.341299 0.00732433
0.735943 0.341588 0.00772107
0.757107 0.342748 0.00816358
0.777234 0.34461 0.00856031
0.795743 0.346273 0.00892653
0.0327306 0.349905 0.109606
0.044358 0.353033 0.112154
0.0552987 0.356085 0.114641
0.0647898 0.358541 0.116686
0.0743267 0.361151 0.118837
0.0843214 0.363684 0.120928
0.0948043 0.36582 0.122774
0.105684 0.367407 0.124163
0.116762 0.368414 0.125048
0.128435 0.36849 0.125093
0.140826 0.368231 0.124819
0.154528 0.366995 0.123766
0.170581 0.365194 0.12221
0.187961 0.363012 0.119966
0.205631 0.360845 0.116487
0.226596 0.358953 0.111177
0.255741 0.357382 0.103349
0.297826 0.358175 0.0954147
0.360281 0.364721 0.0818036
0.430365 0.375906 0.0468452
0.489937 0.385275 0.0138857
0.531228 0.387717 0.00457771
0.567498 0.388128 0.00325017
0.601038 0.388113 0.00358587
0.63122 0.386587 0.00427253
0.65774 0.383703 0.00482185
0.681376 0.379828 0.00529488
0.7037 0.375616 0.00575265
0.72488 0.371649 0.00619516
0.744991 0.368093 0.0068513
0.764477 0.365942 0.00756847
0.783856 0.365545 0.00799573
0.801907 0.366354 0.0083772
0.0397192 0.386923 0.129976
0.0516518 0.38996 0.132509
0.0626688 0.392828 0.134905
0.0721599 0.395285 0.13698
0.0819104 0.397543 0.138918
0.0923781 0.399786 0.140856
0.103044 0.402106 0.14284
0.114107 0.403754 0.14432
0.125185 0.404837 0.145281
0.136828 0.405158 0.145525
0.148806 0.40502 0.145418
0.16144 0.404303 0.144793
0.175601 0.402594 0.143359
0.192309 0.400671 0.14168
0.209644 0.398795 0.139269
0.228367 0.397223 0.135561
0.254139 0.396307 0.129015
0.288441 0.395071 0.119417
0.33698 0.395987 0.11194
0.411551 0.405707 0.0914015
0.487053 0.418936 0.0459449
0.544579 0.428656 0.0106203
0.581216 0.429053 0.00173953
0.61474 0.428565 0.00135805
0.644846 0.427131 0.00227359
0.671489 0.424231 0.00302129
0.695476 0.420386 0.00366217
0.717845 0.415549 0.00418097
0.738415 0.409842 0.00483711
0.757488 0.403632 0.0055848
0.776013 0.397696 0.00621042
0.794171 0.393652 0.00679026
0.811109 0.392065 0.00735485
0.049546 0.422995 0.149798
0.0619211 0.426062 0.152346
0.073106 0.428946 0.154772
0.0825513 0.431479 0.156909
0.0922713 0.433738 0.158846
0.102495 0.436103 0.160937
0.113008 0.438544 0.163043
0.12369 0.440314 0.164614
0.134478 0.441566 0.165713
0.145708 0.442069 0.166232
0.157031 0.442374 0.166522
0.168414 0.441886 0.166155
0.181125 0.440497 0.165072
0.196719 0.438895 0.163684
0.214801 0.437217 0.161944
0.232731 0.435966 0.159503
0.255528 0.435233 0.154818
0.285725 0.434394 0.146426
0.325368 0.433005 0.135943
0.384939 0.43508 0.127916
0.465919 0.446464 0.098497
0.542733 0.461692 0.0415198
0.594965 0.471031 0.0093843
0.627985 0.470115 0.000717174
0.65771 0.468498 0.000167849
0.684993 0.466407 0.000503548
0.709529 0.462608 0.00135805
0.732555 0.458015 0.00260929
0.753307 0.452506 0.00341802
0.772519 0.445808 0.00407416
0.790753 0.438407 0.00457771
0.807584 0.431418 0.0053254
0.823301 0.426581 0.00604257
0.0599374 0.459693 0.170199
0.0721904 0.462943 0.172946
0.0830243 0.465888 0.175463
0.0923476 0.46833 0.177539
0.102007 0.470634 0.179507
0.1122 0.473121 0.181643
0.122683 0.475425 0.183642
0.13344 0.477287 0.185306
0.144289 0.478523 0.186419
0.155566 0.479316 0.187121
0.166781 0.479347 0.187243
0.178088 0.479103 0.187106
0.189883 0.478264 0.18645
0.203586 0.476921 0.185412
0.220401 0.475685 0.184298
0.238422 0.474693 0.182574
0.259113 0.474372 0.179614
0.285695 0.474067 0.173587
0.321675 0.472999 0.162188
0.370138 0.472099 0.153384
0.437034 0.474754 0.142397
0.518532 0.487007 0.104707
0.591684 0.502739 0.0478065
0.641184 0.511223 0.0116579
0.670726 0.50988 0.00173953
0.696727 0.507073 0
0.721752 0.503944 0.000122072
0.745892 0.50013 0.000823987
0.768048 0.495583 0.00143435
0.788449 0.490578 0.00195315
0.807355 0.484642 0.00265507
0.824475 0.477684 0.00373846
0.839811 0.471641 0.00427253
0.0709239 0.496559 0.19086
0.0829023 0.499809 0.193591
0.0935073 0.502876 0.196201
0.102541 0.505226 0.19823
0.111925 0.5075 0.200198
0.121935 0.510033 0.202396
0.132082 0.512306 0.204379
0.142641 0.51426 0.206134
0.153323 0.515602 0.20734
0.164553 0.516258 0.20798
0.175723 0.516533 0.20824
0.186831 0.516396 0.20824
0.198184 0.515816 0.207843
0.210758 0.51519 0.20737
0.226368 0.514351 0.206668
0.24448 0.513726 0.205707
0.264256 0.513878 0.203952
0.288182 0.514351 0.200259
0.321309 0.514244 0.191226
0.364645 0.513039 0.178668
0.419364 0.51136 0.170535
0.487846 0.513375 0.156664
0.56643 0.52575 0.115541
0.636118 0.54165 0.0544594
0.684291 0.550271 0.0154574
0.709072 0.547387 0.002533
0.732052 0.543404 0
0.757061 0.540261 0
0.780301 0.536889 0.000457771
0.801648 0.532647 0.0009308
0.822049 0.528267 0.00148013
0.840803 0.523232 0.0021973
0.856764 0.517601 0.00280766
0.0810101 0.533165 0.211429
0.0926833 0.536477 0.214221
0.102693 0.539162 0.216526
0.111498 0.541405 0.218494
0.120775 0.543801 0.220554
0.130373 0.546029 0.222507
0.14023 0.548043 0.224338
0.150546 0.549905 0.226032
0.161303 0.551125 0.227115
0.1729 0.551553 0.227497
0.184405 0.551827 0.227649
0.195514 0.551751 0.227649
0.206638 0.551507 0.227573
0.218448 0.550881 0.227192
0.232197 0.550652 0.227024
0.249714 0.550469 0.226688
0.269169 0.551186 0.226139
0.2916 0.552468 0.224033
0.322332 0.553292 0.217899
0.36257 0.552865 0.205615
0.410712 0.551705 0.193942
0.468666 0.549416 0.188235
0.535851 0.549645 0.169802
0.611582 0.562539 0.122988
0.679835 0.578515 0.0559548
0.723934 0.587213 0.0194858
0.743297 0.581521 0.00614939
0.76672 0.578027 0
0.790738 0.575204 0
0.812634 0.571664 0.000350958
0.834211 0.568261 0.000808728
0.854505 0.564492 0.00132753
0.872221 0.560983 0.00178531
0.0890364 0.568124 0.230808
0.100389 0.571206 0.233494
0.109789 0.573602 0.235584
0.117968 0.575692 0.2374
0.126711 0.577722 0.239231
0.135866 0.579736 0.241062
0.145373 0.581567 0.242756
0.155505 0.583413 0.244465
0.166461 0.584558 0.245426
0.178851 0.584985 0.24564
0.191485 0.585229 0.245624
0.203555 0.585199 0.245594
0.214618 0.584909 0.245365
0.226123 0.584527 0.245182
0.238849 0.584298 0.245075
0.254978 0.584573 0.245304
0.273991 0.585779 0.245609
0.294865 0.587686 0.244968
0.323796 0.589624 0.241138
0.361791 0.590356 0.230961
