lut/99e4f352-8a53-43e8-ad37-8232c2859e06.cube
TITLE "Vibrant Fruitful"
LUT_3D_SIZE 9
0 0 0
4.57771e-05 0 0
0.187274 0 0
0.530999 0 0
0.723552 0 0
0.860136 0 0
0.94168 0 0
0.988312 0 0
0.998016 0 0
0 0.0179599 0
0.0127565 0.0047303 0
0.202197 0 0
0.538506 0 0
0.735805 0 0
0.874083 0 0
0.958602 0 0
1 0 0
1 0 0
0 0.276005 0
0.0383459 0.256474 0
0.252094 0.179019 0
0.603006 0.147478 0
0.826719 0.220569 0
0.941268 0.277363 0
0.995193 0.284489 0
1 0.260609 0
1 0.233371 0
0.103395 0.703105 0.0327611
0.191989 0.748791 0.0520943
0.385626 0.72311 0.0383612
0.725643 0.629313 0.00729381
0.8365 0.597452 0
0.926146 0.561624 0
0.990463 0.547158 0
1 0.546181 0
1 0.546548 0
0.218189 0.921675 0.135515
0.256687 0.895003 0.121477
0.379049 0.854612 0.0936751
0.683299 0.791394 0.0485847
0.857862 0.777493 0.0517281
0.938308 0.766918 0.0542306
0.997696 0.768917 0.0296635
1 0.769223 0.014725
1 0.769039 0.0125277
0.253315 0.989441 0.182269
0.293828 0.978347 0.177615
0.39791 0.959167 0.171511
0.680537 0.919554 0.143297
0.859495 0.914672 0.169116
0.963287 0.908919 0.186603
0.999863 0.908568 0.205997
1 0.909407 0.220813
1 0.910491 0.22295
0.294606 1 0.232166
0.329656 1 0.229236
0.42237 1 0.232593
0.706096 0.996612 0.235874
0.881743 0.996979 0.282582
0.9832 0.996139 0.312795
1 0.996384 0.330861
1 0.996521 0.339208
1 0.996735 0.343343
0.321004 1 0.265293
0.357229 1 0.267292
0.45304 1 0.280354
0.744106 1 0.309636
0.905867 1 0.356176
0.99411 1 0.393851
1 1 0.42118
1 1 0.427161
1 1 0.429496
0.324987 1 0.270268
0.362905 1 0.274861
0.463966 1 0.292943
0.761501 1 0.334112
0.916838 1 0.379797
0.997375 1 0.416007
1 1 0.446311
1 1 0.454124
1 1 0.455497
0 0 0.00993362
0 0 0.00251774
0.189303 0 0
0.533974 0 0
0.725307 0 0
0.861402 0 0
0.940383 0 0
0.98912 0 0
0.998764 0 0
0 0.00741588 0.0165713
0.00691234 0.0078584 0.0118715
0.194827 0.00529488 0.00440986
0.538903 0 0
0.735805 0 0
0.874922 0 0
0.959625 0 0
1 0 0
1 0.0018616 0
0 0.269245 0.027985
0.0247196 0.271778 0.0280461
0.254398 0.202914 0.0176089
0.624094 0.175143 0
0.836088 0.246052 0
0.943603 0.289982 0
0.991608 0.282139 0
0.999969 0.254795 0
1 0.232547 0
0.106905 0.725109 0.0966659
0.189502 0.761913 0.123323
0.378805 0.727977 0.106844
0.718242 0.624857 0.0664073
0.827054 0.589975 0.0282597
0.924132 0.558679 0
0.988312 0.543374 0
1 0.542367 0
1 0.543206 0
0.201511 0.909483 0.181796
0.242969 0.887739 0.167147
0.36965 0.854719 0.150942
0.676219 0.790188 0.111055
0.852049 0.777691 0.120623
0.936934 0.767437 0.120394
0.996811 0.766415 0.0852674
1 0.765545 0.05626
1 0.765743 0.0486
0.239597 0.981399 0.214664
0.283925 0.977676 0.216144
0.392432 0.958343 0.215534
0.676219 0.920974 0.19913
0.856794 0.914855 0.230274
0.961273 0.90898 0.247822
0.999817 0.90779 0.269535
1 0.908812 0.281392
1 0.910582 0.282734
0.280339 1 0.25687
0.324956 1 0.263569
0.417395 1 0.274388
0.700084 0.99559 0.28014
0.875105 0.995834 0.325704
0.980316 0.995087 0.36112
1 0.995438 0.383551
1 0.995499 0.38703
1 0.995514 0.390173
0.310201 1 0.292653
0.354452 1 0.300984
0.44889 1 0.317784
0.741466 1 0.350545
0.898878 1 0.391058
0.991897 1 0.42945
1 1 0.461326
1 1 0.470741
1 1 0.472282
0.315312 1 0.29926
0.360967 1 0.309087
0.460899 1 0.330327
0.761257 1 0.37644
0.909987 1 0.41265
0.997894 1 0.452506
1 1 0.484886
1 1 0.496925
1 1 0.500557
0 0 0.230426
0.0065156 0 0.228336
0.186023 0 0.209842
0.531716 0 0.147524
0.72047 0 0.119265
0.859449 0 0.0656291
0.940856 0 0.0449378
0.98439 0 0.0221408
0.993774 0 0.0505989
0 0 0.242664
0.0101472 0.000427253 0.233188
0.189899 0.000686656 0.212955
0.539055 0 0.153811
0.734691 0 0.129473
0.878645 0 0.0982528
0.968673 0 0.116686
1 0 0.24094
1 0 0.310018
0 0.215305 0.254185
0.0231479 0.22327 0.262211
0.250645 0.246418 0.276509
0.639506 0.244343 0.252308
0.834974 0.307225 0.288914
0.93724 0.32018 0.27219
0.988724 0.285588 0.200153
0.999542 0.241489 0.12047
1 0.22092 0.0885481
0.168963 0.742748 0.316915
0.233936 0.769635 0.340841
0.354894 0.744442 0.321386
0.695415 0.629099 0.294041
0.815808 0.597482 0.233204
0.917586 0.569009 0.134371
0.984802 0.554665 0.0680858
1 0.549645 0.0316625
1 0.547616 0.0214542
0.258762 0.908064 0.357305
0.274052 0.888334 0.329
0.355627 0.863416 0.303914
0.66363 0.796811 0.300328
0.846754 0.783566 0.330968
0.935073 0.775784 0.323278
0.99527 0.774975 0.288624
1 0.775998 0.266224
1 0.77644 0.257267
0.296239 0.98851 0.364721
0.307683 0.978653 0.341299
0.385672 0.963577 0.332052
0.657679 0.924819 0.335515
0.850202 0.919692 0.381918
0.960494 0.913222 0.407492
0.999802 0.910201 0.419181
1 0.913848 0.42945
1 0.917266 0.4309
0.331487 1 0.423911
0.339117 1 0.388846
0.412604 1 0.373083
0.690059 0.996292 0.388434
0.86714 0.995331 0.435523
0.975921 0.994263 0.474372
1 0.994125 0.49279
1 0.994736 0.499489
1 0.994949 0.503899
0.358251 1 0.475029
0.368063 1 0.447471
0.437598 1 0.431601
0.729244 1 0.445487
0.893156 1 0.490166
0.992905 1 0.533593
1 1 0.559579
1 1 0.569696
1 1 0.571923
0.363989 1 0.486702
0.375891 1 0.463767
0.447974 1 0.452659
0.747662 1 0.47509
0.905364 1 0.515145
0.999542 1 0.556619
1 1 0.583291
1 1 0.595087
1 1 0.597848
0 0 0.597482
0.00590524 0 0.599619
0.228717 0 0.586236
0.543481 0 0.54934
0.723491 0 0.550683
0.864973 0 0.562325
0.946105 0 0.5682
0.99089 0 0.583795
1 0 0.624231
0 0 0.595422
0.0167849 0 0.595895
0.226871 0 0.585473
0.555108 0 0.560037
0.747265 0 0.572366
0.894347 0 0.606409
0.981842 0 0.667475
1 0.00363165 0.728206
1 0.00816358 0.747112
0 0.156374 0.587335
0.0177005 0.168963 0.604334
0.268788 0.180728 0.624918
0.671504 0.21973 0.667826
0.837598 0.351965 0.703502
0.935317 0.378729 0.704799
0.986816 0.328008 0.679301
0.999268 0.254246 0.649546
1 0.221042 0.634623
0.244266 0.694697 0.730159
0.318624 0.714183 0.748653
0.435401 0.691585 0.724178
0.67863 0.662837 0.678203
0.800763 0.635645 0.642863
0.896529 0.59939 0.597269
0.968566 0.576303 0.560647
1 0.565194 0.539544
1 0.562249 0.531929
0.368139 0.893263 0.762631
0.384726 0.87306 0.730632
0.457069 0.85832 0.702586
0.643854 0.828397 0.646342
0.834974 0.80853 0.671504
0.93257 0.800839 0.654994
0.992981 0.79057 0.625681
1 0.786969 0.611078
1 0.786847 0.606455
0.390097 0.985519 0.739467
0.407858 0.977417 0.71696
0.460883 0.96733 0.685039
0.635004 0.943358 0.634577
0.832609 0.929519 0.654246
0.949432 0.922728 0.68014
0.996857 0.919905 0.684443
1 0.924498 0.684215
1 0.925978 0.684169
0.408255 1 0.746853
0.425452 1 0.727459
0.472923 1 0.695262
0.665507 1 0.66125
0.844892 0.997086 0.669215
0.966491 0.995224 0.699245
1 0.995453 0.718517
1 0.994446 0.719417
1 0.995758 0.721401
0.430564 1 0.769863
0.446082 1 0.749416
0.492943 1 0.723918
0.704128 1 0.697353
0.87126 1 0.706371
0.983688 1 0.731151
1 1 0.750713
1 1 0.758572
1 1 0.758556
0.436637 1 0.77789
0.453223 1 0.758038
0.50251 1 0.738048
0.723278 1 0.71635
0.88336 1 0.724407
0.992035 1 0.746059
1 1 0.765255
1 1 0.773037
1 1 0.775051
0.000183108 0 0.767681
0.0579995 0 0.776593
0.266957 0 0.761242
0.584451 0 0.734676
0.748577 0 0.738918
0.859571 0 0.729137
0.947112 0 0.743923
0.992615 0 0.763149
1 0 0.787701
0.0117037 0 0.767025
0.0948653 0 0.773877
0.280705 0 0.766934
0.598352 0 0.750942
0.777752 0 0.768582
0.898375 0 0.773114
0.986099 0 0.820386
1 0 0.844388
1 0 0.848493
0.0176547 0.0923629 0.757641
0.103456 0.107256 0.777844
0.329274 0.116762 0.80116
0.715084 0.109407 0.830625
0.864515 0.196185 0.850385
0.930297 0.279622 0.822629
0.982681 0.301122 0.809827
0.999146 0.312612 0.803998
1 0.308659 0.800092
0.183566 0.661372 0.848768
0.256703 0.671366 0.856825
0.381353 0.637201 0.835874
0.659175 0.613108 0.80383
0.805219 0.622934 0.797498
0.90222 0.639536 0.786511
0.966339 0.621973 0.766247
1 0.605158 0.754269
1 0.599207 0.74992
0.362295 0.846372 0.873045
0.393271 0.833951 0.862089
0.483253 0.820645 0.847303
0.694514 0.811505 0.829923
0.840528 0.829709 0.835874
0.929076 0.818067 0.816251
0.988144 0.800458 0.795621
1 0.792889 0.78381
1 0.790524 0.780194
0.429664 0.972595 0.888777
0.458732 0.969787 0.881193
0.52665 0.962692 0.864088
0.690837 0.950744 0.832456
0.827176 0.947188 0.822492
0.952743 0.936904 0.833677
0.99823 0.930922 0.827726
1 0.932387 0.821607
1 0.934447 0.820829
0.461418 1 0.906065
0.486671 1 0.892226
0.542336 1 0.873075
0.69102 1 0.832319
0.830869 1 0.822583
0.960861 0.998337 0.830793
1 0.997955 0.848753
1 0.997986 0.851865
1 0.998444 0.851682
0.482109 1 0.916671
0.504662 1 0.904784
0.557549 1 0.886305
0.716609 1 0.850126
0.854398 1 0.844205
0.975021 1 0.84715
1 1 0.864454
1 1 0.873991
1 1 0.874586
0.486946 1 0.921157
0.510582 1 0.910277
0.564324 1 0.893309
0.731609 1 0.860456
0.86775 1 0.857176
0.982437 1 0.857237
1 1 0.873274
1 1 0.88249
1 1 0.885206
0.0385748 0 0.885771
0.115618 0 0.893568
0.304158 0 0.886351
0.61004 0 0.868635
0.784085 0 0.87599
0.897459 0 0.879942
0.944854 0 0.856916
0.98529 0 0.867124
0.996948 0 0.892958
0.0703593 0 0.889998
0.136461 0 0.898863
0.320165 0 0.899825
0.628214 0 0.888914
0.814832 0 0.903792
0.94284 0 0.924102
0.994827 0 0.929168
1 0 0.937499
1 0 0.93608
0.120485 0.0118868 0.885359
0.187411 0.0250401 0.907866
0.394156 0.0577554 0.93077
0.738354 0.0439307 0.941192
0.882002 0.0441901 0.949035
0.958618 0.0493782 0.94023
0.983658 0.0651408 0.904952
0.998077 0.0916457 0.893294
1 0.0907912 0.890867
0.102846 0.643107 0.948531
0.156786 0.630503 0.949783
0.314733 0.582528 0.931273
0.645335 0.559762 0.908873
0.802243 0.562982 0.904021
0.912551 0.577401 0.900893
0.966491 0.601877 0.880827
1 0.61883 0.882963
1 0.62504 0.884718
0.315953 0.823804 0.959716
0.344915 0.808286 0.951232
0.43653 0.791882 0.940597
0.654932 0.76849 0.92166
0.824674 0.794629 0.927001
0.93492 0.810849 0.926238
0.98854 0.822263 0.91902
1 0.825254 0.920928
1 0.822034 0.918807
0.434623 0.948348 0.967391
0.465644 0.943221 0.965927
0.545129 0.937133 0.958862
0.722896 0.928527 0.944762
0.848249 0.937057 0.945235
0.957321 0.951965 0.953338
0.997787 0.940215 0.937667
1 0.935454 0.927886
1 0.933974 0.925536
0.480262 1 0.984192
0.51043 1 0.97966
0.579446 0.99942 0.972351
0.737224 1 0.963363
0.854978 1 0.959503
0.9514 1 0.943313
1 0.999695 0.95227
1 0.999191 0.952132
1 0.999176 0.951217
0.507729 1 0.998856
0.535424 1 0.996063
0.601938 1 0.991699
0.75462 1 0.976593
0.861784 1 0.965591
0.961105 1 0.95523
1 1 0.954299
1 1 0.962692
1 1 0.963684
0.51368 1 1
0.542382 1 0.99852
0.609873 1 0.995254
0.764172 1 0.98349
0.86772 1 0.970459
0.968887 1 0.961318
1 1 0.959319
1 1 0.966064
1 1 0.966781
0.10956 0 0.962905
0.167437 0 0.971313
0.337972 0 0.967056
0.627497 0 0.95555
0.799969 0 0.961746
0.922698 0 0.97116
0.982895 0 0.967361
0.999023 0 0.965988
1 0 0.980926
0.118074 0 0.969085
0.190219 0 0.986053
0.345769 0 0.98088
0.648844 0 0.978119
0.835904 0 0.98497
0.96231 0 0.993652
1 0 0.999771
1 0 0.994553
1 0 0.993957
0.185687 3.0518e-05 0.972366
0.256977 0.0137942 0.993469
0.445075 0.0350195 0.997391
0.7561 0.0317693 0.996872
0.889296 0.0403754 0.997375
0.967727 0.0344091 0.99472
1 0.0264591 0.991791
1 0.0214084 0.977722
1 0.0208591 0.97464
0.0331731 0.633219 1
0.099382 0.603387 1
0.312612 0.550973 0.998627
0.643839 0.51751 0.985473
0.802396 0.513481 0.982391
0.92285 0.51931 0.979355
0.990646 0.525414 0.977279
1 0.540642 0.959731
1 0.549432 0.957168
0.283375 0.813428 1
0.310979 0.796338 1
0.402045 0.773541 0.998611
0.637858 0.744198 0.992523
0.816327 0.765805 0.992493
0.936141 0.777829 0.992996
0.995514 0.786267 0.989136
1 0.79765 0.98204
1 0.802029 0.981292
0.430411 0.953994 1
0.447761 0.93814 1
0.5234 0.928512 1
0.69601 0.912795 0.997894
0.821057 0.911711 0.996124
0.94342 0.926787 0.997223
0.99968 0.93724 0.998032
1 0.94583 0.997543
1 0.946792 0.996399
0.501183 1 1
0.520638 1 1
0.590005 0.998322 1
0.750454 0.995758 1
0.860929 0.996185 1
0.958419 0.99826 1
1 1 1
1 1 0.999878
1 0.99971 0.998657
0.530419 1 1
0.553628 1 1
0.619135 1 1
0.769741 1 1
0.876005 1 1
0.967956 1 1
1 1 1
1 1 1
1 1 1
0.5346 1 1
0.559915 1 1
0.626627 1 1
0.77821 1 1
0.880293 1 1
0.970947 1 1
1 1 1
1 1 1
1 1 1
0.144808 0 0.994369
0.210819 0 1
0.360021 0 0.9991
0.638972 0 0.995651
0.808621 0 0.996231
0.927398 0 0.997192
0.989136 0 0.996963
1 0 0.998306
1 0 1
0.161105 0 1
0.22501 0 1
0.37322 0 1
0.667323 0 1
0.851499 0 1
0.9776 0 1
1 0 1
1 0 1
1 0 1
0.206882 0 1
0.285313 0.00047303 1
0.472648 0.0496071 1
0.766171 0.0363622 1
0.891264 0.0385443 1
0.971283 0.0310979 1
1 0.0247807 1
1 0.0217136 1
1 0.0215152 0.999191
0.00395209 0.619608 1
0.0762951 0.581064 1
0.33814 0.538384 1
0.644419 0.485466 1
0.803983 0.475639 1
0.928679 0.471092 1
0.993194 0.463951 1
1 0.463432 1
1 0.47042 1
0.254505 0.804425 1
0.284443 0.788891 1
0.380758 0.764279 1
0.635859 0.73254 1
0.815 0.749569 1
0.935409 0.753201 1
0.996857 0.759548 1
1 0.763073 1
1 0.767391 1
0.420706 0.950118 1
0.441413 0.938643 1
0.514138 0.92636 1
0.680232 0.904631 1
0.807706 0.902022 1
0.938567 0.91162 1
0.99855 0.916091 1
1 0.924224 1
1 0.927993 1
0.495995 1 1
0.525002 1 1
0.590585 0.99855 1
0.742794 0.99498 1
0.851408 0.994888 1
0.942107 0.993622 1
1 0.99704 1
1 0.998978 1
1 1 1
0.53666 1 1
0.565225 1 1
0.630182 1 1
0.778576 1 1
0.87985 1 1
0.967819 1 1
1 1 1
1 1 1
1 1 1
0.543465 1 1
0.574777 1 1
0.641489 1 1
0.78883 1 1
0.885771 1 1
0.972869 1 1
1 1 1
1 1 1
1 1 1
0.154879 0 1
0.226261 0 1
0.370504 0 1
0.645747 0 1
0.814343 0 1
0.930892 0 1
0.991714 0 1
1 0 1
1 0 1
0.175982 0 1
0.237537 0 1
0.386908 0 1
0.683696 0 1
0.867155 0 1
0.983368 0 1
1 0 1
1 0 1
1 0 1
0.217304 0.000106813 1
0.299046 0.0307774 1
0.483848 0.0615549 1
0.767452 0.0370947 1
0.888457 0.0359197 1
0.96968 0.0281834 1
1 0.0231937 1
1 0.0217136 1
1 0.0217136 1
0.00102235 0.61416 1
0.0736858 0.568338 1
0.349844 0.531411 1
0.6439 0.470176 1
0.80557 0.460288 1
0.928878 0.448493 1
0.995819 0.439231 1
1 0.433478 1
1 0.43331 1
0.247578 0.802121 1
0.275517 0.786358 1
0.371923 0.760616 1
0.636393 0.727749 1
0.815259 0.743435 1
0.935485 0.744106 1
0.997543 0.74966 1
1 0.751583 1
1 0.753216 1
0.418341 0.949142 1
0.439704 0.938903 1
0.51107 0.925872 1
0.674769 0.90164 1
0.80235 0.897154 1
0.938674 0.906661 1
0.99736 0.908766 1
1 0.915846 1
1 0.919814 1
0.494728 1 1
0.525658 1 1
0.590677 0.998505 1
0.738247 0.993881 1
0.847501 0.993988 1
0.937942 0.990768 1
0.998825 0.994141 1
1 0.995361 1
1 0.996674 1
0.535775 1 1
0.566369 1 1
0.631113 1 1
0.776196 1 1
0.876982 1 1
0.96495 1 1
1 1 1
1 1 1
1 1 1
0.544198 1 1
0.577218 1 1
0.644205 1 1
0.79086 1 1
0.888106 1 1
0.974212 1 1
1 1 1
1 1 1
1 1 1
