lut/99e4f352-8a53-43e8-ad37-8232c2859e06.cube
TITLE "Vibrant Fruitful"
LUT_3D_SIZE 5
0 0 0
0.187274 0 0
0.723552 0 0
0.94168 0 0
0.998016 0 0
0 0.276005 0
0.252094 0.179019 0
0.826719 0.220569 0
0.995193 0.284489 0
1 0.233371 0
0.218189 0.921675 0.135515
0.379049 0.854612 0.0936751
0.857862 0.777493 0.0517281
0.997696 0.768917 0.0296635
1 0.769039 0.0125277
0.294606 1 0.232166
0.42237 1 0.232593
0.881743 0.996979 0.282582
1 0.996384 0.330861
1 0.996735 0.343343
0.324987 1 0.270268
0.463966 1 0.292943
0.916838 1 0.379797
1 1 0.446311
1 1 0.455497
0 0 0.230426
0.186023 0 0.209842
0.72047 0 0.119265
0.940856 0 0.0449378
0.993774 0 0.0505989
0 0.215305 0.254185
0.250645 0.246418 0.276509
0.834974 0.307225 0.288914
0.988724 0.285588 0.200153
1 0.22092 0.0885481
0.258762 0.908064 0.357305
0.355627 0.863416 0.303914
0.846754 0.783566 0.330968
0.99527 0.774975 0.288624
1 0.77644 0.257267
0.331487 1 0.423911
0.412604 1 0.373083
0.86714 0.995331 0.435523
1 0.994125 0.49279
1 0.994949 0.503899
0.363989 1 0.486702
0.447974 1 0.452659
0.905364 1 0.515145
1 1 0.583291
1 1 0.597848
0.000183108 0 0.767681
0.266957 0 0.761242
0.748577 0 0.738918
0.947112 0 0.743923
1 0 0.787701
0.0176547 0.0923629 0.757641
0.329274 0.116762 0.80116
0.864515 0.196185 0.850385
0.982681 0.301122 0.809827
1 0.308659 0.800092
0.362295 0.846372 0.873045
0.483253 0.820645 0.847303
0.840528 0.829709 0.835874
0.988144 0.800458 0.795621
1 0.790524 0.780194
0.461418 1 0.906065
0.542336 1 0.873075
0.830869 1 0.822583
1 0.997955 0.848753
1 0.998444 0.851682
0.486946 1 0.921157
0.564324 1 0.893309
0.86775 1 0.857176
1 1 0.873274
1 1 0.885206
0.10956 0 0.962905
0.337972 0 0.967056
0.799969 0 0.961746
0.982895 0 0.967361
1 0 0.980926
0.185687 3.0518e-05 0.972366
0.445075 0.0350195 0.997391
0.889296 0.0403754 0.997375
1 0.0264591 0.991791
1 0.0208591 0.97464
0.283375 0.813428 1
0.402045 0.773541 0.998611
0.816327 0.765805 0.992493
0.995514 0.786267 0.989136
1 0.802029 0.981292
0.501183 1 1
0.590005 0.998322 1
0.860929 0.996185 1
1 1 1
1 0.99971 0.998657
0.5346 1 1
0.626627 1 1
0.880293 1 1
1 1 1
1 1 1
0.154879 0 1
0.370504 0 1
0.814343 0 1
0.991714 0 1
1 0 1
0.217304 0.000106813 1
0.483848 0.0615549 1
0.888457 0.0359197 1
1 0.0231937 1
1 0.0217136 1
0.247578 0.802121 1
0.371923 0.760616 1
0.815259 0.743435 1
0.997543 0.74966 1
1 0.753216 1
0.494728 1 1
0.590677 0.998505 1
0.847501 0.993988 1
0.998825 0.994141 1
1 0.996674 1
0.544198 1 1
0.644205 1 1
0.888106 1 1
1 1 1
1 1 1
