lut/99e4f352-8a53-43e8-ad37-8232c2859e06.cube
TITLE "Vibrant Fruitful"
LUT_3D_SIZE 33
0 0 0
0 0 0
0 0 0
0 0 0
4.57771e-05 0 0
0.0123751 0 0
0.0658579 0 0
0.118425 0 0
0.187274 0 0
0.306355 0 0
0.419608 0 0
0.486397 0 0
0.530999 0 0
0.577951 0 0
0.629343 0 0
0.678355 0 0
0.723552 0 0
0.763622 0 0
0.798566 0 0
0.830427 0 0
0.860136 0 0
0.886107 0 0
0.907012 0 0
0.925429 0 0
0.94168 0 0
0.956252 0 0
0.968841 0 0
0.979507 0 0
0.988312 0 0
0.995361 0 0
0.997711 0 0
0.997879 0 0
0.998016 0 0
0 0 0
0 0 0
0 0 0
0 0 0
0.00369268 0 0
0.0157321 0 0
0.0663005 0 0
0.117784 0 0
0.186023 0 0
0.301976 0 0
0.414725 0 0
0.480995 0 0
0.526024 0 0
0.572763 0 0
0.62501 0 0
0.675135 0 0
0.721035 0 0
0.761883 0 0
0.797543 0 0
0.829496 0 0
0.859586 0 0
0.88629 0 0
0.907469 0 0
0.926284 0 0
0.942733 0 0
0.957122 0 0
0.969833 0 0
0.980758 0 0
0.989792 0 0
0.997055 0 0
0.999466 0 0
0.999573 0 0
0.999725 0 0
0 0 0
0 0 0
0 0 0
0 0 0
0.00569161 0 0
0.0226902 0 0
0.0704662 0 0
0.120165 0 0
0.188846 0 0
0.302388 0 0
0.414908 0 0
0.481758 0 0
0.526833 0 0
0.573587 0 0
0.626093 0 0
0.67689 0 0
0.723247 0 0
0.76466 0 0
0.800458 0 0
0.832532 0 0
0.862379 0 0
0.889387 0 0
0.910765 0 0
0.929686 0 0
0.946395 0 0
0.960967 0 0
0.97319 0 0
0.983536 0 0
0.992126 0 0
0.999344 0 0
1 0 0
1 0 0
1 0 0
0 0 0
0 0 0
0 0 0
0 0 0
0.00880446 0 0
0.0316625 0 0
0.0775616 0 0
0.125277 0 0
0.194797 0 0
0.306172 0 0
0.418494 0 0
0.486061 0 0
0.531716 0 0
0.578561 0 0
0.630838 0 0
0.681788 0 0
0.728969 0 0
0.77055 0 0
0.806607 0 0
0.838834 0 0
0.868544 0 0
0.894896 0 0
0.916304 0 0
0.935149 0 0
0.951751 0 0
0.966461 0 0
0.978973 0 0
0.988525 0 0
0.996094 0 0
1 0 0
1 0 0
1 0 0
1 0 0
0 0.0179599 0
0 0.0149233 0
0 0.013138 0
0 0.0103609 0
0.0127565 0.0047303 0
0.0412146 0.0030518 0
0.0860151 0.0021973 0
0.132494 0.000915541 0
0.202197 0 0
0.312306 0 0
0.423774 0 0
0.492027 0 0
0.538506 0 0
0.585534 0 0
0.637842 0 0
0.688823 0 0
0.735805 0 0
0.777264 0 0
0.813291 0 0
0.845197 0 0
0.874083 0 0
0.900053 0 0
0.922332 0 0
0.941848 0 0
0.958602 0 0
0.972442 0 0
0.983902 0 0
0.99321 0 0
1 0 0
1 0 0
1 0 0
1 0 0
1 0 0
0 0.0635538 0
0 0.0585794 0
0.000366217 0.0531777 0
0.00140383 0.0457923 0
0.0155184 0.0345922 0
0.0501411 0.0202945 0
0.0947127 0.0169528 0
0.141283 0.0128176 0
0.211856 0.00926223 0
0.321935 0.00482185 0
0.431388 0.00122072 0
0.499168 0 0
0.54522 0 0
0.593088 0 0
0.645991 0 0
0.697749 0 0
0.74313 0 0
0.784314 0 0
0.821454 0 0
0.854597 0 0
0.884688 0 0
0.910201 0 0
0.932342 0 0
0.952361 0 0
0.969482 0 0
0.982971 0 0
0.992218 0.00408942 0
0.998825 0.00807202 0
1 0.0111238 0
1 0.01355 0
1 0.0239719 0
1 0.0346075 0
1 0.0396887 0
0 0.1234 0
0 0.117784 0
0.0010071 0.11252 0
0.00619516 0.106371 0
0.0244297 0.0965744 0
0.0605631 0.0820478 0
0.105043 0.0659648 0
0.151537 0.0602731 0
0.223255 0.0542 0
0.333333 0.0367285 0
0.442222 0.019791 0
0.508232 0.0074464 0
0.553994 0.00250248 0
0.601617 0.00259403 0
0.65684 0.002121 0
0.710842 0.00187686 0
0.757824 0.00177005 0
0.798993 0.000900282 0
0.836927 0 0
0.871946 0.00184634 0
0.902556 0.00776684 0
0.928222 0.0125582 0
0.95053 0.0201114 0
0.970352 0.0449989 0
0.984771 0.0639963 0
0.991531 0.0775006 0
0.996582 0.088304 0
1 0.0988479 0
1 0.107561 0
1 0.111101 0
1 0.110155 0
1 0.107225 0
1 0.103365 0
0 0.195697 0
0 0.190158 0
0.00141909 0.18468 0
0.0112001 0.178805 0
0.0340581 0.169741 0
0.0706951 0.155306 0
0.114549 0.136934 0
0.167865 0.1178 0
0.235142 0.10692 0
0.346105 0.0870222 0
0.455756 0.074052 0
0.523079 0.061387 0
0.573343 0.0571298 0
0.626581 0.057908 0
0.683207 0.0615244 0
0.734554 0.0572061 0
0.783764 0.0557717 0
0.827832 0.0702068 0
0.868009 0.0944228 0
0.903502 0.118975 0
0.930404 0.137789 0
0.95111 0.150835 0
0.968444 0.161639 0
0.983093 0.173022 0
0.992859 0.184649 0
0.996063 0.191226 0
0.998383 0.191608 0
1 0.188098 0
1 0.183703 0
1 0.178683 0
1 0.173281 0
1 0.165972 0
1 0.15906 0
0 0.276005 0
7.62951e-05 0.272526 0
0.00129702 0.268284 0
0.012192 0.263539 0
0.0383459 0.256474 0
0.073518 0.245029 0
0.117906 0.229084 0
0.174289 0.207553 0
0.252094 0.179019 0
0.3579 0.155428 0
0.474784 0.141085 0
0.548501 0.139803 0
0.603006 0.147478 0
0.660273 0.163088 0
0.721981 0.179782 0
0.779477 0.198337 0
0.826719 0.220569 0
0.864225 0.240146 0
0.894469 0.255558 0
0.920195 0.267323 0
0.941268 0.277363 0
0.959655 0.285008 0
0.974777 0.289097 0
0.987137 0.288411 0
0.995193 0.284489 0
0.997757 0.27985 0
0.998276 0.27454 0
0.999146 0.268132 0
1 0.260609 0
1 0.252522 0
1 0.245167 0
1 0.238911 0
1 0.233371 0
0 0.376394 0
0.000732433 0.375692 0
0.00605783 0.374884 0
0.014847 0.374105 0
0.0357671 0.373266 0
0.0685588 0.372351 0
0.112398 0.368811 0
0.16994 0.360204 0
0.25098 0.337942 0
0.380362 0.291051 0
0.489799 0.275471 0
0.577661 0.288182 0
0.641947 0.313313 0
0.699901 0.336355 0
0.755642 0.354253 0
0.802029 0.367971 0
0.839506 0.377722 0
0.871855 0.386618 0
0.898512 0.392538 0
0.920073 0.394553 0
0.93785 0.392538 0
0.953201 0.388647 0
0.966705 0.383932 0
0.977615 0.377997 0
0.986862 0.371893 0
0.994492 0.365316 0
0.999847 0.358221 0
0.999908 0.351354 0
1 0.346044 0
1 0.341314 0
1 0.336858 0
1 0.33344 0
1 0.330343 0
0.0142977 0.482277 0
0.0149691 0.484382 0
0.0274357 0.489769 0
0.0454261 0.496727 0
0.0674144 0.503151 0
0.0962387 0.50898 0
0.139803 0.514366 0
0.197452 0.519219 0
0.284733 0.513512 0
0.424689 0.483131 0
0.558267 0.45684 0
0.625391 0.460868 0
0.673045 0.477104 0
0.717037 0.490227 0
0.762524 0.496818 0
0.803006 0.498619 0
0.836698 0.496254 0
0.86424 0.489403 0
0.887846 0.481788 0
0.908736 0.47509 0
0.927413 0.468666 0
0.943984 0.461097 0
0.958648 0.453422 0
0.971099 0.445655 0
0.981399 0.43888 0
0.989441 0.433371 0
0.995636 0.429862 0
1 0.426612 0
1 0.423651 0
1 0.421668 0
1 0.420798 0
1 0.420661 0
1 0.420371 0
0.055375 0.587671 0.000915541
0.0609751 0.594537 0.00202945
0.0770428 0.605203 0.00477607
0.0989548 0.620356 0.00885023
0.127398 0.63798 0.0134432
0.165011 0.65388 0.0188907
0.211154 0.662165 0.0210727
0.264622 0.662348 0.0175326
0.343893 0.647227 0.0140536
0.469978 0.614221 0.00563058
0.605325 0.579522 0.00190738
0.673121 0.573831 0.00202945
0.709499 0.578836 0.00199893
0.737438 0.578195 0.00225834
0.769543 0.571908 0.00129702
0.80264 0.565255 0.000106813
0.834669 0.558221 0
0.860792 0.548806 0
0.883391 0.537331 0
0.903929 0.526436 0
0.922896 0.516762 0
0.940063 0.508217 0
0.956405 0.502647 0
0.971267 0.49836 0
0.983673 0.494209 0
0.992691 0.490791 0
0.996918 0.489799 0
0.999908 0.489357 0
1 0.48925 0
1 0.489387 0
1 0.489448 0
1 0.489998 0
1 0.489998 0
0.103395 0.703105 0.0327611
0.119783 0.716411 0.0377813
0.139818 0.729885 0.0427863
0.163134 0.740078 0.0471199
0.191989 0.748791 0.0520943
0.22475 0.752392 0.0552834
0.264515 0.749615 0.0525826
0.313909 0.742168 0.0487068
0.385626 0.72311 0.0383612
0.503441 0.684337 0.0212253
0.63154 0.647105 0.0112459
0.69456 0.633082 0.00788891
0.725643 0.629313 0.00729381
0.749111 0.624048 0.00724804
0.776989 0.615457 0.00437934
0.806745 0.606653 0.000946059
0.8365 0.597452 0
0.862013 0.587396 0
0.884993 0.577585 0
0.906081 0.568856 0
0.926146 0.561624 0
0.944625 0.5552 0
0.96173 0.550866 0
0.977539 0.548562 0
0.990463 0.547158 0
0.997757 0.546899 0
0.999359 0.546532 0
1 0.546258 0
1 0.546181 0
1 0.546044 0
1 0.545907 0
1 0.546258 0
1 0.546548 0
0.156329 0.804257 0.0725109
0.170672 0.808606 0.0750439
0.186374 0.810559 0.0765545
0.206241 0.81117 0.077821
0.230274 0.810971 0.0786603
0.257939 0.807843 0.077348
0.291203 0.799573 0.0729686
0.333608 0.786313 0.066865
0.394781 0.76289 0.0522774
0.505653 0.723186 0.0313573
0.624857 0.687724 0.0222477
0.690455 0.673289 0.0186313
0.725078 0.667597 0.0170901
0.752422 0.660868 0.0158389
0.78117 0.650965 0.0129091
0.808545 0.642237 0.00976577
0.838254 0.636194 0.00848402
0.864958 0.629953 0.00561532
0.889097 0.623301 0.00199893
0.910948 0.61796 4.57771e-05
0.931212 0.613672 0
0.950195 0.610529 0
0.968002 0.608774 0
0.98381 0.607065 0
0.995987 0.606241 0
1 0.605264 0
1 0.604318 0
1 0.603464 0
1 0.602838 0
1 0.602564 0
1 0.602472 0
1 0.603021 0
1 0.602747 0
0.189334 0.864012 0.103349
0.201251 0.862226 0.103288
0.214984 0.859449 0.102815
0.229999 0.854856 0.10103
0.246677 0.84799 0.0974136
0.267826 0.839994 0.0924239
0.295644 0.830472 0.0862745
0.334798 0.818051 0.0795148
0.387366 0.79588 0.0637217
0.489296 0.757198 0.0407416
0.60119 0.723247 0.0295109
0.669093 0.711131 0.0274052
0.710979 0.708232 0.0266728
0.746944 0.703944 0.0260014
0.784482 0.69575 0.0238956
0.811597 0.687037 0.0211337
0.840223 0.683497 0.0211948
0.867155 0.680095 0.0178988
0.892653 0.67715 0.011368
0.915587 0.675013 0.00640879
0.935515 0.672984 0.00390631
0.953384 0.670802 0.00177005
0.970657 0.669352 0.00120546
0.985763 0.668284 0.000503548
0.99704 0.66717 0.000244144
1 0.66601 3.0518e-05
1 0.664729 0
1 0.663447 0
1 0.662577 0
1 0.661616 0
1 0.661875 0
1 0.66183 0
1 0.66183 0
0.208179 0.899565 0.124041
0.215656 0.892058 0.119936
0.225757 0.885863 0.117205
0.238605 0.880507 0.114672
0.2533 0.874174 0.110735
0.271519 0.865858 0.105028
0.295521 0.856428 0.0979324
0.329412 0.84419 0.090486
0.380926 0.824613 0.0771649
0.47451 0.791943 0.0529183
0.580499 0.762127 0.0383764
0.648219 0.751186 0.0368048
0.691295 0.75021 0.0368353
0.736034 0.748577 0.0373388
0.785473 0.743969 0.0372625
0.822354 0.73724 0.0364233
0.848875 0.734585 0.0384375
0.872007 0.730495 0.0393072
0.893736 0.726314 0.0372015
0.91574 0.724086 0.0314794
0.937362 0.72372 0.0222324
0.956359 0.723049 0.0118563
0.973663 0.723583 0.00924697
0.987503 0.723323 0.0049897
0.997635 0.72282 0.00334173
1 0.722225 0.00202945
1 0.721569 0.00114443
1 0.720867 0.000534066
1 0.720577 0
1 0.720027 0
1 0.719585 0
1 0.719753 1.5259e-05
1 0.719753 1.5259e-05
0.218189 0.921675 0.135515
0.224292 0.913466 0.131044
0.232166 0.905989 0.127352
0.243259 0.900191 0.124773
0.256687 0.895003 0.121477
0.27396 0.888731 0.117433
0.298161 0.881239 0.112505
0.32987 0.871641 0.105928
0.379049 0.854612 0.0936751
0.465614 0.828031 0.0682536
0.567987 0.800046 0.0484932
0.637095 0.791638 0.0474556
0.683299 0.791394 0.0485847
0.728969 0.790585 0.0498665
0.780972 0.786526 0.0503395
0.826734 0.779614 0.0497139
0.857862 0.777493 0.0517281
0.880812 0.77557 0.0526741
0.900587 0.77258 0.0531777
0.919417 0.769223 0.0543069
0.938308 0.766918 0.0542306
0.956985 0.766567 0.0501717
0.974014 0.767926 0.0440223
0.987762 0.768658 0.0365301
0.997696 0.768917 0.0296635
1 0.769223 0.0247044
1 0.769116 0.02121
1 0.76907 0.0181888
1 0.769223 0.014725
1 0.768887 0.0123751
1 0.768856 0.0124361
1 0.769039 0.0125124
1 0.769039 0.0125277
0.225452 0.938659 0.144228
0.231373 0.931731 0.140322
0.238819 0.924636 0.13698
0.249485 0.919249 0.135149
0.262592 0.915099 0.132616
0.27921 0.910811 0.130144
0.302907 0.904982 0.127306
0.335149 0.899214 0.123888
0.381811 0.885267 0.113863
0.46569 0.862226 0.0923629
0.562814 0.836362 0.0656748
0.630823 0.828992 0.062562
0.679332 0.829847 0.0668956
0.725841 0.828809 0.0706493
0.777218 0.824308 0.0727398
0.82388 0.818418 0.0721904
0.86157 0.81503 0.0746624
0.888655 0.814252 0.0767224
0.909285 0.813138 0.0776074
0.926986 0.811276 0.079942
0.943816 0.808927 0.0847944
0.960113 0.806714 0.0895552
0.975738 0.807004 0.0905165
0.988571 0.808087 0.0839857
0.997864 0.808988 0.0767834
1 0.809705 0.0719615
1 0.810346 0.0684977
1 0.810483 0.0640269
1 0.810727 0.0588998
1 0.810925 0.0548409
1 0.811002 0.0523232
1 0.8112 0.0522011
1 0.811399 0.0524453
0.233814 0.956085 0.155444
0.240345 0.950668 0.152453
0.24799 0.944549 0.149569
0.258503 0.939788 0.148028
0.271809 0.936446 0.146258
0.28867 0.933318 0.144762
0.311421 0.928222 0.143221
0.342016 0.923644 0.141009
0.386496 0.91368 0.133394
0.466423 0.891936 0.115114
0.560647 0.868269 0.0888075
0.627558 0.861341 0.0838788
0.676844 0.862379 0.0895399
0.724468 0.862104 0.095491
0.776287 0.859098 0.100771
0.821271 0.854215 0.103731
0.860075 0.850904 0.10605
0.892714 0.849363 0.109255
0.917128 0.849241 0.11133
0.935805 0.848692 0.113344
0.951232 0.846799 0.116533
0.96585 0.844617 0.122103
0.980545 0.843992 0.129671
0.99089 0.844205 0.13077
0.998383 0.84477 0.130312
1 0.845457 0.128862
1 0.846082 0.127016
1 0.846586 0.124559
1 0.846998 0.121187
1 0.847349 0.118303
1 0.847608 0.116197
1 0.848112 0.116991
1 0.848112 0.116991
0.242832 0.973922 0.168139
0.250507 0.970321 0.166674
0.259144 0.965637 0.164874
0.269963 0.961456 0.163668
0.282933 0.958053 0.161929
0.299794 0.9552 0.160662
0.322469 0.950988 0.159747
0.349401 0.946075 0.158022
0.39234 0.937804 0.153246
0.468559 0.918822 0.137896
0.561502 0.897734 0.115434
0.628992 0.890776 0.110369
0.676585 0.891279 0.115541
0.724224 0.891875 0.122744
0.777646 0.890867 0.130861
0.821378 0.887098 0.136873
0.858579 0.884276 0.138933
0.893263 0.882277 0.143633
0.92224 0.88188 0.147967
0.943053 0.881315 0.150072
0.958053 0.879927 0.150988
0.972061 0.878523 0.153796
0.986603 0.878294 0.161852
0.994079 0.877897 0.168536
0.99913 0.877852 0.174609
1 0.878202 0.177508
1 0.878706 0.179217
1 0.879026 0.179675
1 0.879484 0.178698
1 0.879881 0.177798
1 0.880461 0.177569
1 0.880781 0.177996
1 0.880781 0.177996
0.253315 0.989441 0.182269
0.260777 0.987167 0.181079
0.269947 0.984237 0.17995
0.28098 0.98117 0.179049
0.293828 0.978347 0.177615
0.310231 0.975311 0.176394
0.333196 0.971969 0.175906
0.358557 0.967315 0.174456
0.39791 0.959167 0.171511
0.472663 0.943069 0.159838
0.565301 0.925795 0.141802
0.636042 0.92015 0.138354
0.680537 0.919554 0.143297
0.726986 0.919936 0.151049
0.779431 0.919127 0.160113
0.824353 0.916884 0.167117
0.859495 0.914672 0.169116
0.893172 0.912871 0.175036
0.92401 0.911559 0.181476
0.947341 0.910353 0.185473
0.963287 0.908919 0.186603
0.977188 0.908034 0.187976
0.992065 0.908537 0.192569
0.997299 0.908782 0.199145
0.999863 0.908568 0.205997
1 0.908522 0.211658
1 0.908751 0.216526
1 0.909041 0.219745
1 0.909407 0.220813
1 0.909987 0.221897
1 0.910216 0.222507
1 0.910369 0.222782
1 0.910491 0.22295
0.264607 0.998444 0.196078
0.271473 0.997864 0.194644
0.280522 0.997375 0.193835
0.291386 0.99617 0.193362
0.303792 0.9944 0.19234
0.319356 0.99237 0.191363
0.341024 0.98938 0.191257
0.366583 0.985473 0.190372
0.403647 0.978866 0.189014
0.477394 0.964782 0.18056
0.569314 0.951308 0.166735
0.643381 0.946563 0.163424
0.689479 0.947295 0.16994
0.733364 0.946654 0.178302
0.781521 0.94403 0.1879
0.82829 0.943755 0.195727
0.862867 0.942321 0.198337
0.895354 0.940581 0.203967
0.924971 0.938994 0.211933
0.949401 0.937072 0.218036
0.967727 0.935149 0.220874
0.981796 0.934142 0.222507
0.995773 0.935347 0.226261
0.999542 0.936019 0.229892
1 0.936584 0.233875
1 0.936767 0.239185
1 0.936736 0.24448
1 0.93698 0.249149
1 0.937224 0.25272
1 0.937346 0.255558
1 0.937575 0.257847
1 0.937697 0.258305
1 0.937697 0.258335
0.275502 1 0.208896
0.28188 1 0.207233
0.289998 1 0.205966
0.300267 0.999817 0.205539
0.312505 0.999435 0.205142
0.327626 0.998901 0.204761
0.347799 0.997421 0.204913
0.373312 0.995605 0.204578
0.41001 0.992584 0.205264
0.481483 0.983673 0.200748
0.57734 0.972793 0.190784
0.648493 0.967346 0.187304
0.695048 0.969802 0.194476
0.738582 0.969573 0.203601
0.786038 0.96643 0.214649
0.833387 0.966644 0.224445
0.869291 0.967102 0.231113
0.900389 0.965331 0.235935
0.929549 0.963699 0.243687
0.954162 0.961959 0.251331
0.973327 0.959976 0.256428
0.988159 0.958663 0.259571
0.996353 0.960372 0.262806
0.999817 0.961318 0.265797
1 0.961898 0.268666
1 0.962173 0.271611
1 0.962264 0.275242
1 0.962539 0.279789
1 0.962631 0.283879
1 0.962707 0.287312
1 0.962798 0.289494
1 0.962982 0.290074
1 0.963165 0.29041
0.285359 1 0.220508
0.291707 1 0.219059
0.299184 1 0.217533
0.308919 1 0.217014
0.320897 1 0.217121
0.335424 1 0.217105
0.354314 0.999985 0.21738
0.379507 0.999405 0.21735
0.41622 0.998245 0.219348
0.486732 0.994079 0.218204
0.586038 0.987366 0.211704
0.654658 0.983581 0.209262
0.69987 0.98555 0.215702
0.743358 0.985931 0.22472
0.791363 0.984451 0.236271
0.837858 0.983856 0.247166
0.876005 0.984802 0.259449
0.907195 0.98381 0.265507
0.935317 0.98291 0.27245
0.959533 0.982162 0.280247
0.978851 0.980926 0.286381
0.993347 0.979995 0.29102
0.998016 0.980728 0.295491
1 0.981216 0.298466
1 0.981888 0.30106
1 0.982208 0.303685
1 0.982254 0.306264
1 0.9823 0.308782
1 0.98233 0.311177
1 0.982406 0.314305
1 0.982559 0.317021
1 0.982834 0.31783
1 0.982834 0.31783
0.294606 1 0.232166
0.300679 1 0.230716
0.308034 1 0.229267
0.3178 1 0.228977
0.329656 1 0.229236
0.343664 1 0.229389
0.361852 1 0.229786
0.385946 1 0.229969
0.42237 1 0.232593
0.492515 0.999374 0.233799
0.595392 0.996857 0.230732
0.66215 0.995468 0.230137
0.706096 0.996612 0.235874
0.748653 0.997116 0.244419
0.796689 0.996872 0.256229
0.84271 0.996704 0.267979
0.881743 0.996979 0.282582
0.913588 0.996796 0.291569
0.941146 0.996643 0.298878
0.964263 0.996429 0.305959
0.9832 0.996139 0.312795
0.997345 0.995911 0.318654
0.999542 0.996033 0.324331
1 0.996139 0.328099
1 0.996384 0.330861
1 0.996445 0.333104
1 0.996445 0.33521
1 0.99646 0.337179
1 0.996521 0.339208
1 0.996551 0.341131
1 0.996674 0.342977
1 0.996735 0.343343
1 0.996735 0.343343
0.3028 1 0.242466
0.308721 1 0.241413
0.316075 1 0.240284
0.326116 1 0.240497
0.338231 1 0.240986
0.352453 1 0.241611
0.37023 1 0.242237
0.393606 1 0.243549
0.430396 1 0.247364
0.504585 1 0.250401
0.606958 1 0.24976
0.672679 1 0.251255
0.714824 1 0.256809
0.757031 1 0.265568
0.804471 1 0.277577
0.849592 1 0.289631
0.887968 1 0.304479
0.919142 1 0.315175
0.945891 1 0.322805
0.968704 1 0.330327
0.986923 1 0.338033
0.999176 1 0.344579
1 1 0.351629
1 1 0.356725
1 1 0.359747
1 1 0.361501
1 1 0.363119
1 1 0.364904
1 1 0.366674
1 1 0.368261
1 1 0.369436
1 1 0.369757
1 1 0.369879
0.309911 1 0.251392
0.315831 1 0.25069
0.323125 1 0.250004
0.333165 1 0.250462
0.345769 1 0.25124
0.359976 1 0.252094
0.377798 1 0.253101
0.400351 1 0.255146
0.437873 1 0.260044
0.517006 1 0.265599
0.620447 1 0.268315
0.684123 1 0.271519
0.7252 1 0.277165
0.766491 1 0.285908
0.813062 1 0.297917
0.857481 1 0.310231
0.894606 1 0.324697
0.924056 1 0.335561
0.949935 1 0.343679
0.972473 1 0.352041
0.989883 1 0.360708
1 1 0.367864
1 1 0.375799
1 1 0.38172
1 1 0.385397
1 1 0.386954
1 1 0.387945
1 1 0.389197
1 1 0.390753
1 1 0.391959
1 1 0.39295
1 1 0.393194
1 1 0.393317
0.315984 1 0.259007
0.321996 1 0.258579
0.329198 1 0.258259
0.339483 1 0.259205
0.352163 1 0.260121
0.366583 1 0.261067
0.384268 1 0.262287
0.406516 1 0.26511
0.445716 1 0.271
