lut/a051c36a-94a2-42d4-b5aa-668cf7297528.cube
TITLE "Dramatic Monochrome"
LUT_3D_SIZE 5
0 0 0
0.0221103 0.0221103 0.0221103
0.0552682 0.0552682 0.0552682
0.11725 0.11725 0.11725
0.178027 0.178027 0.178027
0.114382 0.114382 0.114382
0.171832 0.171832 0.171832
0.234638 0.234638 0.234638
0.313664 0.313664 0.313664
0.399573 0.399573 0.399573
0.325719 0.325719 0.325719
0.400458 0.400458 0.400458
0.474968 0.474968 0.474968
0.556054 0.556054 0.556054
0.638712 0.638712 0.638712
0.565698 0.565698 0.565698
0.642435 0.642435 0.642435
0.712444 0.712444 0.712444
0.775204 0.775204 0.775204
0.830854 0.830854 0.830854
0.778714 0.778714 0.778714
0.832731 0.832731 0.832731
0.878538 0.878538 0.878538
0.919936 0.919936 0.919936
0.960174 0.960174 0.960174
0.00708019 0.00708019 0.00708019
0.0305943 0.0305943 0.0305943
0.064744 0.064744 0.064744
0.128634 0.128634 0.128634
0.191165 0.191165 0.191165
0.133211 0.133211 0.133211
0.192462 0.192462 0.192462
0.255482 0.255482 0.255482
0.330175 0.330175 0.330175
0.415564 0.415564 0.415564
0.350759 0.350759 0.350759
0.424628 0.424628 0.424628
0.496513 0.496513 0.496513
0.571084 0.571084 0.571084
0.652735 0.652735 0.652735
0.588022 0.588022 0.588022
0.664027 0.664027 0.664027
0.729213 0.729213 0.729213
0.786877 0.786877 0.786877
0.839811 0.839811 0.839811
0.7935 0.7935 0.7935
0.845533 0.845533 0.845533
0.88925 0.88925 0.88925
0.928695 0.928695 0.928695
0.967834 0.967834 0.967834
0.0137942 0.0137942 0.0137942
0.0403143 0.0403143 0.0403143
0.0823072 0.0823072 0.0823072
0.143893 0.143893 0.143893
0.206424 0.206424 0.206424
0.151171 0.151171 0.151171
0.213321 0.213321 0.213321
0.278599 0.278599 0.278599
0.351431 0.351431 0.351431
0.433783 0.433783 0.433783
0.372107 0.372107 0.372107
0.448768 0.448768 0.448768
0.521324 0.521324 0.521324
0.594064 0.594064 0.594064
0.668147 0.668147 0.668147
0.60914 0.60914 0.60914
0.686748 0.686748 0.686748
0.74873 0.74873 0.74873
0.801831 0.801831 0.801831
0.848707 0.848707 0.848707
0.807584 0.807584 0.807584
0.858564 0.858564 0.858564
0.901259 0.901259 0.901259
0.938613 0.938613 0.938613
0.975891 0.975891 0.975891
0.0187839 0.0187839 0.0187839
0.0510719 0.0510719 0.0510719
0.101472 0.101472 0.101472
0.160647 0.160647 0.160647
0.223636 0.223636 0.223636
0.161913 0.161913 0.161913
0.231724 0.231724 0.231724
0.302144 0.302144 0.302144
0.376562 0.376562 0.376562
0.45481 0.45481 0.45481
0.388769 0.388769 0.388769
0.471656 0.471656 0.471656
0.546181 0.546181 0.546181
0.61825 0.61825 0.61825
0.687373 0.687373 0.687373
0.627146 0.627146 0.627146
0.705409 0.705409 0.705409
0.76759 0.76759 0.76759
0.818219 0.818219 0.818219
0.862043 0.862043 0.862043
0.820188 0.820188 0.820188
0.870604 0.870604 0.870604
0.913985 0.913985 0.913985
0.950607 0.950607 0.950607
0.986694 0.986694 0.986694
0.0237583 0.0237583 0.0237583
0.0614939 0.0614939 0.0614939
0.1178 0.1178 0.1178
0.176059 0.176059 0.176059
0.24184 0.24184 0.24184
0.173388 0.173388 0.173388
0.246113 0.246113 0.246113
0.321981 0.321981 0.321981
0.399664 0.399664 0.399664
0.477028 0.477028 0.477028
0.403525 0.403525 0.403525
0.48661 0.48661 0.48661
0.567727 0.567727 0.567727
0.641688 0.641688 0.641688
0.709239 0.709239 0.709239
0.642557 0.642557 0.642557
0.719509 0.719509 0.719509
0.784527 0.784527 0.784527
0.833814 0.833814 0.833814
0.875731 0.875731 0.875731
0.831113 0.831113 0.831113
0.88072 0.88072 0.88072
0.92462 0.92462 0.92462
0.962753 0.962753 0.962753
0.999359 0.999359 0.999359
