lut/a051c36a-94a2-42d4-b5aa-668cf7297528.cube
TITLE "Dramatic Monochrome"
LUT_3D_SIZE 9
0 0 0
0.0107271 0.0107271 0.0107271
0.0221103 0.0221103 0.0221103
0.0349126 0.0349126 0.0349126
0.0552682 0.0552682 0.0552682
0.0850385 0.0850385 0.0850385
0.11725 0.11725 0.11725
0.14757 0.14757 0.14757
0.178027 0.178027 0.178027
0.040177 0.040177 0.040177
0.0567788 0.0567788 0.0567788
0.0788128 0.0788128 0.0788128
0.10457 0.10457 0.10457
0.134844 0.134844 0.134844
0.169955 0.169955 0.169955
0.203967 0.203967 0.203967
0.240497 0.240497 0.240497
0.28043 0.28043 0.28043
0.114382 0.114382 0.114382
0.142336 0.142336 0.142336
0.171832 0.171832 0.171832
0.202258 0.202258 0.202258
0.234638 0.234638 0.234638
0.272694 0.272694 0.272694
0.313664 0.313664 0.313664
0.356374 0.356374 0.356374
0.399573 0.399573 0.399573
0.213504 0.213504 0.213504
0.244999 0.244999 0.244999
0.278737 0.278737 0.278737
0.314076 0.314076 0.314076
0.352377 0.352377 0.352377
0.39324 0.39324 0.39324
0.43447 0.43447 0.43447
0.476204 0.476204 0.476204
0.519066 0.519066 0.519066
0.325719 0.325719 0.325719
0.363455 0.363455 0.363455
0.400458 0.400458 0.400458
0.437095 0.437095 0.437095
0.474968 0.474968 0.474968
0.514855 0.514855 0.514855
0.556054 0.556054 0.556054
0.59765 0.59765 0.59765
0.638712 0.638712 0.638712
0.445548 0.445548 0.445548
0.483894 0.483894 0.483894
0.522118 0.522118 0.522118
0.560204 0.560204 0.560204
0.598428 0.598428 0.598428
0.636667 0.636667 0.636667
0.674418 0.674418 0.674418
0.710842 0.710842 0.710842
0.745235 0.745235 0.745235
0.565698 0.565698 0.565698
0.604822 0.604822 0.604822
0.642435 0.642435 0.642435
0.678325 0.678325 0.678325
0.712444 0.712444 0.712444
0.744717 0.744717 0.744717
0.775204 0.775204 0.775204
0.803952 0.803952 0.803952
0.830854 0.830854 0.830854
0.681071 0.681071 0.681071
0.716014 0.716014 0.716014
0.748211 0.748211 0.748211
0.77789 0.77789 0.77789
0.805371 0.805371 0.805371
0.830945 0.830945 0.830945
0.854856 0.854856 0.854856
0.877562 0.877562 0.877562
0.899351 0.899351 0.899351
0.778714 0.778714 0.778714
0.806928 0.806928 0.806928
0.832731 0.832731 0.832731
0.856413 0.856413 0.856413
0.878538 0.878538 0.878538
0.89958 0.89958 0.89958
0.919936 0.919936 0.919936
0.940017 0.940017 0.940017
0.960174 0.960174 0.960174
0.00317388 0.00317388 0.00317388
0.0145571 0.0145571 0.0145571
0.0262608 0.0262608 0.0262608
0.0398108 0.0398108 0.0398108
0.0589761 0.0589761 0.0589761
0.0893873 0.0893873 0.0893873
0.122454 0.122454 0.122454
0.153384 0.153384 0.153384
0.18436 0.18436 0.18436
0.0454414 0.0454414 0.0454414
0.0635386 0.0635386 0.0635386
0.0872663 0.0872663 0.0872663
0.113725 0.113725 0.113725
0.14168 0.14168 0.14168
0.176272 0.176272 0.176272
0.210849 0.210849 0.210849
0.247929 0.247929 0.247929
0.288258 0.288258 0.288258
0.123705 0.123705 0.123705
0.152239 0.152239 0.152239
0.182116 0.182116 0.182116
0.212741 0.212741 0.212741
0.244251 0.244251 0.244251
0.280278 0.280278 0.280278
0.321553 0.321553 0.321553
0.364294 0.364294 0.364294
0.407385 0.407385 0.407385
0.223987 0.223987 0.223987
0.256275 0.256275 0.256275
0.290623 0.290623 0.290623
0.32636 0.32636 0.32636
0.362799 0.362799 0.362799
0.400839 0.400839 0.400839
0.44184 0.44184 0.44184
0.483726 0.483726 0.483726
0.526635 0.526635 0.526635
0.338262 0.338262 0.338262
0.376104 0.376104 0.376104
0.412436 0.412436 0.412436
0.448096 0.448096 0.448096
0.484154 0.484154 0.484154
0.522667 0.522667 0.522667
0.563516 0.563516 0.563516
0.604868 0.604868 0.604868
0.64567 0.64567 0.64567
0.457099 0.457099 0.457099
0.495872 0.495872 0.495872
0.533761 0.533761 0.533761
0.570733 0.570733 0.570733
0.607507 0.607507 0.607507
0.644511 0.644511 0.644511
0.681331 0.681331 0.681331
0.717067 0.717067 0.717067
0.750881 0.750881 0.750881
0.576822 0.576822 0.576822
0.615885 0.615885 0.615885
0.652918 0.652918 0.652918
0.68777 0.68777 0.68777
0.720531 0.720531 0.720531
0.751507 0.751507 0.751507
0.781003 0.781003 0.781003
0.809003 0.809003 0.809003
0.83534 0.83534 0.83534
0.690639 0.690639 0.690639
0.725048 0.725048 0.725048
0.756512 0.756512 0.756512
0.785336 0.785336 0.785336
0.811856 0.811856 0.811856
0.836484 0.836484 0.836484
0.859632 0.859632 0.859632
0.881773 0.881773 0.881773
0.903197 0.903197 0.903197
0.786145 0.786145 0.786145
0.81384 0.81384 0.81384
0.839078 0.839078 0.839078
0.862181 0.862181 0.862181
0.883772 0.883772 0.883772
0.904295 0.904295 0.904295
0.924224 0.924224 0.924224
0.943984 0.943984 0.943984
0.963958 0.963958 0.963958
0.00708019 0.00708019 0.00708019
0.0183719 0.0183719 0.0183719
0.0305943 0.0305943 0.0305943
0.0450446 0.0450446 0.0450446
0.064744 0.064744 0.064744
0.0957198 0.0957198 0.0957198
0.128634 0.128634 0.128634
0.159716 0.159716 0.159716
0.191165 0.191165 0.191165
0.0509804 0.0509804 0.0509804
0.0710155 0.0710155 0.0710155
0.0960861 0.0960861 0.0960861
0.123033 0.123033 0.123033
0.151537 0.151537 0.151537
0.183841 0.183841 0.183841
0.218585 0.218585 0.218585
0.256031 0.256031 0.256031
0.29659 0.29659 0.29659
0.133211 0.133211 0.133211
0.162264 0.162264 0.162264
0.192462 0.192462 0.192462
0.223209 0.223209 0.223209
0.255482 0.255482 0.255482
0.289784 0.289784 0.289784
0.330175 0.330175 0.330175
0.372808 0.372808 0.372808
0.415564 0.415564 0.415564
0.234699 0.234699 0.234699
0.26775 0.26775 0.26775
0.302632 0.302632 0.302632
0.338689 0.338689 0.338689
0.375219 0.375219 0.375219
0.411582 0.411582 0.411582
0.449638 0.449638 0.449638
0.491661 0.491661 0.491661
0.534554 0.534554 0.534554
0.350759 0.350759 0.350759
0.38851 0.38851 0.38851
0.424628 0.424628 0.424628
0.460273 0.460273 0.460273
0.496513 0.496513 0.496513
0.533059 0.533059 0.533059
0.571084 0.571084 0.571084
0.612222 0.612222 0.612222
0.652735 0.652735 0.652735
0.468772 0.468772 0.468772
0.508492 0.508492 0.508492
0.546365 0.546365 0.546365
0.582712 0.582712 0.582712
0.618433 0.618433 0.618433
0.653147 0.653147 0.653147
0.688273 0.688273 0.688273
0.723262 0.723262 0.723262
0.756527 0.756527 0.756527
0.588022 0.588022 0.588022
0.627237 0.627237 0.627237
0.664027 0.664027 0.664027
0.697978 0.697978 0.697978
0.729213 0.729213 0.729213
0.758602 0.758602 0.758602
0.786877 0.786877 0.786877
0.814054 0.814054 0.814054
0.839811 0.839811 0.839811
0.700145 0.700145 0.700145
0.734157 0.734157 0.734157
0.765087 0.765087 0.765087
0.793164 0.793164 0.793164
0.818708 0.818708 0.818708
0.842283 0.842283 0.842283
0.86453 0.86453 0.86453
0.886046 0.886046 0.886046
0.907042 0.907042 0.907042
0.7935 0.7935 0.7935
0.820783 0.820783 0.820783
0.845533 0.845533 0.845533
0.868177 0.868177 0.868177
0.88925 0.88925 0.88925
0.909255 0.909255 0.909255
0.928695 0.928695 0.928695
0.948089 0.948089 0.948089
0.967834 0.967834 0.967834
0.0109407 0.0109407 0.0109407
0.0223392 0.0223392 0.0223392
0.0351873 0.0351873 0.0351873
0.0505684 0.0505684 0.0505684
0.0727855 0.0727855 0.0727855
0.103593 0.103593 0.103593
0.135836 0.135836 0.135836
0.166659 0.166659 0.166659
0.19852 0.19852 0.19852
0.057145 0.057145 0.057145
0.0792706 0.0792706 0.0792706
0.105089 0.105089 0.105089
0.132525 0.132525 0.132525
0.161547 0.161547 0.161547
0.193072 0.193072 0.193072
0.22739 0.22739 0.22739
0.264988 0.264988 0.264988
0.305592 0.305592 0.305592
0.142916 0.142916 0.142916
0.172412 0.172412 0.172412
0.202869 0.202869 0.202869
0.233906 0.233906 0.233906
0.266941 0.266941 0.266941
0.301793 0.301793 0.301793
0.340032 0.340032 0.340032
0.382116 0.382116 0.382116
0.424338 0.424338 0.424338
0.245686 0.245686 0.245686
0.279438 0.279438 0.279438
0.314778 0.314778 0.314778
0.351064 0.351064 0.351064
0.387625 0.387625 0.387625
0.423758 0.423758 0.423758
0.459403 0.459403 0.459403
0.500343 0.500343 0.500343
0.543038 0.543038 0.543038
0.362173 0.362173 0.362173
0.400854 0.400854 0.400854
0.436683 0.436683 0.436683
0.472511 0.472511 0.472511
0.508904 0.508904 0.508904
0.54548 0.54548 0.54548
0.581842 0.581842 0.581842
0.619959 0.619959 0.619959
0.660136 0.660136 0.660136
0.480018 0.480018 0.480018
0.520989 0.520989 0.520989
0.55874 0.55874 0.55874
0.594934 0.594934 0.594934
0.63035 0.63035 0.63035
0.664637 0.664637 0.664637
0.697398 0.697398 0.697398
0.729488 0.729488 0.729488
0.762249 0.762249 0.762249
0.598901 0.598901 0.598901
0.638529 0.638529 0.638529
0.675563 0.675563 0.675563
0.708843 0.708843 0.708843
0.738949 0.738949 0.738949
0.767086 0.767086 0.767086
0.793332 0.793332 0.793332
0.819074 0.819074 0.819074
0.844236 0.844236 0.844236
0.709392 0.709392 0.709392
0.743191 0.743191 0.743191
0.773816 0.773816 0.773816
0.801389 0.801389 0.801389
0.826093 0.826093 0.826093
0.848508 0.848508 0.848508
0.869688 0.869688 0.869688
0.890394 0.890394 0.890394
0.910933 0.910933 0.910933
0.800671 0.800671 0.800671
0.827649 0.827649 0.827649
0.852079 0.852079 0.852079
0.874403 0.874403 0.874403
0.895079 0.895079 0.895079
0.914565 0.914565 0.914565
0.93344 0.93344 0.93344
0.952361 0.952361 0.952361
0.971786 0.971786 0.971786
0.0137942 0.0137942 0.0137942
0.0263218 0.0263218 0.0263218
0.0403143 0.0403143 0.0403143
0.057847 0.057847 0.057847
0.0823072 0.0823072 0.0823072
0.112581 0.112581 0.112581
0.143893 0.143893 0.143893
0.174166 0.174166 0.174166
0.206424 0.206424 0.206424
0.0624247 0.0624247 0.0624247
0.0877546 0.0877546 0.0877546
0.114229 0.114229 0.114229
0.142214 0.142214 0.142214
0.17171 0.17171 0.17171
0.203494 0.203494 0.203494
0.237263 0.237263 0.237263
0.274815 0.274815 0.274815
0.315267 0.315267 0.315267
0.151171 0.151171 0.151171
0.182681 0.182681 0.182681
0.213321 0.213321 0.213321
0.244877 0.244877 0.244877
0.278599 0.278599 0.278599
0.313939 0.313939 0.313939
0.351431 0.351431 0.351431
0.392493 0.392493 0.392493
0.433783 0.433783 0.433783
0.254688 0.254688 0.254688
0.291295 0.291295 0.291295
0.327047 0.327047 0.327047
0.363485 0.363485 0.363485
0.399969 0.399969 0.399969
0.435843 0.435843 0.435843
0.471656 0.471656 0.471656
0.510246 0.510246 0.510246
0.552361 0.552361 0.552361
0.372107 0.372107 0.372107
0.413123 0.413123 0.413123
0.448768 0.448768 0.448768
0.48484 0.48484 0.48484
0.521324 0.521324 0.521324
0.55787 0.55787 0.55787
0.594064 0.594064 0.594064
0.629511 0.629511 0.629511
0.668147 0.668147 0.668147
0.490333 0.490333 0.490333
0.532418 0.532418 0.532418
0.571099 0.571099 0.571099
0.607065 0.607065 0.607065
0.642145 0.642145 0.642145
0.675975 0.675975 0.675975
0.708095 0.708095 0.708095
0.738247 0.738247 0.738247
0.768246 0.768246 0.768246
0.60914 0.60914 0.60914
0.649226 0.649226 0.649226
0.686748 0.686748 0.686748
0.719295 0.719295 0.719295
0.74873 0.74873 0.74873
0.776196 0.776196 0.776196
0.801831 0.801831 0.801831
0.825666 0.825666 0.825666
0.848707 0.848707 0.848707
0.718181 0.718181 0.718181
0.751827 0.751827 0.751827
0.782391 0.782391 0.782391
0.809827 0.809827 0.809827
0.833906 0.833906 0.833906
0.855497 0.855497 0.855497
0.875837 0.875837 0.875837
0.895186 0.895186 0.895186
0.914824 0.914824 0.914824
0.807584 0.807584 0.807584
0.834318 0.834318 0.834318
0.858564 0.858564 0.858564
0.880781 0.880781 0.880781
0.901259 0.901259 0.901259
0.920348 0.920348 0.920348
0.938613 0.938613 0.938613
0.956878 0.956878 0.956878
0.975891 0.975891 0.975891
0.0163424 0.0163424 0.0163424
0.0298466 0.0298466 0.0298466
0.0457923 0.0457923 0.0457923
0.0660716 0.0660716 0.0660716
0.0922103 0.0922103 0.0922103
0.121935 0.121935 0.121935
0.152331 0.152331 0.152331
0.182147 0.182147 0.182147
0.214847 0.214847 0.214847
0.0663157 0.0663157 0.0663157
0.0941176 0.0941176 0.0941176
0.122942 0.122942 0.122942
0.152163 0.152163 0.152163
0.182574 0.182574 0.182574
0.213947 0.213947 0.213947
0.247822 0.247822 0.247822
0.285344 0.285344 0.285344
0.325551 0.325551 0.325551
0.156435 0.156435 0.156435
0.19118 0.19118 0.19118
0.223804 0.223804 0.223804
0.256107 0.256107 0.256107
0.290455 0.290455 0.290455
0.326177 0.326177 0.326177
0.363928 0.363928 0.363928
0.403754 0.403754 0.403754
0.443976 0.443976 0.443976
0.262043 0.262043 0.262043
0.301808 0.301808 0.301808
0.339361 0.339361 0.339361
0.375891 0.375891 0.375891
0.412253 0.412253 0.412253
0.447913 0.447913 0.447913
0.483955 0.483955 0.483955
0.521675 0.521675 0.521675
0.562707 0.562707 0.562707
0.380804 0.380804 0.380804
0.422889 0.422889 0.422889
0.460945 0.460945 0.460945
0.4972 0.4972 0.4972
0.533761 0.533761 0.533761
0.570214 0.570214 0.570214
0.60621 0.60621 0.60621
0.641321 0.641321 0.641321
0.67718 0.67718 0.67718
0.499657 0.499657 0.499657
0.542336 0.542336 0.542336
0.583383 0.583383 0.583383
0.619104 0.619104 0.619104
0.653788 0.653788 0.653788
0.687068 0.687068 0.687068
0.718563 0.718563 0.718563
0.748043 0.748043 0.748043
0.775555 0.775555 0.775555
0.61854 0.61854 0.61854
0.65893 0.65893 0.65893
0.696818 0.696818 0.696818
0.729503 0.729503 0.729503
0.758267 0.758267 0.758267
0.785122 0.785122 0.785122
0.810132 0.810132 0.810132
0.833371 0.833371 0.833371
0.854994 0.854994 0.854994
0.726345 0.726345 0.726345
0.759869 0.759869 0.759869
0.790402 0.790402 0.790402
0.817975 0.817975 0.817975
0.841398 0.841398 0.841398
0.862531 0.862531 0.862531
0.882521 0.882521 0.882521
0.901579 0.901579 0.901579
0.919997 0.919997 0.919997
0.814099 0.814099 0.814099
0.840604 0.840604 0.840604
0.86479 0.86479 0.86479
0.887083 0.887083 0.887083
0.907683 0.907683 0.907683
0.926604 0.926604 0.926604
0.944533 0.944533 0.944533
0.962402 0.962402 0.962402
0.980484 0.980484 0.980484
0.0187839 0.0187839 0.0187839
0.0332494 0.0332494 0.0332494
0.0510719 0.0510719 0.0510719
0.074052 0.074052 0.074052
0.101472 0.101472 0.101472
0.130999 0.130999 0.130999
0.160647 0.160647 0.160647
0.190417 0.190417 0.190417
0.223636 0.223636 0.223636
0.0706493 0.0706493 0.0706493
0.0998703 0.0998703 0.0998703
0.130404 0.130404 0.130404
0.161334 0.161334 0.161334
0.192523 0.192523 0.192523
0.224002 0.224002 0.224002
0.258564 0.258564 0.258564
0.296239 0.296239 0.296239
0.336233 0.336233 0.336233
0.161913 0.161913 0.161913
0.197482 0.197482 0.197482
0.231724 0.231724 0.231724
0.266529 0.266529 0.266529
0.302144 0.302144 0.302144
0.338704 0.338704 0.338704
0.376562 0.376562 0.376562
0.415473 0.415473 0.415473
0.45481 0.45481 0.45481
0.269062 0.269062 0.269062
0.309239 0.309239 0.309239
0.349737 0.349737 0.349737
0.388296 0.388296 0.388296
0.424445 0.424445 0.424445
0.460075 0.460075 0.460075
0.496315 0.496315 0.496315
0.534188 0.534188 0.534188
0.573983 0.573983 0.573983
0.388769 0.388769 0.388769
0.430701 0.430701 0.430701
0.471656 0.471656 0.471656
0.509606 0.509606 0.509606
0.546181 0.546181 0.546181
0.582513 0.582513 0.582513
0.61825 0.61825 0.61825
0.652964 0.652964 0.652964
0.687373 0.687373 0.687373
0.508125 0.508125 0.508125
0.551034 0.551034 0.551034
0.593179 0.593179 0.593179
0.631006 0.631006 0.631006
0.665263 0.665263 0.665263
0.697993 0.697993 0.697993
0.728801 0.728801 0.728801
0.757595 0.757595 0.757595
0.784466 0.784466 0.784466
0.627146 0.627146 0.627146
0.667491 0.667491 0.667491
0.705409 0.705409 0.705409
0.739498 0.739498 0.739498
0.76759 0.76759 0.76759
0.793805 0.793805 0.793805
0.818219 0.818219 0.818219
0.840879 0.840879 0.840879
0.862043 0.862043 0.862043
0.733883 0.733883 0.733883
0.767147 0.767147 0.767147
0.797574 0.797574 0.797574
0.825254 0.825254 0.825254
0.848722 0.848722 0.848722
0.869429 0.869429 0.869429
0.889082 0.889082 0.889082
0.907897 0.907897 0.907897
0.926146 0.926146 0.926146
0.820188 0.820188 0.820188
0.846464 0.846464 0.846464
0.870604 0.870604 0.870604
0.893019 0.893019 0.893019
0.913985 0.913985 0.913985
0.932708 0.932708 0.932708
0.950607 0.950607 0.950607
0.968505 0.968505 0.968505
0.986694 0.986694 0.986694
0.0212558 0.0212558 0.0212558
0.0366369 0.0366369 0.0366369
0.0562753 0.0562753 0.0562753
0.0816205 0.0816205 0.0816205
0.110063 0.110063 0.110063
0.139452 0.139452 0.139452
0.16849 0.16849 0.16849
0.19881 0.19881 0.19881
0.232685 0.232685 0.232685
0.0750591 0.0750591 0.0750591
0.105516 0.105516 0.105516
0.137362 0.137362 0.137362
0.169497 0.169497 0.169497
0.20119 0.20119 0.20119
0.233631 0.233631 0.233631
0.269078 0.269078 0.269078
0.307134 0.307134 0.307134
0.347082 0.347082 0.347082
0.167575 0.167575 0.167575
0.203845 0.203845 0.203845
0.238956 0.238956 0.238956
0.275212 0.275212 0.275212
0.312474 0.312474 0.312474
0.350301 0.350301 0.350301
0.388556 0.388556 0.388556
0.427024 0.427024 0.427024
0.46595 0.46595 0.46595
0.275975 0.275975 0.275975
0.316564 0.316564 0.316564
0.357504 0.357504 0.357504
0.397482 0.397482 0.397482
0.435401 0.435401 0.435401
0.472007 0.472007 0.472007
0.508919 0.508919 0.508919
0.546822 0.546822 0.546822
0.585718 0.585718 0.585718
0.396262 0.396262 0.396262
0.438025 0.438025 0.438025
0.47921 0.47921 0.47921
0.519997 0.519997 0.519997
0.558556 0.558556 0.558556
0.594736 0.594736 0.594736
0.630182 0.630182 0.630182
0.664469 0.664469 0.664469
0.69836 0.69836 0.69836
0.51603 0.51603 0.51603
0.558984 0.558984 0.558984
0.601038 0.601038 0.601038
0.641321 0.641321 0.641321
0.676555 0.676555 0.676555
0.708675 0.708675 0.708675
0.738811 0.738811 0.738811
0.766949 0.766949 0.766949
0.793179 0.793179 0.793179
0.635081 0.635081 0.635081
0.675212 0.675212 0.675212
0.71281 0.71281 0.71281
0.747341 0.747341 0.747341
0.776699 0.776699 0.776699
0.802304 0.802304 0.802304
0.826108 0.826108 0.826108
0.848219 0.848219 0.848219
0.86894 0.86894 0.86894
0.740795 0.740795 0.740795
0.773739 0.773739 0.773739
0.803922 0.803922 0.803922
0.831418 0.831418 0.831418
0.855894 0.855894 0.855894
0.876219 0.876219 0.876219
0.895552 0.895552 0.895552
0.914153 0.914153 0.914153
0.932265 0.932265 0.932265
0.825833 0.825833 0.825833
0.85185 0.85185 0.85185
0.875898 0.875898 0.875898
0.89839 0.89839 0.89839
0.919692 0.919692 0.919692
0.938796 0.938796 0.938796
0.956664 0.956664 0.956664
0.974655 0.974655 0.974655
0.992996 0.992996 0.992996
0.0237583 0.0237583 0.0237583
0.0400854 0.0400854 0.0400854
0.0614939 0.0614939 0.0614939
0.088716 0.088716 0.088716
0.1178 0.1178 0.1178
0.147219 0.147219 0.147219
0.176059 0.176059 0.176059
0.207218 0.207218 0.207218
0.24184 0.24184 0.24184
0.0796063 0.0796063 0.0796063
0.111147 0.111147 0.111147
0.144045 0.144045 0.144045
0.177005 0.177005 0.177005
0.209079 0.209079 0.209079
0.242802 0.242802 0.242802
0.279225 0.279225 0.279225
0.3178 0.3178 0.3178
0.357824 0.357824 0.357824
0.173388 0.173388 0.173388
0.210239 0.210239 0.210239
0.246113 0.246113 0.246113
0.283482 0.283482 0.283482
0.321981 0.321981 0.321981
0.360861 0.360861 0.360861
0.399664 0.399664 0.399664
0.438056 0.438056 0.438056
0.477028 0.477028 0.477028
0.282872 0.282872 0.282872
0.323857 0.323857 0.323857
0.365179 0.365179 0.365179
0.405676 0.405676 0.405676
0.444419 0.444419 0.444419
0.48249 0.48249 0.48249
0.520546 0.520546 0.520546
0.558816 0.558816 0.558816
0.59733 0.59733 0.59733
0.403525 0.403525 0.403525
0.445167 0.445167 0.445167
0.48661 0.48661 0.48661
0.527764 0.527764 0.527764
0.567727 0.567727 0.567727
0.605768 0.605768 0.605768
0.641688 0.641688 0.641688
0.675975 0.675975 0.675975
0.709239 0.709239 0.709239
0.523629 0.523629 0.523629
0.566522 0.566522 0.566522
0.608438 0.608438 0.608438
0.648524 0.648524 0.648524
0.685924 0.685924 0.685924
0.719173 0.719173 0.719173
0.748592 0.748592 0.748592
0.776089 0.776089 0.776089
0.801694 0.801694 0.801694
0.642557 0.642557 0.642557
0.682353 0.682353 0.682353
0.719509 0.719509 0.719509
0.753567 0.753567 0.753567
0.784527 0.784527 0.784527
0.810605 0.810605 0.810605
0.833814 0.833814 0.833814
0.855406 0.855406 0.855406
0.875731 0.875731 0.875731
0.747219 0.747219 0.747219
0.779782 0.779782 0.779782
0.809598 0.809598 0.809598
0.836759 0.836759 0.836759
0.861555 0.861555 0.861555
0.882887 0.882887 0.882887
0.901946 0.901946 0.901946
0.920363 0.920363 0.920363
0.938354 0.938354 0.938354
0.831113 0.831113 0.831113
0.85684 0.85684 0.85684
0.88072 0.88072 0.88072
0.903181 0.903181 0.903181
0.92462 0.92462 0.92462
0.944884 0.944884 0.944884
0.962753 0.962753 0.962753
0.980835 0.980835 0.980835
0.999359 0.999359 0.999359
