lut/a051c36a-94a2-42d4-b5aa-668cf7297528.cube
TITLE "Dramatic Monochrome"
LUT_3D_SIZE 33
0 0 0
0.00213626 0.00213626 0.00213626
0.00502022 0.00502022 0.00502022
0.00787366 0.00787366 0.00787366
0.0107271 0.0107271 0.0107271
0.01355 0.01355 0.01355
0.0163729 0.0163729 0.0163729
0.0191806 0.0191806 0.0191806
0.0221103 0.0221103 0.0221103
0.0251469 0.0251469 0.0251469
0.0283055 0.0283055 0.0283055
0.0315251 0.0315251 0.0315251
0.0349126 0.0349126 0.0349126
0.0388037 0.0388037 0.0388037
0.0437934 0.0437934 0.0437934
0.0492561 0.0492561 0.0492561
0.0552682 0.0552682 0.0552682
0.0619059 0.0619059 0.0619059
0.0691997 0.0691997 0.0691997
0.0769513 0.0769513 0.0769513
0.0850385 0.0850385 0.0850385
0.0931563 0.0931563 0.0931563
0.101259 0.101259 0.101259
0.1093 0.1093 0.1093
0.11725 0.11725 0.11725
0.125078 0.125078 0.125078
0.132769 0.132769 0.132769
0.140291 0.140291 0.140291
0.14757 0.14757 0.14757
0.154864 0.154864 0.154864
0.162371 0.162371 0.162371
0.170092 0.170092 0.170092
0.178027 0.178027 0.178027
0.00892653 0.00892653 0.00892653
0.0117494 0.0117494 0.0117494
0.0145724 0.0145724 0.0145724
0.0173648 0.0173648 0.0173648
0.0202335 0.0202335 0.0202335
0.0231937 0.0231937 0.0231937
0.026276 0.026276 0.026276
0.0294499 0.0294499 0.0294499
0.0327306 0.0327306 0.0327306
0.0361944 0.0361944 0.0361944
0.039826 0.039826 0.039826
0.0436408 0.0436408 0.0436408
0.0476692 0.0476692 0.0476692
0.0518044 0.0518044 0.0518044
0.0575113 0.0575113 0.0575113
0.0640574 0.0640574 0.0640574
0.0712902 0.0712902 0.0712902
0.079057 0.079057 0.079057
0.0872969 0.0872969 0.0872969
0.0958114 0.0958114 0.0958114
0.104234 0.104234 0.104234
0.112627 0.112627 0.112627
0.120943 0.120943 0.120943
0.129168 0.129168 0.129168
0.137285 0.137285 0.137285
0.145266 0.145266 0.145266
0.153048 0.153048 0.153048
0.160601 0.160601 0.160601
0.168261 0.168261 0.168261
0.176135 0.176135 0.176135
0.184207 0.184207 0.184207
0.192523 0.192523 0.192523
0.201068 0.201068 0.201068
0.0184024 0.0184024 0.0184024
0.0213016 0.0213016 0.0213016
0.0243076 0.0243076 0.0243076
0.0274357 0.0274357 0.0274357
0.0306249 0.0306249 0.0306249
0.0339666 0.0339666 0.0339666
0.0374914 0.0374914 0.0374914
0.0411841 0.0411841 0.0411841
0.0450904 0.0450904 0.0450904
0.0490883 0.0490883 0.0490883
0.0534218 0.0534218 0.0534218
0.0580758 0.0580758 0.0580758
0.0630808 0.0630808 0.0630808
0.0684672 0.0684672 0.0684672
0.0750591 0.0750591 0.0750591
0.0828412 0.0828412 0.0828412
0.0910506 0.0910506 0.0910506
0.0994583 0.0994583 0.0994583
0.107942 0.107942 0.107942
0.116472 0.116472 0.116472
0.124987 0.124987 0.124987
0.133501 0.133501 0.133501
0.141955 0.141955 0.141955
0.150317 0.150317 0.150317
0.158511 0.158511 0.158511
0.166506 0.166506 0.166506
0.174334 0.174334 0.174334
0.182361 0.182361 0.182361
0.1906 0.1906 0.1906
0.199069 0.199069 0.199069
0.207767 0.207767 0.207767
0.216693 0.216693 0.216693
0.225879 0.225879 0.225879
0.0285954 0.0285954 0.0285954
0.0318303 0.0318303 0.0318303
0.0352331 0.0352331 0.0352331
0.038819 0.038819 0.038819
0.0425879 0.0425879 0.0425879
0.0465553 0.0465553 0.0465553
0.0506294 0.0506294 0.0506294
0.0550851 0.0550851 0.0550851
0.0598611 0.0598611 0.0598611
0.0650034 0.0650034 0.0650034
0.0705425 0.0705425 0.0705425
0.0766003 0.0766003 0.0766003
0.0827192 0.0827192 0.0827192
0.0890211 0.0890211 0.0890211
0.0956436 0.0956436 0.0956436
0.103944 0.103944 0.103944
0.112383 0.112383 0.112383
0.120928 0.120928 0.120928
0.129549 0.129549 0.129549
0.138231 0.138231 0.138231
0.146929 0.146929 0.146929
0.15555 0.15555 0.15555
0.16408 0.16408 0.16408
0.172457 0.172457 0.172457
0.180621 0.180621 0.180621
0.188769 0.188769 0.188769
0.197162 0.197162 0.197162
0.205783 0.205783 0.205783
0.214649 0.214649 0.214649
0.223743 0.223743 0.223743
0.233082 0.233082 0.233082
0.242634 0.242634 0.242634
0.25243 0.25243 0.25243
0.040177 0.040177 0.040177
0.044007 0.044007 0.044007
0.0480507 0.0480507 0.0480507
0.0522164 0.0522164 0.0522164
0.0567788 0.0567788 0.0567788
0.061677 0.061677 0.061677
0.0669718 0.0669718 0.0669718
0.0726635 0.0726635 0.0726635
0.0788128 0.0788128 0.0788128
0.0849928 0.0849928 0.0849928
0.0913863 0.0913863 0.0913863
0.0979171 0.0979171 0.0979171
0.10457 0.10457 0.10457
0.111284 0.111284 0.111284
0.11809 0.11809 0.11809
0.126223 0.126223 0.126223
0.134844 0.134844 0.134844
0.143587 0.143587 0.143587
0.152392 0.152392 0.152392
0.161212 0.161212 0.161212
0.169955 0.169955 0.169955
0.178607 0.178607 0.178607
0.187091 0.187091 0.187091
0.195438 0.195438 0.195438
0.203967 0.203967 0.203967
0.212741 0.212741 0.212741
0.221744 0.221744 0.221744
0.231006 0.231006 0.231006
0.240497 0.240497 0.240497
0.250202 0.250202 0.250202
0.260105 0.260105 0.260105
0.270191 0.270191 0.270191
0.28043 0.28043 0.28043
0.0538491 0.0538491 0.0538491
0.0585336 0.0585336 0.0585336
0.0635691 0.0635691 0.0635691
0.0690013 0.0690013 0.0690013
0.0749523 0.0749523 0.0749523
0.0810407 0.0810407 0.0810407
0.0872969 0.0872969 0.0872969
0.0937514 0.0937514 0.0937514
0.100328 0.100328 0.100328
0.106996 0.106996 0.106996
0.113756 0.113756 0.113756
0.120592 0.120592 0.120592
0.12752 0.12752 0.12752
0.134554 0.134554 0.134554
0.141695 0.141695 0.141695
0.149767 0.149767 0.149767
0.158572 0.158572 0.158572
0.167437 0.167437 0.167437
0.176303 0.176303 0.176303
0.185107 0.185107 0.185107
0.193805 0.193805 0.193805
0.202365 0.202365 0.202365
0.211032 0.211032 0.211032
0.219928 0.219928 0.219928
0.229099 0.229099 0.229099
0.238499 0.238499 0.238499
0.248112 0.248112 0.248112
0.257939 0.257939 0.257939
0.267964 0.267964 0.267964
0.278141 0.278141 0.278141
0.288472 0.288472 0.288472
0.298924 0.298924 0.298924
0.309514 0.309514 0.309514
0.071107 0.071107 0.071107
0.0771649 0.0771649 0.0771649
0.0832685 0.0832685 0.0832685
0.0895857 0.0895857 0.0895857
0.0961166 0.0961166 0.0961166
0.102724 0.102724 0.102724
0.109422 0.109422 0.109422
0.116197 0.116197 0.116197
0.123064 0.123064 0.123064
0.130037 0.130037 0.130037
0.137118 0.137118 0.137118
0.144305 0.144305 0.144305
0.151568 0.151568 0.151568
0.158938 0.158938 0.158938
0.166369 0.166369 0.166369
0.174395 0.174395 0.174395
0.183246 0.183246 0.183246
0.192096 0.192096 0.192096
0.200916 0.200916 0.200916
0.209613 0.209613 0.209613
0.218387 0.218387 0.218387
0.22742 0.22742 0.22742
0.236713 0.236713 0.236713
0.24622 0.24622 0.24622
0.255955 0.255955 0.255955
0.265873 0.265873 0.265873
0.275975 0.275975 0.275975
0.286229 0.286229 0.286229
0.296635 0.296635 0.296635
0.307149 0.307149 0.307149
0.317784 0.317784 0.317784
0.328496 0.328496 0.328496
0.339284 0.339284 0.339284
0.0919814 0.0919814 0.0919814
0.0985275 0.0985275 0.0985275
0.105165 0.105165 0.105165
0.111879 0.111879 0.111879
0.118685 0.118685 0.118685
0.125582 0.125582 0.125582
0.132601 0.132601 0.132601
0.139712 0.139712 0.139712
0.146944 0.146944 0.146944
0.154238 0.154238 0.154238
0.161639 0.161639 0.161639
0.169085 0.169085 0.169085
0.176608 0.176608 0.176608
0.184192 0.184192 0.184192
0.191806 0.191806 0.191806
0.199847 0.199847 0.199847
0.208621 0.208621 0.208621
0.21735 0.21735 0.21735
0.226215 0.226215 0.226215
0.235355 0.235355 0.235355
0.244724 0.244724 0.244724
0.254322 0.254322 0.254322
0.264134 0.264134 0.264134
0.274128 0.274128 0.274128
0.284291 0.284291 0.284291
0.294591 0.294591 0.294591
0.305043 0.305043 0.305043
0.315602 0.315602 0.315602
0.326253 0.326253 0.326253
0.33698 0.33698 0.33698
0.347768 0.347768 0.347768
0.358587 0.358587 0.358587
0.369436 0.369436 0.369436
0.114382 0.114382 0.114382
0.121218 0.121218 0.121218
0.128145 0.128145 0.128145
0.13518 0.13518 0.13518
0.142336 0.142336 0.142336
0.149584 0.149584 0.149584
0.156924 0.156924 0.156924
0.164355 0.164355 0.164355
0.171832 0.171832 0.171832
0.17937 0.17937 0.17937
0.186969 0.186969 0.186969
0.194598 0.194598 0.194598
0.202258 0.202258 0.202258
0.209949 0.209949 0.209949
0.217639 0.217639 0.217639
0.225727 0.225727 0.225727
0.234638 0.234638 0.234638
0.243809 0.243809 0.243809
0.253208 0.253208 0.253208
0.262867 0.262867 0.262867
0.272694 0.272694 0.272694
0.282719 0.282719 0.282719
0.292897 0.292897 0.292897
0.303227 0.303227 0.303227
0.313664 0.313664 0.313664
0.324239 0.324239 0.324239
0.334874 0.334874 0.334874
0.345602 0.345602 0.345602
0.356374 0.356374 0.356374
0.367178 0.367178 0.367178
0.377981 0.377981 0.377981
0.388769 0.388769 0.388769
0.399573 0.399573 0.399573
0.137804 0.137804 0.137804
0.144991 0.144991 0.144991
0.15227 0.15227 0.15227
0.159609 0.159609 0.159609
0.167056 0.167056 0.167056
0.174563 0.174563 0.174563
0.182116 0.182116 0.182116
0.189731 0.189731 0.189731
0.197375 0.197375 0.197375
0.205051 0.205051 0.205051
0.212741 0.212741 0.212741
0.220447 0.220447 0.220447
0.228229 0.228229 0.228229
0.236179 0.236179 0.236179
0.244266 0.244266 0.244266
0.252949 0.252949 0.252949
0.262318 0.262318 0.262318
0.271916 0.271916 0.271916
0.281743 0.281743 0.281743
0.291752 0.291752 0.291752
0.3019 0.3019 0.3019
0.312215 0.312215 0.312215
0.322637 0.322637 0.322637
0.333165 0.333165 0.333165
0.343771 0.343771 0.343771
0.354452 0.354452 0.354452
0.365164 0.365164 0.365164
0.375921 0.375921 0.375921
0.386664 0.386664 0.386664
0.397391 0.397391 0.397391
0.408103 0.408103 0.408103
0.418723 0.418723 0.418723
0.429313 0.429313 0.429313
0.162356 0.162356 0.162356
0.169802 0.169802 0.169802
0.177325 0.177325 0.177325
0.184894 0.184894 0.184894
0.192508 0.192508 0.192508
0.200168 0.200168 0.200168
0.207843 0.207843 0.207843
0.215549 0.215549 0.215549
0.22327 0.22327 0.22327
0.231098 0.231098 0.231098
0.239109 0.239109 0.239109
0.247242 0.247242 0.247242
0.255528 0.255528 0.255528
0.263951 0.263951 0.263951
0.272496 0.272496 0.272496
0.281743 0.281743 0.281743
0.291447 0.291447 0.291447
0.30135 0.30135 0.30135
0.311421 0.311421 0.311421
0.321645 0.321645 0.321645
0.332006 0.332006 0.332006
0.342443 0.342443 0.342443
0.352972 0.352972 0.352972
0.363577 0.363577 0.363577
0.374197 0.374197 0.374197
0.384848 0.384848 0.384848
0.395499 0.395499 0.395499
0.406134 0.406134 0.406134
0.416724 0.416724 0.416724
0.427253 0.427253 0.427253
0.437705 0.437705 0.437705
0.448218 0.448218 0.448218
0.458808 0.458808 0.458808
0.187701 0.187701 0.187701
0.195315 0.195315 0.195315
0.202991 0.202991 0.202991
0.210651 0.210651 0.210651
0.218357 0.218357 0.218357
0.226093 0.226093 0.226093
0.233997 0.233997 0.233997
0.242054 0.242054 0.242054
0.250263 0.250263 0.250263
0.258579 0.258579 0.258579
0.267048 0.267048 0.267048
0.275624 0.275624 0.275624
0.284291 0.284291 0.284291
0.293065 0.293065 0.293065
0.301976 0.301976 0.301976
0.311696 0.311696 0.311696
0.321614 0.321614 0.321614
0.33167 0.33167 0.33167
0.341878 0.341878 0.341878
0.352178 0.352178 0.352178
0.36257 0.36257 0.36257
0.373022 0.373022 0.373022
0.383536 0.383536 0.383536
0.394049 0.394049 0.394049
0.404578 0.404578 0.404578
0.415061 0.415061 0.415061
0.425513 0.425513 0.425513
0.435889 0.435889 0.435889
0.446296 0.446296 0.446296
0.456825 0.456825 0.456825
0.467414 0.467414 0.467414
0.478065 0.478065 0.478065
0.488792 0.488792 0.488792
0.213504 0.213504 0.213504
0.221195 0.221195 0.221195
0.228977 0.228977 0.228977
0.236927 0.236927 0.236927
0.244999 0.244999 0.244999
0.253254 0.253254 0.253254
0.261646 0.261646 0.261646
0.27013 0.27013 0.27013
0.278737 0.278737 0.278737
0.287449 0.287449 0.287449
0.296254 0.296254 0.296254
0.305119 0.305119 0.305119
0.314076 0.314076 0.314076
0.323095 0.323095 0.323095
0.33257 0.33257 0.33257
0.342412 0.342412 0.342412
0.352377 0.352377 0.352377
0.362463 0.362463 0.362463
0.372656 0.372656 0.372656
0.382925 0.382925 0.382925
0.39324 0.39324 0.39324
0.403571 0.403571 0.403571
0.413901 0.413901 0.413901
0.424216 0.424216 0.424216
0.43447 0.43447 0.43447
0.444755 0.444755 0.444755
0.455146 0.455146 0.455146
0.465644 0.465644 0.465644
0.476204 0.476204 0.476204
0.486854 0.486854 0.486854
0.497551 0.497551 0.497551
0.508293 0.508293 0.508293
0.519066 0.519066 0.519066
0.23975 0.23975 0.23975
0.24802 0.24802 0.24802
0.256321 0.256321 0.256321
0.264729 0.264729 0.264729
0.273259 0.273259 0.273259
0.28191 0.28191 0.28191
0.290654 0.290654 0.290654
0.299474 0.299474 0.299474
0.30837 0.30837 0.30837
0.317357 0.317357 0.317357
0.326375 0.326375 0.326375
0.335454 0.335454 0.335454
0.344549 0.344549 0.344549
0.353948 0.353948 0.353948
0.363638 0.363638 0.363638
0.373465 0.373465 0.373465
0.383383 0.383383 0.383383
0.393378 0.393378 0.393378
0.403449 0.403449 0.403449
0.41352 0.41352 0.41352
0.423606 0.423606 0.423606
0.433692 0.433692 0.433692
0.443778 0.443778 0.443778
0.454017 0.454017 0.454017
0.464363 0.464363 0.464363
0.474784 0.474784 0.474784
0.485313 0.485313 0.485313
0.495888 0.495888 0.495888
0.506539 0.506539 0.506539
0.51722 0.51722 0.51722
0.527947 0.527947 0.527947
0.538674 0.538674 0.538674
0.549416 0.549416 0.549416
0.267308 0.267308 0.267308
0.276143 0.276143 0.276143
0.284993 0.284993 0.284993
0.293858 0.293858 0.293858
0.302724 0.302724 0.302724
0.31165 0.31165 0.31165
0.320623 0.320623 0.320623
0.329686 0.329686 0.329686
0.338766 0.338766 0.338766
0.347875 0.347875 0.347875
0.357015 0.357015 0.357015
0.366186 0.366186 0.366186
0.375616 0.375616 0.375616
0.385138 0.385138 0.385138
0.394751 0.394751 0.394751
0.404456 0.404456 0.404456
0.414191 0.414191 0.414191
0.423972 0.423972 0.423972
0.433768 0.433768 0.433768
0.44361 0.44361 0.44361
0.45362 0.45362 0.45362
0.463737 0.463737 0.463737
0.47396 0.47396 0.47396
0.484306 0.484306 0.484306
0.494728 0.494728 0.494728
0.505226 0.505226 0.505226
0.515785 0.515785 0.515785
0.52639 0.52639 0.52639
0.537026 0.537026 0.537026
0.547692 0.547692 0.547692
0.558328 0.558328 0.558328
0.568994 0.568994 0.568994
0.579629 0.579629 0.579629
0.296071 0.296071 0.296071
0.305303 0.305303 0.305303
0.314519 0.314519 0.314519
0.32372 0.32372 0.32372
0.332906 0.332906 0.332906
0.342077 0.342077 0.342077
0.351217 0.351217 0.351217
0.360388 0.360388 0.360388
0.369574 0.369574 0.369574
0.378759 0.378759 0.378759
0.388006 0.388006 0.388006
0.397299 0.397299 0.397299
0.406638 0.406638 0.406638
0.416022 0.416022 0.416022
0.425452 0.425452 0.425452
0.434897 0.434897 0.434897
0.444434 0.444434 0.444434
0.454124 0.454124 0.454124
0.463981 0.463981 0.463981
0.47396 0.47396 0.47396
0.484062 0.484062 0.484062
0.49427 0.49427 0.49427
0.504555 0.504555 0.504555
0.514931 0.514931 0.514931
0.525368 0.525368 0.525368
0.535851 0.535851 0.535851
0.546365 0.546365 0.546365
0.556924 0.556924 0.556924
0.567468 0.567468 0.567468
0.578027 0.578027 0.578027
0.58854 0.58854 0.58854
0.599023 0.599023 0.599023
0.609476 0.609476 0.609476
0.325719 0.325719 0.325719
0.335225 0.335225 0.335225
0.344671 0.344671 0.344671
0.354101 0.354101 0.354101
0.363455 0.363455 0.363455
0.372763 0.372763 0.372763
0.38204 0.38204 0.38204
0.391257 0.391257 0.391257
0.400458 0.400458 0.400458
0.409628 0.409628 0.409628
0.418784 0.418784 0.418784
0.427955 0.427955 0.427955
0.437095 0.437095 0.437095
0.446342 0.446342 0.446342
0.455741 0.455741 0.455741
0.465278 0.465278 0.465278
0.474968 0.474968 0.474968
0.484764 0.484764 0.484764
0.494697 0.494697 0.494697
0.504738 0.504738 0.504738
0.514855 0.514855 0.514855
0.525078 0.525078 0.525078
0.535363 0.535363 0.535363
0.545693 0.545693 0.545693
0.556054 0.556054 0.556054
0.566445 0.566445 0.566445
0.576852 0.576852 0.576852
0.587259 0.587259 0.587259
0.59765 0.59765 0.59765
0.607996 0.607996 0.607996
0.618296 0.618296 0.618296
0.628534 0.628534 0.628534
0.638712 0.638712 0.638712
0.355856 0.355856 0.355856
0.365499 0.365499 0.365499
0.375082 0.375082 0.375082
0.384573 0.384573 0.384573
0.393988 0.393988 0.393988
0.403326 0.403326 0.403326
0.412573 0.412573 0.412573
0.421729 0.421729 0.421729
0.430838 0.430838 0.430838
0.439872 0.439872 0.439872
0.448997 0.448997 0.448997
0.458213 0.458213 0.458213
0.467536 0.467536 0.467536
0.476951 0.476951 0.476951
0.486488 0.486488 0.486488
0.496117 0.496117 0.496117
0.505882 0.505882 0.505882
0.515724 0.515724 0.515724
0.525673 0.525673 0.525673
0.535683 0.535683 0.535683
0.545754 0.545754 0.545754
0.555917 0.555917 0.555917
0.56611 0.56611 0.56611
0.576318 0.576318 0.576318
0.586542 0.586542 0.586542
0.596765 0.596765 0.596765
0.606989 0.606989 0.606989
0.617151 0.617151 0.617151
0.627314 0.627314 0.627314
0.637385 0.637385 0.637385
0.647379 0.647379 0.647379
0.657313 0.657313 0.657313
0.667124 0.667124 0.667124
0.386099 0.386099 0.386099
0.395773 0.395773 0.395773
0.405341 0.405341 0.405341
0.414786 0.414786 0.414786
0.424125 0.424125 0.424125
0.433356 0.433356 0.433356
0.442496 0.442496 0.442496
0.451682 0.451682 0.451682
0.460914 0.460914 0.460914
0.470192 0.470192 0.470192
0.479515 0.479515 0.479515
0.488899 0.488899 0.488899
0.498344 0.498344 0.498344
0.507866 0.507866 0.507866
0.517479 0.517479 0.517479
0.527169 0.527169 0.527169
0.536919 0.536919 0.536919
0.546761 0.546761 0.546761
0.556619 0.556619 0.556619
0.566567 0.566567 0.566567
0.576547 0.576547 0.576547
0.586557 0.586557 0.586557
0.596567 0.596567 0.596567
0.606577 0.606577 0.606577
0.616602 0.616602 0.616602
0.626566 0.626566 0.626566
0.63653 0.63653 0.63653
0.646403 0.646403 0.646403
0.656214 0.656214 0.656214
0.665949 0.665949 0.665949
0.675578 0.675578 0.675578
0.6851 0.6851 0.6851
0.694499 0.694499 0.694499
0.416083 0.416083 0.416083
0.42565 0.42565 0.42565
0.43508 0.43508 0.43508
0.44445 0.44445 0.44445
0.453803 0.453803 0.453803
0.463188 0.463188 0.463188
0.472602 0.472602 0.472602
0.482002 0.482002 0.482002
0.491402 0.491402 0.491402
0.500847 0.500847 0.500847
0.510292 0.510292 0.510292
0.519799 0.519799 0.519799
0.52932 0.52932 0.52932
0.538903 0.538903 0.538903
0.548501 0.548501 0.548501
0.55816 0.55816 0.55816
0.567849 0.567849 0.567849
0.577585 0.577585 0.577585
0.58735 0.58735 0.58735
0.597131 0.597131 0.597131
0.606943 0.606943 0.606943
0.616724 0.616724 0.616724
0.626505 0.626505 0.626505
0.636255 0.636255 0.636255
0.64596 0.64596 0.64596
0.655634 0.655634 0.655634
0.665217 0.665217 0.665217
0.674739 0.674739 0.674739
0.684153 0.684153 0.684153
0.693446 0.693446 0.693446
0.702617 0.702617 0.702617
0.711666 0.711666 0.711666
0.720562 0.720562 0.720562
0.445548 0.445548 0.445548
0.455116 0.455116 0.455116
0.464714 0.464714 0.464714
0.474311 0.474311 0.474311
0.483894 0.483894 0.483894
0.493477 0.493477 0.493477
0.503029 0.503029 0.503029
0.512566 0.512566 0.512566
0.522118 0.522118 0.522118
0.53164 0.53164 0.53164
0.541161 0.541161 0.541161
0.550698 0.550698 0.550698
0.560204 0.560204 0.560204
0.569757 0.569757 0.569757
0.579324 0.579324 0.579324
0.588861 0.588861 0.588861
0.598428 0.598428 0.598428
0.608026 0.608026 0.608026
0.617594 0.617594 0.617594
0.627146 0.627146 0.627146
0.636667 0.636667 0.636667
0.646189 0.646189 0.646189
0.655665 0.655665 0.655665
0.66508 0.66508 0.66508
0.674418 0.674418 0.674418
0.683696 0.683696 0.683696
0.692851 0.692851 0.692851
0.701915 0.701915 0.701915
0.710842 0.710842 0.710842
0.719646 0.719646 0.719646
0.728298 0.728298 0.728298
0.736828 0.736828 0.736828
0.745235 0.745235 0.745235
0.475242 0.475242 0.475242
0.485039 0.485039 0.485039
0.494804 0.494804 0.494804
0.50454 0.50454 0.50454
0.51426 0.51426 0.51426
0.523919 0.523919 0.523919
0.533593 0.533593 0.533593
0.543191 0.543191 0.543191
0.552758 0.552758 0.552758
0.56231 0.56231 0.56231
0.571832 0.571832 0.571832
0.581323 0.581323 0.581323
0.590784 0.590784 0.590784
0.600214 0.600214 0.600214
0.609644 0.609644 0.609644
0.619028 0.619028 0.619028
0.628412 0.628412 0.628412
0.637751 0.637751 0.637751
0.647059 0.647059 0.647059
0.656321 0.656321 0.656321
0.665553 0.665553 0.665553
0.674708 0.674708 0.674708
0.683787 0.683787 0.683787
0.692775 0.692775 0.692775
0.701701 0.701701 0.701701
0.710475 0.710475 0.710475
0.719173 0.719173 0.719173
0.727718 0.727718 0.727718
0.736141 0.736141 0.736141
0.744427 0.744427 0.744427
0.752605 0.752605 0.752605
0.760647 0.760647 0.760647
0.768536 0.768536 0.768536
0.505318 0.505318 0.505318
0.515221 0.515221 0.515221
0.525078 0.525078 0.525078
0.53492 0.53492 0.53492
0.544686 0.544686 0.544686
0.554391 0.554391 0.554391
0.56405 0.56405 0.56405
0.573663 0.573663 0.573663
0.583215 0.583215 0.583215
0.592691 0.592691 0.592691
0.602121 0.602121 0.602121
0.611505 0.611505 0.611505
0.620813 0.620813 0.620813
0.630091 0.630091 0.630091
0.639292 0.639292 0.639292
0.648463 0.648463 0.648463
0.657557 0.657557 0.657557
0.666606 0.666606 0.666606
0.675593 0.675593 0.675593
0.684474 0.684474 0.684474
0.693324 0.693324 0.693324
0.702052 0.702052 0.702052
0.710674 0.710674 0.710674
0.719203 0.719203 0.719203
0.727596 0.727596 0.727596
0.735882 0.735882 0.735882
0.744076 0.744076 0.744076
0.752132 0.752132 0.752132
0.760067 0.760067 0.760067
0.76788 0.76788 0.76788
0.775586 0.775586 0.775586
0.783139 0.783139 0.783139
0.79057 0.79057 0.79057
0.535546 0.535546 0.535546
0.545495 0.545495 0.545495
0.555383 0.555383 0.555383
0.565194 0.565194 0.565194
0.574929 0.574929 0.574929
0.584619 0.584619 0.584619
0.594217 0.594217 0.594217
0.603738 0.603738 0.603738
0.613169 0.613169 0.613169
0.622522 0.622522 0.622522
0.631785 0.631785 0.631785
0.640955 0.640955 0.640955
0.65008 0.65008 0.65008
0.659098 0.659098 0.659098
0.66804 0.66804 0.66804
0.676875 0.676875 0.676875
0.685634 0.685634 0.685634
0.694331 0.694331 0.694331
0.702907 0.702907 0.702907
0.71136 0.71136 0.71136
0.719738 0.719738 0.719738
0.727977 0.727977 0.727977
0.736141 0.736141 0.736141
0.744167 0.744167 0.744167
0.752087 0.752087 0.752087
0.759899 0.759899 0.759899
0.767605 0.767605 0.767605
0.775189 0.775189 0.775189
0.782666 0.782666 0.782666
0.790005 0.790005 0.790005
0.797238 0.797238 0.797238
0.804334 0.804334 0.804334
0.811322 0.811322 0.811322
0.565698 0.565698 0.565698
0.575601 0.575601 0.575601
0.585428 0.585428 0.585428
0.595178 0.595178 0.595178
0.604822 0.604822 0.604822
0.614374 0.614374 0.614374
0.623835 0.623835 0.623835
0.633173 0.633173 0.633173
0.642435 0.642435 0.642435
0.65156 0.65156 0.65156
0.660594 0.660594 0.660594
0.66952 0.66952 0.66952
0.678325 0.678325 0.678325
0.687022 0.687022 0.687022
0.695613 0.695613 0.695613
0.704097 0.704097 0.704097
0.712444 0.712444 0.712444
0.720684 0.720684 0.720684
0.728801 0.728801 0.728801
0.736797 0.736797 0.736797
0.744717 0.744717 0.744717
0.752483 0.752483 0.752483
0.760174 0.760174 0.760174
0.767742 0.767742 0.767742
0.775204 0.775204 0.775204
0.782559 0.782559 0.782559
0.789807 0.789807 0.789807
0.796933 0.796933 0.796933
0.803952 0.803952 0.803952
0.810849 0.810849 0.810849
0.817639 0.817639 0.817639
0.824308 0.824308 0.824308
0.830854 0.830854 0.830854
0.59556 0.59556 0.59556
0.605341 0.605341 0.605341
0.61503 0.61503 0.61503
0.624643 0.624643 0.624643
0.634104 0.634104 0.634104
0.643458 0.643458 0.643458
0.652689 0.652689 0.652689
0.661799 0.661799 0.661799
0.670787 0.670787 0.670787
0.679622 0.679622 0.679622
0.68835 0.68835 0.68835
0.696925 0.696925 0.696925
0.705364 0.705364 0.705364
0.713664 0.713664 0.713664
0.721813 0.721813 0.721813
0.729854 0.729854 0.729854
0.737774 0.737774 0.737774
0.745571 0.745571 0.745571
0.753246 0.753246 0.753246
0.7608 0.7608 0.7608
0.768246 0.768246 0.768246
0.775601 0.775601 0.775601
0.782849 0.782849 0.782849
0.789975 0.789975 0.789975
0.796994 0.796994 0.796994
0.803906 0.803906 0.803906
0.810712 0.810712 0.810712
0.817395 0.817395 0.817395
0.823987 0.823987 0.823987
0.830472 0.830472 0.830472
0.836835 0.836835 0.836835
0.843076 0.843076 0.843076
0.849226 0.849226 0.849226
0.624872 0.624872 0.624872
0.634485 0.634485 0.634485
0.643961 0.643961 0.643961
0.65333 0.65333 0.65333
0.662531 0.662531 0.662531
0.671626 0.671626 0.671626
0.680552 0.680552 0.680552
0.689357 0.689357 0.689357
0.697993 0.697993 0.697993
0.706447 0.706447 0.706447
0.714778 0.714778 0.714778
0.722927 0.722927 0.722927
0.730953 0.730953 0.730953
0.738827 0.738827 0.738827
0.746578 0.746578 0.746578
0.754192 0.754192 0.754192
0.761669 0.761669 0.761669
0.769039 0.769039 0.769039
0.776287 0.776287 0.776287
0.783429 0.783429 0.783429
0.790463 0.790463 0.790463
0.797375 0.797375 0.797375
0.804181 0.804181 0.804181
0.810895 0.810895 0.810895
0.817487 0.817487 0.817487
0.823987 0.823987 0.823987
0.830365 0.830365 0.830365
0.836652 0.836652 0.836652
