lut/a2e17396-8632-4954-ad14-ee44db947d7a.cube
TITLE "Cinematic"
LUT_3D_SIZE 16
0.000000 -0.001769 -0.000200
-0.006123 -0.001268 -0.000157
-0.016192 -0.002886 -0.000087
0.123809 0.010754 -0.001135
0.274249 0.035295 0.005332
0.453099 0.030806 0.007312
0.616829 0.030623 0.004983
0.765469 0.025047 0.003393
0.891868 0.015287 -0.000721
0.969322 0.007221 -0.000112
0.966344 0.007814 0.000000
0.966340 0.007820 0.000000
0.966340 0.007820 0.000000
0.966340 0.007820 0.000000
0.966261 0.007820 0.000000
0.968504 0.007815 0.000000
-0.000057 -0.015499 -0.004809
-0.005115 -0.014795 -0.004171
-0.019713 -0.012420 -0.002874
0.101055 -0.009111 -0.001533
0.244613 0.034239 0.004192
0.427402 0.028596 0.007397
0.594555 0.029345 0.005462
0.748696 0.024757 0.003798
0.876806 0.016036 -0.000733
0.964415 0.007522 -0.000155
0.966525 0.007787 0.000000
0.966340 0.007820 0.000000
0.966340 0.007820 0.000000
0.966340 0.007820 0.000000
0.966261 0.007820 0.000000
0.968504 0.007815 0.000000
-0.002482 0.069916 0.021854
-0.005090 0.063074 0.018929
-0.021534 0.038106 0.006967
0.104779 0.042100 -0.006424
0.221879 0.059360 -0.003856
0.390396 0.059788 0.007125
0.559280 0.051109 0.006234
0.719452 0.036403 0.004181
0.851512 0.012776 -0.000606
0.955188 -0.018138 -0.000296
0.966890 -0.013622 0.000000
0.966332 -0.009377 0.000000
0.966337 -0.005621 0.000000
0.966339 0.003817 0.000000
0.966258 0.006127 0.000000
0.968501 0.006851 0.000000
0.007006 0.160702 0.034859
-0.006487 0.155466 0.035452
0.019400 0.139372 0.035114
0.059760 0.109691 0.029801
0.218967 0.114492 -0.010556
0.360017 0.121324 -0.006256
0.520321 0.120878 0.005081
0.682699 0.110444 0.005141
0.821799 0.091592 0.002022
0.940976 0.067907 -0.000417
0.967706 0.047146 0.000000
0.966325 0.032720 0.000000
0.966261 0.023197 0.000000
0.966251 0.006993 0.000000
0.966316 -0.014027 0.000000
0.968498 -0.016871 0.000000
0.039385 0.263123 0.029227
0.038211 0.258302 0.028988
0.042727 0.250245 0.025607
0.105987 0.210815 0.047720
0.181355 0.194034 0.050482
0.345117 0.211532 -0.014828
0.488732 0.206496 -0.008550
0.645307 0.199162 0.002831
0.791036 0.180864 0.002055
0.916853 0.157217 -0.000407
0.969885 0.136070 0.000000
0.967512 0.120418 0.000000
0.967194 0.110354 0.000000
0.967069 0.099181 0.000000
0.966811 0.089955 0.000000
0.969074 0.081653 0.000000
0.056146 0.372605 0.040183
0.055419 0.367867 0.039662
0.051035 0.359434 0.038671
0.100268 0.350309 0.030820
0.161073 0.298004 0.070889
0.272596 0.295226 0.067197
0.455524 0.310531 -0.017724
0.611857 0.300192 -0.010200
0.761975 0.282754 -0.001318
0.886883 0.258814 -0.000263
0.970532 0.233205 0.000000
0.970291 0.214347 0.000000
0.969566 0.201572 0.000000
0.969097 0.187604 0.000000
0.968732 0.175200 0.000000
0.970542 0.164093 0.000000
0.069731 0.485453 0.052542
0.069268 0.480673 0.052014
0.067640 0.473433 0.051302
0.076244 0.465434 0.046004
0.163138 0.451892 0.040357
0.204700 0.391428 0.103210
0.364000 0.401695 0.079711
0.587994 0.418165 -0.021982
0.728124 0.393976 -0.011156
0.858546 0.367056 -0.000741
0.963152 0.338980 0.000000
0.975379 0.317391 0.000000
0.973866 0.301875 0.000000
0.973089 0.285755 0.000000
0.972215 0.270804 0.000000
0.973739 0.255826 0.000000
0.079959 0.597664 0.064195
0.079654 0.593518 0.063777
0.078991 0.586928 0.063171
0.074860 0.576869 0.062097
0.137455 0.568340 0.054146
0.216903 0.545964 0.062536
0.257654 0.493984 0.126538
0.460262 0.508436 0.087131
0.697922 0.517098 -0.025298
0.831784 0.483962 -0.011648
0.944189 0.450061 0.000000
0.983313 0.423780 0.000000
0.980440 0.405784 0.000000
0.979104 0.387594 0.000000
0.977857 0.369959 0.000000
0.978847 0.352083 0.000000
0.086687 0.704903 0.073792
0.086519 0.701042 0.073484
0.086241 0.695458 0.073042
0.084201 0.686558 0.072477
0.109627 0.678554 0.066648
0.193170 0.667278 0.061059
0.256843 0.633890 0.092609
0.322540 0.594275 0.145149
0.559596 0.612000 0.090116
0.802562 0.610905 -0.027378
0.923006 0.570981 -0.011748
0.993065 0.535534 0.000000
0.989211 0.513634 0.000000
0.987321 0.492641 0.000000
0.985398 0.472333 0.000000
0.985984 0.450869 0.000000
0.089475 0.804212 0.081920
0.089467 0.800837 0.081664
0.089427 0.796186 0.081266
0.088977 0.788653 0.080754
0.090134 0.779612 0.078950
0.159502 0.771721 0.071857
0.245335 0.760075 0.065537
0.281487 0.714236 0.129812
0.392867 0.687156 0.163232
0.660103 0.710169 0.089083
0.895659 0.699811 -0.029081
0.992537 0.655440 -0.012241
0.999789 0.627566 -0.000041
0.997323 0.602808 0.000000
0.994977 0.579393 0.000000
0.994894 0.554208 0.000000
0.089637 0.890843 0.088586
0.089667 0.887560 0.088351
0.089746 0.883648 0.088074
0.089788 0.877876 0.087695
0.087667 0.869808 0.087339
0.123079 0.863414 0.080459
0.204803 0.854478 0.076532
0.291518 0.841613 0.074236
0.315237 0.792147 0.157267
0.469892 0.772538 0.179186
0.749300 0.797512 0.091886
0.963062 0.781034 -0.030845
1.003921 0.745008 -0.013109
1.000861 0.717587 -0.001379
1.000368 0.691009 -0.000465
1.002683 0.662874 -0.000157
0.084685 0.961839 0.090986
0.084931 0.959548 0.090988
0.085220 0.956889 0.090971
0.085658 0.952630 0.090963
0.085283 0.946540 0.090722
0.092972 0.939893 0.089199
0.164986 0.934336 0.082332
0.246998 0.925609 0.078449
0.328160 0.909065 0.090499
0.365670 0.865191 0.175400
0.553510 0.850673 0.190434
0.831433 0.874605 0.098175
0.973698 0.858279 -0.032750
0.991170 0.831968 -0.017106
1.000023 0.805210 -0.010072
1.003350 0.773564 -0.006115
0.084793 0.960265 0.090937
0.084780 0.960314 0.090937
0.084771 0.960461 0.090937
0.084755 0.960669 0.090941
0.084538 0.960837 0.090926
0.081666 0.961022 0.090213
0.129664 0.963002 0.085119
0.207567 0.962427 0.082504
0.295569 0.960504 0.077593
0.341054 0.935529 0.129446
0.447610 0.910113 0.184965
0.637154 0.899976 0.202245
0.886516 0.929913 0.108074
0.940120 0.920989 0.058036
0.953503 0.900696 0.031979
0.971534 0.873183 -0.017372
0.084798 0.960232 0.090938
0.084798 0.960232 0.090938
0.084798 0.960232 0.090938
0.084798 0.960232 0.090938
0.084777 0.960232 0.090947
0.082595 0.960117 0.090558
0.108759 0.961909 0.087573
0.184795 0.963465 0.083050
0.264540 0.963240 0.080906
0.346453 0.957726 0.089417
0.377916 0.921738 0.179453
0.563133 0.916394 0.193386
0.769585 0.924403 0.176023
0.898763 0.946997 0.115831
0.895168 0.946084 0.116729
0.913352 0.939679 0.098952
0.084798 0.960232 0.090938
0.084798 0.960232 0.090938
0.084798 0.960232 0.090938
0.084798 0.960232 0.090938
0.084798 0.960232 0.090938
0.083788 0.960157 0.090798
0.094946 0.961001 0.089725
0.166293 0.963390 0.083416
0.242073 0.963068 0.082221
0.332958 0.962778 0.076550
0.344344 0.927324 0.164421
0.504894 0.918026 0.187902
0.686076 0.914604 0.198551
0.885486 0.943331 0.122918
0.896440 0.945632 0.117385
0.898119 0.945639 0.118109
0.086190 0.972552 0.092387
0.086168 0.972552 0.092377
0.085141 0.972552 0.092110
0.077614 0.972550 0.090256
0.029227 0.972547 0.082997
-0.089343 0.972514 0.082233
-0.134437 0.972820 0.080690
-0.131295 0.975706 0.073713
0.054080 0.975356 0.076931
0.225257 0.975340 0.080085
0.271340 0.950722 0.139133
0.410247 0.931051 0.187520
0.606093 0.925446 0.203667
0.836939 0.947952 0.145889
0.890589 0.957794 0.118882
0.892183 0.957600 0.119511
-0.019071 -0.248093 -0.020964
-0.019345 -0.248093 -0.020707
-0.021696 -0.248095 -0.020775
0.128217 -0.248035 -0.019812
0.275655 -0.247301 -0.016531
0.457270 -0.247554 -0.018281
0.623888 -0.247853 -0.020044
0.774141 -0.248486 -0.019140
0.900791 -0.248835 -0.018615
0.980105 -0.246869 -0.022592
0.977565 -0.241370 -0.031993
0.976414 -0.235819 -0.040202
0.973917 -0.235187 -0.041360
0.970665 -0.239073 -0.035016
0.968824 -0.242375 -0.028167
0.970730 -0.243165 -0.026467
-0.000101 -0.014925 -0.004386
-0.004488 -0.013400 -0.002646
-0.022070 -0.011970 -0.003192
0.100619 -0.009497 -0.002728
0.242305 0.034341 0.007961
0.425939 0.028913 0.008053
0.593398 0.029490 0.005311
0.747687 0.024904 0.003809
0.875995 0.016194 -0.000735
0.963666 0.007661 -0.000157
0.966564 0.007785 0.000000
0.966340 0.007820 0.000000
0.966340 0.007820 0.000000
0.966340 0.007820 0.000000
0.966261 0.007820 0.000000
0.968504 0.007815 0.000000
-0.002336 0.061232 0.024037
-0.004722 0.057810 0.020787
-0.021305 0.037504 0.008056
0.102246 0.040224 -0.006377
0.219259 0.057951 -0.003942
0.388503 0.058089 0.007111
0.557798 0.049193 0.006253
0.718334 0.035073 0.004165
0.850435 0.010140 -0.000595
0.954710 -0.017635 -0.000305
0.966938 -0.013170 0.000000
0.966332 -0.008900 0.000000
0.966338 -0.004998 0.000000
0.966339 0.004310 0.000000
0.966257 0.006216 0.000000
0.968500 0.006841 0.000000
0.005494 0.158869 0.035032
-0.006779 0.153829 0.035564
0.017593 0.138485 0.034638
0.056637 0.108129 0.029324
0.216779 0.112873 -0.010464
0.358057 0.119780 -0.006195
0.518684 0.119301 0.005190
0.681385 0.108919 0.005165
0.820587 0.090008 0.002088
0.939963 0.066040 -0.000430
0.967784 0.045343 0.000000
0.966304 0.030898 0.000000
0.966334 0.021432 0.000000
0.966261 -0.005266 0.000000
0.966330 -0.014157 0.000000
0.968519 -0.016430 0.000000
0.039076 0.261306 0.029121
0.037971 0.256811 0.028915
0.041461 0.248652 0.025679
0.104750 0.209825 0.047324
0.179517 0.192431 0.050124
0.343647 0.209873 -0.014762
0.487025 0.204736 -0.008516
0.643830 0.197507 0.002899
0.789805 0.179414 0.002099
0.915819 0.155841 -0.000419
0.969902 0.134668 0.000000
0.967486 0.119063 0.000000
0.967080 0.109164 0.000000
0.967045 0.098237 0.000000
0.966883 0.089275 0.000000
0.969058 0.081299 0.000000
0.055909 0.370940 0.039996
0.055228 0.366470 0.039505
0.050978 0.358017 0.038511
0.098912 0.348928 0.030656
0.160202 0.296878 0.070265
0.271258 0.293759 0.066954
0.454019 0.308924 -0.017728
0.610314 0.298602 -0.010180
0.760475 0.281270 -0.001314
0.885814 0.257409 -0.000270
0.970351 0.231804 0.000000
0.970125 0.212883 0.000000
0.969473 0.200231 0.000000
0.969037 0.186426 0.000000
0.968713 0.174333 0.000000
0.970479 0.163424 0.000000
0.069595 0.483922 0.052364
0.069163 0.479375 0.051860
0.067561 0.472197 0.051143
0.074907 0.464006 0.046110
0.161963 0.450563 0.040024
0.204029 0.390153 0.102819
0.362774 0.400267 0.079577
0.587056 0.416835 -0.021940
0.726807 0.392563 -0.011150
0.857382 0.365749 -0.000747
0.962776 0.337564 0.000000
0.975323 0.316029 0.000000
0.973707 0.300496 0.000000
0.972856 0.284566 0.000000
0.972157 0.269688 0.000000
0.973663 0.254942 0.000000
0.079852 0.596165 0.064035
0.079550 0.592303 0.063658
0.078924 0.585701 0.063049
0.074655 0.575563 0.062038
0.136325 0.567057 0.054057
0.216110 0.544846 0.062024
0.256835 0.492438 0.126222
0.458899 0.506896 0.087090
0.696696 0.515651 -0.025265
0.830674 0.482513 -0.011643
0.943273 0.448789 0.000000
0.983301 0.422378 0.000000
0.980239 0.404456 0.000000
0.978962 0.386142 0.000000
0.977784 0.368862 0.000000
0.978750 0.351039 0.000000
0.086645 0.703517 0.073686
0.086467 0.699813 0.073391
0.086199 0.694257 0.072952
0.084213 0.685345 0.072402
0.108633 0.677303 0.066638
0.192233 0.666089 0.061025
0.256485 0.632922 0.091904
0.321343 0.592952 0.144928
0.558351 0.610737 0.090091
0.801043 0.609676 -0.027354
0.921847 0.569738 -0.011745
0.992795 0.534177 0.000000
0.989035 0.512280 0.000000
0.987194 0.491305 0.000000
0.985206 0.471085 0.000000
0.985835 0.449905 0.000000
0.089468 0.803113 0.081827
0.089443 0.799902 0.081555
0.089439 0.795002 0.081183
0.088984 0.787659 0.080656
0.089727 0.778211 0.078943
0.158532 0.770599 0.071770
0.244345 0.758869 0.065502
0.281135 0.713184 0.129351
0.391801 0.686010 0.163013
0.658888 0.709047 0.089075
0.894686 0.698573 -0.029050
0.991889 0.654235 -0.012224
0.999618 0.626072 -0.000039
0.997082 0.601524 0.000000
0.994811 0.578122 0.000000
0.994745 0.553186 0.000000
0.089658 0.889659 0.088503
0.089688 0.886700 0.088290
0.089760 0.882844 0.088006
0.089796 0.876861 0.087622
0.087716 0.868927 0.087273
0.122197 0.862459 0.080464
0.204083 0.853627 0.076492
0.290836 0.840699 0.074033
0.314712 0.791096 0.156895
0.468805 0.771329 0.178987
0.748189 0.796538 0.091751
0.962572 0.779886 -0.030819
1.003837 0.743582 -0.013098
1.000857 0.716294 -0.001326
1.000368 0.689757 -0.000438
1.002678 0.661652 -0.000143
0.084761 0.961107 0.091003
0.085011 0.958804 0.090969
0.085320 0.955923 0.090975
0.085738 0.951947 0.090920
0.085408 0.945843 0.090732
0.092754 0.938968 0.089246
0.164340 0.933539 0.082302
0.246319 0.924831 0.078435
0.327681 0.908352 0.090243
0.364682 0.864209 0.175135
0.552360 0.849550 0.190320
0.830357 0.873437 0.098117
0.973679 0.857226 -0.032747
0.991897 0.830665 -0.016992
1.000064 0.803759 -0.009870
1.003354 0.772378 -0.005944
0.084786 0.960320 0.090948
0.084775 0.960372 0.090936
0.084771 0.960429 0.090935
0.084750 0.960639 0.090941
0.084547 0.960900 0.090930
0.081476 0.960888 0.090213
0.129003 0.963051 0.085174
0.206968 0.962160 0.082495
0.294776 0.960416 0.077630
0.340987 0.935470 0.128678
0.446182 0.909716 0.184861
0.635746 0.899515 0.202030
0.886197 0.929486 0.107844
0.940703 0.920389 0.056788
0.954024 0.899640 0.030495
0.972029 0.872364 -0.017579
0.084798 0.960232 0.090938
0.084798 0.960232 0.090938
0.084798 0.960232 0.090938
0.084798 0.960232 0.090938
0.084780 0.960235 0.090948
0.082645 0.960124 0.090568
0.108186 0.961855 0.087652
0.184032 0.963482 0.083062
0.263592 0.963281 0.080982
0.346203 0.957913 0.088697
0.376695 0.921925 0.178887
0.561107 0.916597 0.193181
0.767144 0.924206 0.176874
0.898731 0.947237 0.115692
0.895951 0.945735 0.115948
0.914301 0.939352 0.097939
0.084798 0.960232 0.090938
0.084798 0.960232 0.090938
0.084798 0.960232 0.090938
0.084798 0.960232 0.090938
0.084798 0.960232 0.090938
0.083819 0.960159 0.090800
0.094709 0.960937 0.089788
0.165642 0.963398 0.083417
0.241268 0.962912 0.082258
0.332611 0.963085 0.076053
0.343601 0.927647 0.163413
0.502904 0.918112 0.187756
0.684300 0.914554 0.198544
0.884467 0.943246 0.123621
0.896469 0.945663 0.117377
0.898078 0.945665 0.118135
0.086190 0.972552 0.092217
0.086110 0.972552 0.092019
0.085130 0.972551 0.091444
0.078287 0.972548 0.089482
0.039443 0.972542 0.082429
-0.084548 0.972508 0.080446
-0.130810 0.972838 0.079082
-0.128286 0.975727 0.072428
0.060494 0.975361 0.077585
0.224739 0.975223 0.079652
0.271244 0.951188 0.138156
0.408135 0.931167 0.187431
0.604328 0.925464 0.203465
0.834663 0.947587 0.147114
0.890587 0.957722 0.118851
0.892187 0.957600 0.119511
-0.019071 -0.248093 0.035934
-0.020071 -0.248093 0.039613
0.037829 -0.248100 0.084534
0.121516 -0.247746 0.076977
0.267613 -0.246763 0.099630
0.439739 -0.246606 0.108718
0.608588 -0.246890 0.100281
0.766111 -0.247999 0.080133
0.896209 -0.248684 0.053707
0.978885 -0.246858 0.027264
0.977135 -0.241409 -0.027311
0.976117 -0.235863 -0.038890
0.973739 -0.235138 -0.040941
0.970699 -0.239004 -0.034996
0.968781 -0.242339 -0.028204
0.970619 -0.243163 -0.026446
-0.000095 -0.010767 0.039650
-0.007343 -0.011240 0.033795
-0.009320 -0.011911 0.068430
0.098209 0.015391 0.059568
0.237114 0.041069 0.079267
0.409975 0.044471 0.088000
0.579911 0.045222 0.080680
0.741016 0.035821 0.062518
0.872195 0.022937 0.039595
0.962714 0.011165 0.019317
0.966447 0.009765 0.009258
0.966232 0.008453 0.003321
0.966282 0.007980 -0.002222
0.966350 0.007793 -0.001519
0.966267 0.007805 -0.000833
0.968509 0.007804 -0.000549
-0.005775 0.044786 0.062419
-0.007245 0.038544 0.057039
-0.012577 0.053564 0.064160
0.093334 0.045757 0.044663
0.213624 0.061680 0.053752
0.377199 0.064183 0.055688
0.550684 0.052430 0.044294
0.714818 0.037221 0.029044
0.848548 0.009618 0.006216
0.953766 -0.016579 -0.006402
0.967030 -0.012373 -0.003332
0.966342 -0.008102 -0.001565
0.966342 -0.004122 -0.000690
0.966340 0.004442 -0.000214
0.966257 0.005967 0.000000
0.968499 0.006463 0.000000
0.024716 0.121731 0.079328
0.020823 0.117572 0.075150
0.023065 0.133185 0.063184
0.058913 0.107994 0.050172
0.215766 0.111325 -0.006472
0.353441 0.118691 0.017614
0.515449 0.116563 0.007896
0.679076 0.105246 -0.006488
0.818651 0.086457 -0.004139
0.939029 0.062523 -0.001778
0.967745 0.042082 -0.000372
0.966327 0.027713 0.000000
0.966311 0.019141 0.000000
0.966231 -0.004141 0.000000
0.966347 -0.012199 0.000000
0.968581 -0.013515 0.000000
0.056853 0.245015 0.060727
0.053266 0.241786 0.056443
0.044813 0.241354 0.041565
0.103951 0.210715 0.049610
0.176234 0.189506 0.050841
0.340692 0.206440 -0.015056
0.483953 0.201376 -0.008793
0.641276 0.194146 0.002496
0.787962 0.176286 0.002213
0.913893 0.153109 -0.000448
0.969818 0.132100 0.000000
0.967443 0.116959 0.000000
0.967132 0.107629 0.000000
0.967094 0.097890 0.000000
0.966904 0.090019 0.000000
0.969067 0.083395 0.000000
0.055001 0.367946 0.038344
0.054420 0.363640 0.038006
0.050608 0.355420 0.037538
0.095783 0.346371 0.030017
0.158538 0.294755 0.069125
0.268941 0.291008 0.066487
0.451357 0.305996 -0.017734
0.607820 0.295577 -0.010145
0.758471 0.278569 -0.001299
0.883909 0.254760 -0.000291
0.970024 0.229399 0.000000
0.970110 0.210885 0.000000
0.969441 0.198615 0.000000
0.969059 0.185758 0.000000
0.968738 0.174511 0.000000
0.970492 0.164724 0.000000
0.069299 0.480961 0.052032
0.068902 0.476812 0.051577
0.067439 0.469891 0.050885
0.071973 0.461493 0.046328
0.159679 0.448633 0.039614
0.202835 0.388020 0.102103
0.360770 0.397980 0.079354
0.585382 0.414485 -0.021894
0.724608 0.389995 -0.011145
0.855635 0.363304 -0.000765
0.962173 0.335385 0.000000
0.975327 0.314061 0.000000
0.973623 0.299008 0.000000
0.972903 0.283598 0.000000
0.972064 0.269293 0.000000
0.973709 0.255504 0.000000
0.079667 0.593850 0.063806
0.079370 0.589834 0.063425
0.078811 0.583833 0.062856
0.074163 0.573575 0.061982
0.134079 0.565061 0.053923
0.214798 0.543348 0.061176
0.255209 0.490424 0.125794
0.456714 0.504940 0.087100
0.694661 0.513657 -0.025226
0.828954 0.480592 -0.011648
0.941974 0.447019 0.000000
0.983078 0.420641 0.000000
0.980310 0.402866 0.000000
0.978922 0.385099 0.000000
0.977656 0.368077 0.000000
0.978734 0.351036 0.000000
0.086563 0.701654 0.073514
0.086366 0.697703 0.073207
0.086123 0.692695 0.072828
0.084244 0.683639 0.072266
0.106725 0.675424 0.066683
0.190660 0.664314 0.060945
0.255959 0.631813 0.090625
0.319717 0.591299 0.144591
0.556399 0.608941 0.090160
0.799415 0.607865 -0.027331
0.920204 0.567956 -0.011742
0.992434 0.532400 0.000000
0.989094 0.510532 0.000000
0.987058 0.490209 0.000000
0.985432 0.470412 0.000000
0.985848 0.449846 0.000000
0.089464 0.801501 0.081700
0.089427 0.798121 0.081420
0.089416 0.793579 0.081073
0.089007 0.785931 0.080543
0.089125 0.776740 0.078945
0.157012 0.769074 0.071685
0.243183 0.757378 0.065483
0.280688 0.711981 0.128584
0.390259 0.684468 0.162725
0.657361 0.707385 0.089081
0.893252 0.696974 -0.029010
0.991014 0.652678 -0.012193
0.999509 0.624336 -0.000038
0.997214 0.600260 0.000000
0.994624 0.577159 0.000000
0.994642 0.552585 0.000000
0.089663 0.888369 0.088410
0.089718 0.885165 0.088177
0.089786 0.881521 0.087934
0.089830 0.875536 0.087522
0.087822 0.867490 0.087150
0.121097 0.861137 0.080474
0.203102 0.852262 0.076456
0.289900 0.839365 0.073757
0.313889 0.789970 0.156400
0.467388 0.770034 0.178729
0.746655 0.794923 0.091487
0.961738 0.778380 -0.030771
1.003662 0.742052 -0.013076
1.000852 0.714847 -0.001262
1.000365 0.688644 -0.000413
1.002664 0.660710 -0.000139
0.084869 0.960031 0.090995
0.085116 0.957735 0.090990
0.085407 0.955037 0.090962
0.085857 0.950901 0.090945
0.085550 0.944787 0.090726
0.092536 0.938086 0.089287
0.163515 0.932534 0.082289
0.245604 0.923811 0.078424
0.327042 0.907502 0.089939
0.363557 0.862990 0.174865
0.550945 0.848285 0.190102
0.829008 0.872244 0.097973
0.973853 0.855837 -0.032745
0.992216 0.829118 -0.016855
1.000118 0.802252 -0.009632
1.003372 0.771133 -0.005752
0.084780 0.960312 0.090936
0.084778 0.960456 0.090938
0.084760 0.960478 0.090948
0.084745 0.960625 0.090949
0.084557 0.960863 0.090937
0.081246 0.960767 0.090183
0.128418 0.962757 0.085188
0.206330 0.961880 0.082508
0.293959 0.959803 0.077664
0.340916 0.935335 0.127808
0.444677 0.909113 0.184713
0.634205 0.898711 0.201725
0.885606 0.928779 0.107594
0.941466 0.919261 0.055296
0.954820 0.898612 0.028805
0.972827 0.871399 -0.017716
0.084798 0.960232 0.090938
0.084798 0.960232 0.090938
0.084798 0.960232 0.090938
0.084798 0.960232 0.090938
0.084783 0.960238 0.090934
0.082675 0.960136 0.090576
0.108020 0.961902 0.087623
0.183472 0.963414 0.083115
0.262683 0.963257 0.081036
0.346005 0.958319 0.088081
0.375649 0.922145 0.178089
0.558883 0.916715 0.193035
0.764134 0.923994 0.177700
0.899009 0.947222 0.115514
0.896831 0.945397 0.114774
0.915433 0.938829 0.096642
0.084798 0.960232 0.090938
0.084798 0.960232 0.090938
0.084798 0.960232 0.090938
0.084798 0.960232 0.090938
0.084798 0.960232 0.090938
0.083803 0.960156 0.090799
0.095215 0.960969 0.089651
0.165527 0.963391 0.083416
0.240732 0.962890 0.082272
0.332766 0.963353 0.075316
0.342795 0.928053 0.162819
0.500866 0.918008 0.187668
0.682215 0.914580 0.198424
0.883191 0.942798 0.124417
0.896503 0.945712 0.117376
0.898033 0.945702 0.118183
0.086175 0.972551 0.089703
0.086120 0.972550 0.089381
0.083889 0.972548 0.087426
0.076359 0.972541 0.083693
0.045391 0.972528 0.076338
-0.079242 0.972490 0.071654
-0.126811 0.972861 0.068032
-0.122849 0.975760 0.059556
0.074971 0.975306 0.070610
0.226020 0.975377 0.069014
0.271623 0.951275 0.134511
0.406561 0.931191 0.185718
0.603176 0.925489 0.202149
0.832050 0.947038 0.147110
0.890740 0.957744 0.117386
0.892320 0.957598 0.118365
-0.016934 -0.247992 0.133732
-0.016178 -0.247943 0.136596
-0.017319 -0.247563 0.153023
0.183855 -0.247659 0.201847
0.248885 -0.244689 0.186035
0.421806 -0.244774 0.217260
0.593573 -0.245494 0.226025
0.756247 -0.247033 0.211900
0.888029 -0.248037 0.186511
0.974352 -0.246564 0.159441
0.973794 -0.241160 0.138234
0.973097 -0.235611 0.123590
0.971116 -0.234882 0.110812
0.968398 -0.238741 0.098722
0.966689 -0.242152 0.088397
0.968897 -0.243040 0.078672
0.008022 0.017880 0.119528
0.005057 0.011028 0.114060
-0.030115 0.022689 0.131569
0.156772 0.022534 0.179694
0.221269 0.060518 0.163861
0.392877 0.063394 0.195646
0.564744 0.061516 0.205317
0.729816 0.051990 0.192911
0.863585 0.040064 0.169425
0.958066 0.026459 0.142659
0.963538 0.024111 0.123109
0.963610 0.022473 0.109718
0.964094 0.020974 0.098361
0.964492 0.019307 0.085949
0.964523 0.017986 0.075499
0.967031 0.016954 0.066819
0.008991 0.052906 0.130717
0.006176 0.048606 0.124933
-0.026207 0.049888 0.129082
0.126783 0.063370 0.161309
0.205178 0.072743 0.147447
0.363758 0.077838 0.169401
0.532935 0.070926 0.175031
0.701228 0.056622 0.162407
0.839374 0.035564 0.139011
0.949388 0.014387 0.112534
0.964722 0.014128 0.093684
0.964455 0.015135 0.080321
0.964842 0.014973 0.071187
0.965230 0.014026 0.061067
0.965165 0.013523 0.054116
0.967648 0.013044 0.049307
-0.021035 0.117520 0.154980
-0.020709 0.113005 0.149214
-0.030022 0.107645 0.143525
0.113786 0.131950 0.150911
0.204469 0.119529 0.137315
0.341851 0.129309 0.144513
0.495742 0.134250 0.144690
0.666665 0.121724 0.130291
0.813096 0.100449 0.108378
0.936134 0.072146 0.081173
0.967172 0.048874 0.058633
0.966010 0.033144 0.043179
0.965969 0.025893 0.036195
0.966007 0.016923 0.029878
0.965875 0.012474 0.027295
0.968020 0.014956 0.027832
0.095188 0.202686 0.159591
0.092400 0.198547 0.155439
0.088592 0.189497 0.147420
0.110345 0.224513 0.132871
0.186882 0.198057 0.132308
0.334032 0.205805 0.099363
0.475426 0.207873 0.095481
0.634494 0.198848 0.082638
0.784785 0.177769 0.060335
0.911279 0.152007 0.032034
0.969908 0.130029 0.005951
0.967446 0.115044 -0.009334
0.967102 0.107489 -0.006726
0.967195 0.099633 -0.005351
0.966885 0.093861 -0.004075
0.969052 0.090012 0.002438
0.124640 0.325928 0.155661
0.120764 0.322890 0.150276
0.112307 0.316921 0.139566
0.104629 0.336169 0.109512
0.174101 0.307816 0.115764
0.274437 0.292248 0.113460
0.451024 0.304144 0.037162
0.604429 0.292808 -0.009641
0.755137 0.275193 -0.010967
0.881165 0.251375 -0.008364
0.969594 0.226150 -0.004970
0.969946 0.208327 -0.002617
0.969419 0.197067 -0.001823
0.969010 0.185862 -0.001771
0.968717 0.176273 -0.001759
0.970640 0.168505 -0.001780
0.090277 0.467317 0.110168
0.087924 0.464163 0.104836
0.082939 0.458492 0.094367
0.076403 0.453521 0.074434
0.157064 0.445666 0.049171
0.202928 0.385870 0.106947
0.358361 0.394726 0.084374
0.580657 0.410313 -0.021663
0.721185 0.386129 -0.011429
0.852924 0.359886 -0.001933
0.960390 0.332373 -0.000938
0.975111 0.311500 -0.000428
