lut/a2e17396-8632-4954-ad14-ee44db947d7a.cube
TITLE "Cinematic"
LUT_3D_SIZE 6
0.000000 -0.001769 -0.000200
0.123809 0.010754 -0.001135
0.616829 0.030623 0.004983
0.969322 0.007221 -0.000112
0.966340 0.007820 0.000000
0.968504 0.007815 0.000000
0.007006 0.160702 0.034859
0.059760 0.109691 0.029801
0.520321 0.120878 0.005081
0.940976 0.067907 -0.000417
0.966261 0.023197 0.000000
0.968498 -0.016871 0.000000
0.069731 0.485453 0.052542
0.076244 0.465434 0.046004
0.364000 0.401695 0.079711
0.858546 0.367056 -0.000741
0.973866 0.301875 0.000000
0.973739 0.255826 0.000000
0.089475 0.804212 0.081920
0.088977 0.788653 0.080754
0.245335 0.760075 0.065537
0.660103 0.710169 0.089083
0.999789 0.627566 -0.000041
0.994894 0.554208 0.000000
0.084793 0.960265 0.090937
0.084755 0.960669 0.090941
0.129664 0.963002 0.085119
0.341054 0.935529 0.129446
0.886516 0.929913 0.108074
0.971534 0.873183 -0.017372
0.086190 0.972552 0.092387
0.077614 0.972550 0.090256
-0.134437 0.972820 0.080690
0.225257 0.975340 0.080085
0.606093 0.925446 0.203667
0.892183 0.957600 0.119511
-0.016934 -0.247992 0.133732
0.183855 -0.247659 0.201847
0.593573 -0.245494 0.226025
0.974352 -0.246564 0.159441
0.971116 -0.234882 0.110812
0.968897 -0.243040 0.078672
-0.021035 0.117520 0.154980
0.113786 0.131950 0.150911
0.495742 0.134250 0.144690
0.936134 0.072146 0.081173
0.965969 0.025893 0.036195
0.968020 0.014956 0.027832
0.090277 0.467317 0.110168
0.076403 0.453521 0.074434
0.358361 0.394726 0.084374
0.852924 0.359886 -0.001933
0.973430 0.297165 -0.000218
0.973888 0.258201 -0.000139
0.089442 0.798763 0.081492
0.089049 0.783626 0.080342
0.241264 0.754884 0.065432
0.654929 0.705037 0.089100
0.999613 0.622169 -0.000036
0.994699 0.552857 0.000000
0.084779 0.960432 0.090939
0.084746 0.960741 0.090943
0.128247 0.962695 0.085117
0.340813 0.935223 0.127021
0.884903 0.928058 0.107264
0.973274 0.870495 -0.017737
0.080820 0.972540 0.066597
0.070391 0.972527 0.063584
-0.120365 0.972935 0.023514
0.227778 0.975363 -0.039882
0.602470 0.925498 0.195721
0.892483 0.957595 0.108668
0.206320 -0.245478 0.626984
0.297376 -0.242800 0.601274
0.603689 -0.242529 0.626816
0.941894 -0.239471 0.584456
0.958795 -0.232573 0.527359
0.960940 -0.241826 0.465406
0.179023 0.135053 0.520847
0.226011 0.132435 0.515744
0.515244 0.141397 0.540023
0.913445 0.102303 0.508225
0.957938 0.048433 0.448700
0.960941 0.039551 0.397222
-0.048043 0.416394 0.507002
-0.053386 0.394256 0.483749
0.418263 0.426376 0.472047
0.838192 0.397907 0.423828
0.974271 0.347696 0.375112
0.975934 0.339444 0.367183
0.289726 0.735148 0.457229
0.278342 0.721604 0.436964
0.288417 0.746690 0.369030
0.678006 0.710286 0.347269
0.999972 0.618331 0.192381
0.997557 0.570124 0.208722
0.129073 0.953824 0.247411
0.122812 0.955311 0.230954
0.170551 0.959891 0.224877
0.374276 0.940771 0.218851
0.886869 0.925033 0.147965
0.976135 0.870688 0.083244
0.071507 0.970767 -0.124416
0.036699 0.970944 -0.119931
-0.086997 0.972781 0.021789
0.276772 0.977387 -0.144091
0.612725 0.927404 0.135142
0.895183 0.957930 -0.118551
0.259047 -0.230761 0.861243
0.353420 -0.228108 0.861966
0.593878 -0.210671 0.855923
0.945279 -0.241081 0.942907
0.937835 -0.226351 0.911731
0.872207 -0.159546 0.803497
0.250093 0.139716 0.845742
0.306182 0.139667 0.852708
0.539013 0.164752 0.847241
0.896144 0.120335 0.918339
0.881029 0.218784 0.815177
0.871668 0.231665 0.752330
0.315690 0.424011 0.788245
0.303138 0.401779 0.776423
0.477602 0.438069 0.789073
0.810988 0.391318 0.840642
0.901800 0.388734 0.770367
0.921711 0.370523 0.725201
-0.060868 0.713805 0.817164
-0.065250 0.699661 0.805072
0.104205 0.705058 0.808421
0.713938 0.725705 0.779574
0.983739 0.687263 0.725523
0.985928 0.678383 0.716236
0.395795 0.902498 0.712169
0.390296 0.902706 0.702097
0.388669 0.909793 0.695480
0.564541 0.941977 0.701355
0.926685 0.932462 0.678416
0.990395 0.895838 0.591394
0.356922 0.919260 0.610778
0.349395 0.919876 0.601247
0.335690 0.925263 0.606055
0.474010 0.967765 0.643929
0.793854 0.945081 0.715005
0.941000 0.970249 0.599203
0.252057 -0.221554 0.853760
0.339165 -0.218399 0.854786
0.570205 -0.201770 0.848081
0.916362 -0.228018 0.933959
0.942528 -0.230254 0.934751
0.942385 -0.231385 0.935475
0.250908 0.129973 0.847726
0.302343 0.132720 0.854618
0.520398 0.157314 0.853260
0.830853 0.167250 0.892598
0.939872 0.105127 0.932762
0.942109 0.105490 0.932195
0.303825 0.397508 0.819292
0.293903 0.378083 0.821316
0.485695 0.433330 0.850612
0.750244 0.402901 0.866474
0.950932 0.331291 0.940540
0.952868 0.323885 0.939810
0.178642 0.670786 0.906607
0.194201 0.657008 0.903211
0.280770 0.670260 0.917945
0.733241 0.739861 0.869233
0.950035 0.698817 0.944361
0.948862 0.693205 0.938837
0.243573 0.897376 0.927277
0.239534 0.895196 0.927480
0.237844 0.897599 0.933808
0.474073 0.922368 0.955798
0.914789 0.918518 0.940568
0.946568 0.917558 0.940584
0.273338 0.913484 0.909794
0.278650 0.913326 0.902437
0.275021 0.916299 0.895713
0.428343 0.950729 0.917602
0.880498 0.953373 0.926773
0.937161 0.950249 0.921514
0.258975 -0.223583 0.872621
0.332406 -0.221007 0.873561
0.536606 -0.207961 0.866776
0.822581 -0.204460 0.902526
0.938249 -0.231389 0.958307
0.936570 -0.239523 0.957608
0.250211 0.120338 0.870467
0.300156 0.132081 0.876476
0.490627 0.151765 0.876418
0.752355 0.197333 0.882697
0.934882 0.104761 0.957770
0.937572 0.105522 0.957726
0.287893 0.357308 0.846082
0.281209 0.344671 0.847182
0.483646 0.431275 0.872333
0.707185 0.406628 0.882591
0.947860 0.333891 0.966143
0.949391 0.319512 0.965788
0.242095 0.614093 0.913675
0.261160 0.603307 0.907409
0.344946 0.636270 0.925366
0.731144 0.738007 0.891160
0.942580 0.700185 0.969258
0.947798 0.687251 0.967044
0.199180 0.868562 0.951787
0.185566 0.862261 0.951816
0.174335 0.860728 0.961546
0.486862 0.893746 0.982307
0.907855 0.913845 0.960697
0.965819 0.923330 0.988591
0.241198 0.889911 0.950566
0.241198 0.889911 0.950566
0.243666 0.892285 0.952019
0.422937 0.932158 0.976030
0.861856 0.931461 0.959291
0.965419 0.965366 0.989099
