lut/a6121846-bd81-4c58-a1b1-9e95c67e47e6.cube
TITLE "Faded Olive Vintage"
LUT_3D_SIZE 16
-0.043059 -0.037033 -0.030955
0.028590 -0.029674 -0.020365
0.051299 -0.004100 0.021431
0.071977 0.031441 0.031812
0.092180 0.042064 0.038916
0.112229 0.050045 0.044705
0.132260 0.056767 0.049780
0.152389 0.062821 0.054452
0.172662 0.068406 0.058811
0.193152 0.073611 0.062911
0.213857 0.078529 0.066834
0.234939 0.083280 0.070628
0.256228 0.087892 0.074340
0.277947 0.092450 0.077993
0.300092 0.096927 0.081624
0.322406 0.101345 0.085188
-0.032645 0.042751 0.009465
0.033275 0.045388 0.018256
0.051596 0.034671 0.022896
0.072117 0.041582 0.032438
0.092272 0.048633 0.039330
0.112295 0.054987 0.045018
0.132355 0.060893 0.050131
0.152451 0.066342 0.054775
0.172718 0.071415 0.059069
0.193179 0.076241 0.063125
0.213886 0.080872 0.066999
0.234951 0.085398 0.070770
0.256228 0.089816 0.074470
0.278004 0.094215 0.078124
0.300085 0.098535 0.081721
0.322394 0.102822 0.085291
0.013381 0.070689 0.032420
0.029163 0.070886 0.032810
0.055609 0.073070 0.036766
0.073641 0.068743 0.038766
0.093057 0.069663 0.043017
0.112782 0.072246 0.047537
0.132682 0.075490 0.051930
0.152671 0.078955 0.056104
0.172902 0.082558 0.060102
0.193300 0.086216 0.063956
0.214001 0.089913 0.067704
0.235055 0.093637 0.071369
0.256324 0.097388 0.074985
0.278086 0.101198 0.078568
0.300106 0.105034 0.082145
0.322469 0.108866 0.085675
0.028545 0.095826 0.042401
0.035384 0.095912 0.042587
0.053953 0.096686 0.044111
0.076110 0.098154 0.046907
0.094489 0.095597 0.048790
0.113667 0.095437 0.051712
0.133263 0.096450 0.055055
0.153076 0.098079 0.058527
0.173195 0.100151 0.062047
0.193572 0.102485 0.065563
0.214188 0.105015 0.069047
0.235202 0.107746 0.072542
0.256482 0.110588 0.075995
0.278165 0.113573 0.079486
0.300276 0.116666 0.082959
0.322554 0.119814 0.086424
0.036975 0.120258 0.050093
0.041495 0.120323 0.050220
0.055923 0.120706 0.051077
0.075150 0.121453 0.052693
0.096263 0.122550 0.054989
0.114867 0.120659 0.056728
0.134105 0.120177 0.059128
0.153737 0.120480 0.061861
0.173694 0.121341 0.064827
0.193969 0.122589 0.067919
0.214525 0.124118 0.071099
0.235473 0.125919 0.074335
0.256733 0.127888 0.077596
0.278412 0.130063 0.080913
0.300408 0.132376 0.084242
0.322731 0.134790 0.087599
0.043621 0.144280 0.056711
0.047075 0.144341 0.056838
0.058911 0.144555 0.057390
0.075984 0.145004 0.058446
0.095534 0.145698 0.060032
0.116316 0.146591 0.062090
0.135196 0.145049 0.063750
0.154566 0.144383 0.065859
0.174359 0.144354 0.068289
0.194490 0.144772 0.070943
0.214967 0.145503 0.073748
0.235871 0.146553 0.076692
0.257053 0.147808 0.079725
0.278655 0.149269 0.082835
0.300686 0.150915 0.086007
0.322955 0.152656 0.089211
0.049443 0.168060 0.062767
0.052234 0.168095 0.062856
0.062295 0.168245 0.063252
0.077686 0.168563 0.064016
0.095923 0.169014 0.065188
0.115735 0.169657 0.066764
0.136451 0.170439 0.068690
0.155556 0.169056 0.070283
0.175149 0.168320 0.072252
0.195147 0.168077 0.074515
0.215512 0.168208 0.076958
0.236355 0.168632 0.079600
0.257491 0.169325 0.082362
0.279109 0.170193 0.085249
0.301025 0.171269 0.088238
0.323302 0.172462 0.091272
0.054774 0.191620 0.068446
0.057115 0.191643 0.068521
0.065862 0.191756 0.068809
0.079859 0.191942 0.069406
0.096961 0.192259 0.070319
0.115864 0.192750 0.071574
0.135891 0.193349 0.073150
0.156722 0.194055 0.075027
0.176095 0.192769 0.076602
0.195946 0.192023 0.078504
0.216199 0.191648 0.080630
0.236953 0.191615 0.082966
0.258002 0.191785 0.085474
0.279590 0.192228 0.088138
0.301452 0.192809 0.090926
0.323712 0.193492 0.093771
0.059824 0.214995 0.073933
0.061843 0.214991 0.073987
0.069581 0.215103 0.074228
0.082385 0.215256 0.074702
0.098478 0.215527 0.075445
0.116570 0.215868 0.076480
0.135928 0.216368 0.077791
0.156216 0.216930 0.079400
0.177204 0.217589 0.081253
0.196909 0.216375 0.082836
0.217056 0.215588 0.084670
0.237660 0.215129 0.086745
0.258646 0.214921 0.089013
0.280155 0.214935 0.091448
0.302040 0.215160 0.093997
0.324160 0.215428 0.096693
0.064743 0.238268 0.079310
0.066506 0.238279 0.079357
0.073413 0.238336 0.079563
0.085182 0.238467 0.079965
0.100348 0.238679 0.080594
0.117667 0.238958 0.081460
0.136425 0.239320 0.082594
0.156170 0.239828 0.083976
0.176753 0.240375 0.085614
0.197985 0.240996 0.087478
0.217977 0.239820 0.089044
0.238467 0.238980 0.090865
0.259377 0.238477 0.092917
0.280841 0.238122 0.095123
0.302632 0.238022 0.097493
0.324719 0.237941 0.099958
0.069555 0.261330 0.084645
0.071129 0.261347 0.084688
0.077356 0.261397 0.084863
0.088223 0.261515 0.085198
0.102517 0.261679 0.085744
0.119114 0.261911 0.086507
0.137236 0.262223 0.087502
0.156509 0.262636 0.088715
0.176633 0.263136 0.090151
0.197523 0.263659 0.091821
0.219049 0.264241 0.093719
0.239440 0.263127 0.095325
0.260233 0.262249 0.097138
0.281582 0.261643 0.099136
0.303329 0.261224 0.101316
0.325391 0.260836 0.103598
0.074376 0.284339 0.090001
0.075791 0.284354 0.090025
0.081432 0.284413 0.090191
0.091471 0.284494 0.090491
0.104969 0.284634 0.090953
0.120854 0.284816 0.091623
0.138409 0.285120 0.092498
0.157169 0.285475 0.093601
0.176897 0.285857 0.094898
0.197399 0.286349 0.096394
0.218641 0.286891 0.098125
0.240520 0.287432 0.100043
0.261214 0.286326 0.101656
0.282417 0.285372 0.103480
0.304145 0.284737 0.105455
0.326149 0.284058 0.107564
0.079173 0.307134 0.095351
0.080461 0.307152 0.095398
0.085605 0.307196 0.095523
0.094920 0.307293 0.095793
0.107645 0.307424 0.096231
0.122856 0.307609 0.096840
0.139842 0.307823 0.097606
0.158115 0.308085 0.098610
0.177412 0.308454 0.099774
0.197560 0.308903 0.101144
0.218445 0.309391 0.102722
0.240070 0.309900 0.104494
0.262299 0.310456 0.106447
0.283435 0.309298 0.108074
0.305109 0.308393 0.109886
0.326994 0.307495 0.111820
0.084037 0.329907 0.100789
0.085184 0.329911 0.100823
0.089916 0.329932 0.100937
0.098558 0.329984 0.101206
0.110580 0.330110 0.101590
0.125117 0.330282 0.102124
0.141524 0.330474 0.102832
0.159315 0.330768 0.103725
0.178168 0.331071 0.104822
0.197960 0.331448 0.106078
0.218561 0.331923 0.107521
0.239908 0.332434 0.109159
0.261887 0.332900 0.110978
0.284595 0.333415 0.112956
0.306080 0.332262 0.114615
0.327966 0.331092 0.116383
0.088914 0.352450 0.106280
0.089988 0.352442 0.106302
0.094314 0.352501 0.106428
0.102382 0.352579 0.106635
0.113725 0.352677 0.107004
0.127636 0.352797 0.107493
0.143470 0.353007 0.108158
0.160764 0.353202 0.108969
0.179201 0.353537 0.109974
0.198620 0.353851 0.111125
0.218880 0.354298 0.112474
0.239918 0.354668 0.113991
0.261671 0.355210 0.115672
0.284181 0.355738 0.117541
0.307259 0.356171 0.119567
0.329032 0.354810 0.121189
0.093833 0.374704 0.111788
0.094819 0.374733 0.111810
0.098804 0.374742 0.111907
0.106307 0.374775 0.112119
0.116997 0.374843 0.112434
0.130280 0.375030 0.112912
0.145562 0.375175 0.113527
0.162360 0.375384 0.114282
0.180385 0.375637 0.115184
0.199382 0.375943 0.116279
0.219257 0.376311 0.117524
0.240005 0.376811 0.118932
0.261470 0.377161 0.120508
0.283782 0.377779 0.122261
0.306649 0.378207 0.124163
0.330235 0.378679 0.126249
-0.041310 -0.034853 0.024820
0.028961 -0.028957 0.030293
0.051319 -0.002027 0.030104
0.071978 0.031513 0.036289
0.092198 0.042107 0.042013
0.112238 0.050078 0.047119
0.132277 0.056810 0.051774
0.152403 0.062842 0.056147
0.172657 0.068432 0.060292
0.193150 0.073619 0.064223
0.213875 0.078543 0.068007
0.234944 0.083295 0.071695
0.256217 0.087907 0.075309
0.277950 0.092458 0.078899
0.300095 0.096931 0.082454
0.322408 0.101346 0.085968
-0.032049 0.043210 0.034268
0.033547 0.045792 0.036532
0.052863 0.050896 0.040983
0.072791 0.056303 0.045620
0.092716 0.061449 0.050017
0.112616 0.066298 0.054132
0.132589 0.070887 0.058017
0.152616 0.075283 0.061723
0.172832 0.079534 0.065299
0.193297 0.083688 0.068786
0.213971 0.087763 0.072192
0.234997 0.091808 0.075582
0.256321 0.095800 0.078932
0.278060 0.099844 0.082289
0.300109 0.103850 0.085646
0.322457 0.107845 0.088987
0.013523 0.070726 0.037965
0.039896 0.071609 0.044735
0.055700 0.073216 0.046704
0.074126 0.074559 0.049323
0.093457 0.076860 0.052536
0.113059 0.079633 0.055931
0.132878 0.082676 0.059371
0.152826 0.085823 0.062783
0.172977 0.089082 0.066159
0.193423 0.092408 0.069500
0.214057 0.095798 0.072810
0.235073 0.099242 0.076122
0.256362 0.102718 0.079412
0.278118 0.106263 0.082728
0.300147 0.109861 0.086022
0.322505 0.113478 0.089326
0.028584 0.095855 0.045509
0.045300 0.096321 0.051515
0.058160 0.096998 0.052547
0.076162 0.098224 0.054414
0.094673 0.098475 0.056465
0.113868 0.099469 0.059001
0.133418 0.100939 0.061806
0.153225 0.102794 0.064759
0.173295 0.104869 0.067802
0.193653 0.107174 0.070886
0.214280 0.109616 0.074012
0.235255 0.112235 0.077171
0.256524 0.114965 0.080342
0.278251 0.117822 0.083550
0.300360 0.120780 0.086799
0.322613 0.123798 0.090038
0.037008 0.120268 0.052304
0.050166 0.120570 0.057504
0.061081 0.120935 0.058140
0.077343 0.121601 0.059361
0.096287 0.122582 0.061126
0.114979 0.122362 0.062922
0.134236 0.122719 0.065106
0.153828 0.123472 0.067550
0.173796 0.124579 0.070189
0.194049 0.125957 0.072950
0.214583 0.127561 0.075826
0.235530 0.129364 0.078773
0.256773 0.131332 0.081781
0.278427 0.133480 0.084875
0.300463 0.135749 0.087991
0.322764 0.138107 0.091141
0.043636 0.144289 0.058444
0.054687 0.144504 0.063007
0.064188 0.144707 0.063453
0.079030 0.145124 0.064311
0.096859 0.145768 0.065610
0.116332 0.146625 0.067323
0.135269 0.146160 0.068984
0.154612 0.146117 0.070965
0.174408 0.146457 0.073194
0.194561 0.147124 0.075645
0.215054 0.148017 0.078214
0.235913 0.149144 0.080927
0.257085 0.150457 0.083742
0.278728 0.151932 0.086656
0.300754 0.153599 0.089631
0.322992 0.155340 0.092646
0.049462 0.168070 0.064202
0.059018 0.168213 0.068230
0.067438 0.168350 0.068561
0.081073 0.168635 0.069221
0.097905 0.169072 0.070221
0.116605 0.169685 0.071580
0.136462 0.170460 0.073270
0.155602 0.169781 0.074853
0.175215 0.169545 0.076718
0.195211 0.169627 0.078834
0.215610 0.169970 0.081126
0.236402 0.170543 0.083594
0.257525 0.171338 0.086176
0.279146 0.172302 0.088898
0.301090 0.173431 0.091716
0.323365 0.174610 0.094597
0.054785 0.191631 0.069676
0.063241 0.191717 0.073290
0.070781 0.191793 0.073566
0.083371 0.192023 0.074070
0.099290 0.192346 0.074881
0.117250 0.192823 0.075992
0.136523 0.193386 0.077400
0.156716 0.194056 0.079088
0.176130 0.193369 0.080657
0.196005 0.192990 0.082472
0.216235 0.192853 0.084488
0.237004 0.192990 0.086700
0.258047 0.193304 0.089076
0.279591 0.193825 0.091594
0.301507 0.194510 0.094232
0.323730 0.195258 0.096961
0.059833 0.214978 0.074997
0.067427 0.215101 0.078282
0.074239 0.215153 0.078492
0.085907 0.215308 0.078929
0.100989 0.215559 0.079598
0.118236 0.215923 0.080541
0.136936 0.216374 0.081726
0.156690 0.216937 0.083198
0.177204 0.217591 0.084906
0.196918 0.216808 0.086462
0.217072 0.216302 0.088233
0.237689 0.216077 0.090213
0.258690 0.216023 0.092387
0.280148 0.216137 0.094710
0.302024 0.216454 0.097161
0.324189 0.216808 0.099708
0.064749 0.238277 0.080251
0.071624 0.238332 0.083259
0.077812 0.238422 0.083435
0.088661 0.238509 0.083808
0.102941 0.238706 0.084395
0.119536 0.239007 0.085182
0.137675 0.239371 0.086239
0.156948 0.239850 0.087517
0.177123 0.240401 0.089022
0.197987 0.240987 0.090767
0.218018 0.240161 0.092327
0.238514 0.239590 0.094097
0.259435 0.239210 0.096052
0.280838 0.239026 0.098185
0.302653 0.238994 0.100472
0.324769 0.239043 0.102851
0.069563 0.261332 0.085476
0.075837 0.261390 0.088252
0.081512 0.261459 0.088393
0.091597 0.261550 0.088732
0.105139 0.261724 0.089233
0.121076 0.261972 0.089939
0.138689 0.262270 0.090861
0.157507 0.262668 0.091992
0.177255 0.263136 0.093337
0.197801 0.263667 0.094926
0.219065 0.264242 0.096695
0.239434 0.263380 0.098289
0.260250 0.262721 0.100048
0.281634 0.262278 0.102006
0.303359 0.261965 0.104113
0.325464 0.261693 0.106328
0.074378 0.284352 0.090747
0.080141 0.284430 0.093304
0.085352 0.284448 0.093438
0.094742 0.284511 0.093711
0.107571 0.284696 0.094168
0.122888 0.284870 0.094809
0.139961 0.285137 0.095623
0.158315 0.285512 0.096656
0.177685 0.285894 0.097885
0.197920 0.286388 0.099318
0.218894 0.286922 0.100934
0.240526 0.287449 0.102771
0.261221 0.286510 0.104357
0.282473 0.285804 0.106143
0.304136 0.285264 0.108082
0.326147 0.284690 0.110134
0.079183 0.307162 0.096044
0.084492 0.307190 0.098410
0.089297 0.307203 0.098539
0.098052 0.307297 0.098786
0.110227 0.307445 0.099194
0.124921 0.307603 0.099770
0.141453 0.307823 0.100519
0.159348 0.308151 0.101446
0.178338 0.308498 0.102550
0.198217 0.308935 0.103880
0.218882 0.309387 0.105377
0.240259 0.309900 0.107069
0.262304 0.310471 0.108934
0.283443 0.309510 0.110545
0.305119 0.308748 0.112344
0.327024 0.307933 0.114246
0.084044 0.329907 0.101410
0.088966 0.329931 0.103630
0.093379 0.329969 0.103729
0.101594 0.330034 0.103972
0.113101 0.330180 0.104333
0.127188 0.330313 0.104839
0.143192 0.330535 0.105541
0.160640 0.330787 0.106394
0.179201 0.331088 0.107418
0.198737 0.331463 0.108633
0.219102 0.331933 0.110026
0.240248 0.332445 0.111596
0.262051 0.332902 0.113329
0.284608 0.333422 0.115251
0.306110 0.332452 0.116887
0.327989 0.331418 0.118639
0.088929 0.352451 0.106835
0.093507 0.352501 0.108893
0.097603 0.352504 0.108993
0.105271 0.352593 0.109214
0.116186 0.352708 0.109557
0.129675 0.352835 0.110037
0.145149 0.353021 0.110659
0.162131 0.353251 0.111459
0.180311 0.353533 0.112396
0.199483 0.353844 0.113526
0.219528 0.354303 0.114814
0.240405 0.354724 0.116281
0.261965 0.355212 0.117918
0.284281 0.355686 0.119722
0.307274 0.356182 0.121685
0.329044 0.354926 0.123293
0.093833 0.374710 0.112304
0.098118 0.374740 0.114228
0.101902 0.374779 0.114325
0.109087 0.374846 0.114520
0.119400 0.374923 0.114837
0.132310 0.375061 0.115280
0.147247 0.375197 0.115865
0.163745 0.375429 0.116599
0.181526 0.375655 0.117487
0.200312 0.375950 0.118521
0.220006 0.376323 0.119732
0.240595 0.376853 0.121103
0.261882 0.377226 0.122647
0.284035 0.377799 0.124328
0.306744 0.378220 0.126185
0.330241 0.378683 0.128194
-0.037646 -0.030021 0.044716
-0.014452 -0.029496 0.044937
0.051701 0.014098 0.050205
0.072106 0.032379 0.050089
0.092255 0.042514 0.052671
0.112280 0.050328 0.055883
0.132299 0.056976 0.059252
0.152420 0.062971 0.062669
0.172672 0.068525 0.066086
0.193152 0.073694 0.069437
0.213870 0.078602 0.072738
0.234968 0.083346 0.076024
0.256222 0.087953 0.079301
0.277977 0.092479 0.082575
0.300109 0.096950 0.085867
0.322378 0.101385 0.089142
-0.036720 0.016039 0.045245
0.034266 0.046874 0.049593
0.053124 0.051527 0.052369
0.072899 0.056645 0.055056
0.092770 0.061672 0.058070
0.112650 0.066449 0.061168
0.132602 0.071003 0.064276
0.152643 0.075374 0.067352
0.172835 0.079613 0.070415
0.193303 0.083757 0.073480
0.213989 0.087815 0.076522
0.235021 0.091844 0.079594
0.256326 0.095845 0.082650
0.278072 0.099862 0.085748
0.300136 0.103891 0.088877
0.322464 0.107891 0.092009
0.015241 0.071133 0.054282
0.040169 0.071895 0.054995
0.055843 0.073459 0.056445
0.074306 0.075803 0.058608
0.093581 0.078619 0.061173
0.113163 0.081679 0.063941
0.132957 0.084868 0.066796
0.152893 0.088101 0.069686
0.173061 0.091409 0.072605
0.193446 0.094745 0.075539
0.214122 0.098114 0.078494
0.235129 0.101527 0.081460
0.256434 0.105002 0.084467
0.278157 0.108499 0.087506
0.300220 0.112050 0.090560
0.322505 0.115639 0.093634
0.028911 0.095985 0.056332
0.045439 0.096435 0.059623
0.059030 0.097147 0.061012
0.076227 0.098323 0.062467
0.094768 0.099250 0.064265
0.113946 0.100650 0.066413
0.133502 0.102382 0.068811
0.153292 0.104398 0.071359
0.173358 0.106593 0.074015
0.193718 0.108969 0.076764
0.214325 0.111471 0.079556
0.235323 0.114100 0.082403
0.256589 0.116863 0.085321
0.278289 0.119711 0.088268
0.300344 0.122669 0.091264
0.322618 0.125681 0.094290
0.037157 0.120339 0.060538
0.050258 0.120645 0.064246
0.062322 0.121031 0.065607
0.077907 0.121685 0.066602
0.096311 0.122648 0.068064
0.115014 0.122872 0.069675
0.134271 0.123529 0.071600
0.153876 0.124527 0.073762
0.173828 0.125793 0.076111
0.194073 0.127270 0.078592
0.214623 0.128953 0.081178
0.235576 0.130826 0.083859
0.256808 0.132835 0.086625
0.278479 0.135012 0.089470
0.300506 0.137306 0.092380
0.322780 0.139698 0.095326
0.043729 0.144329 0.065153
0.054745 0.144530 0.068778
0.065644 0.144783 0.070129
0.079910 0.145197 0.070856
0.097260 0.145831 0.071975
0.116351 0.146654 0.073445
0.135281 0.146529 0.074966
0.154662 0.146745 0.076755
0.174457 0.147257 0.078771
0.194606 0.148045 0.080989
0.215070 0.149039 0.083336
0.235947 0.150244 0.085820
0.257102 0.151626 0.088433
0.278800 0.153169 0.091124
0.300781 0.154869 0.093904
0.323022 0.156637 0.096741
0.049516 0.168079 0.069876
0.059066 0.168243 0.073285
0.069002 0.168420 0.074593
0.082147 0.168698 0.075164
0.098561 0.169142 0.076048
0.116916 0.169752 0.077245
0.136468 0.170455 0.078742
0.155623 0.170090 0.080205
0.175239 0.170042 0.081933
0.195262 0.170280 0.083859
0.215618 0.170718 0.085979
0.236417 0.171380 0.088269
0.257552 0.172239 0.090667
0.279136 0.173258 0.093210
0.301126 0.174408 0.095854
0.323361 0.175660 0.098568
0.054826 0.191636 0.074588
0.063280 0.191752 0.077765
0.072412 0.191853 0.079041
0.084569 0.192101 0.079515
0.100100 0.192377 0.080230
0.117748 0.192853 0.081232
0.136765 0.193423 0.082485
0.156738 0.194062 0.084027
0.176158 0.193591 0.085490
0.196034 0.193371 0.087162
0.216302 0.193360 0.089053
0.237014 0.193590 0.091140
0.258076 0.193973 0.093350
0.279621 0.194552 0.095713
0.301497 0.195301 0.098211
0.323722 0.196082 0.100766
0.059865 0.215002 0.079321
0.067460 0.215107 0.082281
0.075891 0.215184 0.083523
0.087181 0.215350 0.083912
0.101894 0.215628 0.084526
0.118877 0.215963 0.085380
0.137343 0.216417 0.086469
0.156871 0.216994 0.087811
0.177195 0.217617 0.089367
0.196930 0.217012 0.090851
0.217109 0.216641 0.092533
0.237726 0.216517 0.094407
0.258702 0.216538 0.096432
0.280161 0.216715 0.098629
0.302050 0.217119 0.100969
0.324232 0.217491 0.103392
0.064771 0.238273 0.084104
0.071639 0.238345 0.086869
0.079479 0.238434 0.088074
0.089985 0.238573 0.088398
0.103945 0.238781 0.088949
0.120259 0.239017 0.089683
0.138197 0.239421 0.090653
0.157273 0.239855 0.091811
0.177257 0.240414 0.093228
0.197985 0.241011 0.094849
0.218022 0.240313 0.096330
0.238514 0.239859 0.098018
0.259454 0.239567 0.099874
0.280868 0.239462 0.101901
0.302657 0.239485 0.104080
0.324834 0.239561 0.106356
0.069595 0.261345 0.088949
0.075869 0.261402 0.091525
0.083148 0.261476 0.092695
0.092941 0.261576 0.092982
0.106199 0.261740 0.093447
0.121881 0.261975 0.094114
0.139288 0.262302 0.094963
0.157911 0.262684 0.096036
0.177517 0.263149 0.097295
0.197936 0.263687 0.098782
0.219086 0.264261 0.100438
0.239448 0.263513 0.101965
0.260276 0.262955 0.103657
0.281640 0.262569 0.105528
0.303391 0.262341 0.107541
0.325472 0.262097 0.109667
0.074402 0.284351 0.093883
0.080166 0.284420 0.096296
0.086953 0.284474 0.097411
0.096096 0.284557 0.097678
0.108681 0.284709 0.098096
0.123748 0.284888 0.098688
0.140613 0.285146 0.099469
0.158795 0.285518 0.100432
0.178024 0.285894 0.101589
0.198121 0.286392 0.102935
0.218968 0.286916 0.104485
0.240538 0.287472 0.106212
0.261224 0.286621 0.107743
0.282471 0.285972 0.109469
0.304136 0.285508 0.111327
0.326167 0.285000 0.113307
0.079204 0.307149 0.098895
0.084519 0.307206 0.101152
0.090873 0.307267 0.102224
0.099435 0.307351 0.102470
0.111356 0.307453 0.102845
0.125827 0.307614 0.103386
0.142152 0.307827 0.104092
0.159907 0.308151 0.104985
0.178723 0.308495 0.106038
0.198502 0.308967 0.107279
0.219077 0.309422 0.108711
0.240353 0.309935 0.110329
0.262301 0.310448 0.112100
0.283454 0.309607 0.113685
0.305162 0.308910 0.115405
0.327004 0.308139 0.117252
0.084063 0.329911 0.104023
0.088986 0.329935 0.106125
0.094935 0.329979 0.107173
0.102941 0.330078 0.107376
0.114256 0.330189 0.107735
0.128110 0.330344 0.108238
0.143947 0.330563 0.108874
0.161229 0.330810 0.109697
0.179676 0.331099 0.110681
0.199080 0.331489 0.111833
0.219366 0.331942 0.113165
0.240423 0.332453 0.114682
0.262139 0.332934 0.116344
0.284632 0.333451 0.118184
0.306081 0.332503 0.119782
0.327964 0.331513 0.121489
0.088945 0.352442 0.109233
0.093530 0.352452 0.111216
0.099095 0.352566 0.112193
0.106608 0.352641 0.112403
0.117314 0.352715 0.112731
0.130642 0.352838 0.113190
0.145936 0.353057 0.113807
0.162779 0.353273 0.114561
0.180805 0.353536 0.115473
0.199892 0.353862 0.116544
0.219826 0.354320 0.117792
0.240622 0.354739 0.119193
0.262129 0.355225 0.120758
0.284414 0.355728 0.122508
0.307293 0.356211 0.124395
0.329071 0.354994 0.125968
0.093844 0.374730 0.114493
0.098139 0.374761 0.116367
0.103374 0.374769 0.117324
0.110401 0.374771 0.117517
0.120566 0.374995 0.117815
0.133301 0.375097 0.118250
0.148074 0.375268 0.118805
0.164418 0.375375 0.119505
0.182086 0.375719 0.120359
0.200734 0.375968 0.121370
0.220343 0.376364 0.122546
0.240861 0.376849 0.123860
0.262082 0.377199 0.125340
0.284152 0.377741 0.126976
0.306830 0.378267 0.128772
0.330248 0.378693 0.130724
-0.033887 -0.024536 0.062629
-0.013416 -0.024021 0.062715
0.045797 0.010744 0.064789
0.072366 0.034247 0.067976
0.092382 0.043369 0.067942
0.112345 0.050839 0.069303
0.132377 0.057313 0.071267
0.152453 0.063223 0.073547
0.172679 0.068707 0.075998
0.193187 0.073838 0.078563
0.213883 0.078730 0.081178
0.234948 0.083463 0.083876
0.256228 0.088045 0.086609
0.278002 0.092561 0.089426
0.300084 0.097007 0.092275
0.322393 0.101448 0.095160
-0.033096 0.019570 0.062857
0.035376 0.048555 0.065239
0.052618 0.052345 0.066865
0.073099 0.057342 0.069162
0.092881 0.062117 0.070744
0.112703 0.066761 0.072679
0.132630 0.071249 0.074820
0.152653 0.075558 0.077065
0.172883 0.079759 0.079413
0.193299 0.083875 0.081840
0.214005 0.087913 0.084342
0.235038 0.091936 0.086904
0.256328 0.095920 0.089508
0.278097 0.099945 0.092220
0.300101 0.103943 0.094945
0.322453 0.107954 0.097748
0.008100 0.063745 0.067008
0.040400 0.071221 0.068538
0.056119 0.073867 0.069733
0.074455 0.076136 0.071297
0.093684 0.078878 0.072830
0.113226 0.081885 0.074680
0.133008 0.085026 0.076739
0.152920 0.088255 0.078919
0.173075 0.091550 0.081215
0.193465 0.094864 0.083596
0.214134 0.098214 0.086030
0.235140 0.101626 0.088552
0.256445 0.105079 0.091131
0.278169 0.108575 0.093769
0.300203 0.112137 0.096491
0.322534 0.115711 0.099235
0.029549 0.096258 0.072059
0.045729 0.096659 0.072441
0.059211 0.097344 0.073097
0.076336 0.098508 0.074201
0.094884 0.100072 0.075691
0.114056 0.101901 0.077436
0.133588 0.103981 0.079379
0.153375 0.106245 0.081484
0.173431 0.108628 0.083681
0.193758 0.111135 0.085998
0.214397 0.113742 0.088382
0.235384 0.116461 0.090859
0.256626 0.119267 0.093377
0.278337 0.122156 0.095993
0.300370 0.125147 0.098662
0.322659 0.128189 0.101363
0.037451 0.120475 0.073564
0.050431 0.120752 0.075447
0.062455 0.121139 0.076305
0.078499 0.121806 0.077487
0.096377 0.122758 0.078625
0.115082 0.123469 0.079982
0.134356 0.124502 0.081622
0.153943 0.125744 0.083432
0.173895 0.127230 0.085417
0.194136 0.128880 0.087529
0.214713 0.130700 0.089761
0.235625 0.132657 0.092101
0.256835 0.134769 0.094521
0.278520 0.137013 0.097045
0.300556 0.139371 0.099637
0.322813 0.141810 0.102297
0.043911 0.144399 0.076353
0.054873 0.144608 0.078742
0.065740 0.144846 0.079697
0.080835 0.145292 0.080925
0.097705 0.145903 0.081832
0.116385 0.146723 0.083044
0.135335 0.146981 0.084362
0.154723 0.147477 0.085902
0.174509 0.148226 0.087660
0.194662 0.149195 0.089563
0.215125 0.150339 0.091620
0.235969 0.151667 0.093806
0.257178 0.153133 0.096092
0.278854 0.154770 0.098511
0.300826 0.156536 0.101000
0.323107 0.158391 0.103576
0.049639 0.168155 0.079699
0.059154 0.168304 0.082227
0.069087 0.168488 0.083246
0.083324 0.168763 0.084529
0.099273 0.169199 0.085249
0.117249 0.169782 0.086250
0.136498 0.170519 0.087517
0.155649 0.170435 0.088808
0.175270 0.170621 0.090334
0.195288 0.171051 0.092040
0.215640 0.171621 0.093904
0.236480 0.172463 0.095932
0.257569 0.173391 0.098081
0.279158 0.174494 0.100382
0.301188 0.175757 0.102754
0.323393 0.177095 0.105215
0.054920 0.191656 0.083346
0.063347 0.191781 0.085862
0.072478 0.191913 0.086899
0.085940 0.192118 0.088235
0.101025 0.192443 0.088833
0.118301 0.192881 0.089687
