lut/a6121846-bd81-4c58-a1b1-9e95c67e47e6.cube
TITLE "Faded Olive Vintage"
LUT_3D_SIZE 6
-0.043059 -0.037033 -0.030955
0.071977 0.031441 0.031812
0.132260 0.056767 0.049780
0.193152 0.073611 0.062911
0.256228 0.087892 0.074340
0.322406 0.101345 0.085188
0.028545 0.095826 0.042401
0.076110 0.098154 0.046907
0.133263 0.096450 0.055055
0.193572 0.102485 0.065563
0.256482 0.110588 0.075995
0.322554 0.119814 0.086424
0.049443 0.168060 0.062767
0.077686 0.168563 0.064016
0.136451 0.170439 0.068690
0.195147 0.168077 0.074515
0.257491 0.169325 0.082362
0.323302 0.172462 0.091272
0.064743 0.238268 0.079310
0.085182 0.238467 0.079965
0.136425 0.239320 0.082594
0.197985 0.240996 0.087478
0.259377 0.238477 0.092917
0.324719 0.237941 0.099958
0.079173 0.307134 0.095351
0.094920 0.307293 0.095793
0.139842 0.307823 0.097606
0.197560 0.308903 0.101144
0.262299 0.310456 0.106447
0.326994 0.307495 0.111820
0.093833 0.374704 0.111788
0.106307 0.374775 0.112119
0.145562 0.375175 0.113527
0.199382 0.375943 0.116279
0.261470 0.377161 0.120508
0.330235 0.378679 0.126249
-0.033887 -0.024536 0.062629
0.072366 0.034247 0.067976
0.132377 0.057313 0.071267
0.193187 0.073838 0.078563
0.256228 0.088045 0.086609
0.322393 0.101448 0.095160
0.029549 0.096258 0.072059
0.076336 0.098508 0.074201
0.133588 0.103981 0.079379
0.193758 0.111135 0.085998
0.256626 0.119267 0.093377
0.322659 0.128189 0.101363
0.049639 0.168155 0.079699
0.083324 0.168763 0.084529
0.136498 0.170519 0.087517
0.195288 0.171051 0.092040
0.257569 0.173391 0.098081
0.323393 0.177095 0.105215
0.064835 0.238303 0.091231
0.091582 0.238606 0.095997
0.138805 0.239428 0.097978
0.198017 0.241056 0.101722
0.259461 0.240001 0.106357
0.324766 0.240273 0.112344
0.079240 0.307167 0.104347
0.101168 0.307387 0.108710
0.143076 0.307886 0.110210
0.198891 0.309000 0.113135
0.262335 0.310453 0.117597
0.327032 0.308405 0.122453
0.093888 0.374742 0.118784
0.112163 0.374838 0.122705
0.149162 0.375259 0.123913
0.201359 0.375942 0.126337
0.262367 0.377278 0.130060
0.330261 0.378722 0.135147
-0.013547 0.025892 0.113887
0.066532 0.038703 0.115178
0.132672 0.059472 0.118906
0.193296 0.074858 0.119573
0.256329 0.088668 0.122506
0.322464 0.101880 0.126715
0.029606 0.089035 0.116633
0.077007 0.099603 0.118238
0.133824 0.104737 0.120815
0.193875 0.111663 0.122886
0.256677 0.119685 0.126281
0.322703 0.128555 0.130641
0.050471 0.168489 0.123054
0.083697 0.169098 0.123652
0.136690 0.170808 0.125367
0.195457 0.173734 0.128271
0.257736 0.177713 0.132186
0.323557 0.182664 0.137029
0.065244 0.238469 0.126932
0.091837 0.238734 0.129121
0.140911 0.239611 0.131910
0.198109 0.241168 0.134319
0.259576 0.241757 0.137595
0.324944 0.243237 0.141919
0.079514 0.307236 0.134082
0.101397 0.307441 0.136775
0.146451 0.307998 0.140241
0.200315 0.309131 0.142303
0.262406 0.310597 0.145452
0.327161 0.309705 0.149202
0.094084 0.374771 0.143615
0.112379 0.374993 0.146416
0.153476 0.375340 0.150289
0.203790 0.376156 0.152118
0.263471 0.377442 0.154921
0.330316 0.378778 0.158875
0.023886 0.041720 0.163265
0.066302 0.047207 0.163814
0.128473 0.061736 0.165649
0.193558 0.076793 0.168194
0.256472 0.089903 0.167893
0.322539 0.102763 0.169008
0.033755 0.088876 0.164473
0.078118 0.101376 0.165453
0.132153 0.105858 0.166867
0.194096 0.112672 0.169093
0.256810 0.120446 0.169667
0.322813 0.129173 0.171223
0.050693 0.163491 0.167980
0.084112 0.167119 0.168497
0.136997 0.171335 0.169747
0.195650 0.174227 0.171537
0.257865 0.178163 0.172989
0.323643 0.183189 0.175260
0.066067 0.238740 0.172762
0.092329 0.239000 0.173043
0.141194 0.239911 0.173957
0.198301 0.241491 0.175604
0.259749 0.243767 0.177917
0.325137 0.246806 0.181014
0.080058 0.307440 0.175483
0.101776 0.307607 0.176731
0.146773 0.308212 0.178605
0.201921 0.309304 0.181157
0.262512 0.310800 0.183333
0.327303 0.311319 0.186161
0.094521 0.374931 0.180711
0.112687 0.375103 0.182387
0.153805 0.375504 0.184950
0.206695 0.376256 0.188228
0.264769 0.377480 0.190257
0.330454 0.378984 0.193179
0.032995 0.052203 0.211371
0.067458 0.055380 0.211630
0.126436 0.065732 0.212712
0.189646 0.078518 0.214384
0.256693 0.091774 0.216301
0.322702 0.104150 0.215267
0.038707 0.090707 0.212006
0.079603 0.103753 0.212640
0.131180 0.107589 0.213514
0.191521 0.113766 0.215004
0.257044 0.121634 0.216840
0.322969 0.130174 0.216400
0.052116 0.161146 0.214168
0.084909 0.166105 0.214585
0.137459 0.172101 0.215481
0.194495 0.174822 0.216725
0.258084 0.178843 0.218418
0.323787 0.183727 0.218785
0.066271 0.234285 0.217387
0.092648 0.236127 0.217650
0.141509 0.238599 0.218363
0.198548 0.241890 0.219612
0.259937 0.244258 0.221271
0.325222 0.247348 0.222521
0.080930 0.307688 0.221664
0.102383 0.307894 0.221865
0.147147 0.308504 0.222525
0.202204 0.309534 0.223628
0.262708 0.311144 0.225263
0.327518 0.313174 0.227444
0.095167 0.375106 0.223794
0.113223 0.375285 0.224595
0.154139 0.375668 0.225974
0.207071 0.376533 0.227995
0.266370 0.377787 0.230506
0.330572 0.379284 0.232669
0.039778 0.060720 0.258224
0.069205 0.062918 0.258385
0.125295 0.070512 0.259080
0.186737 0.081211 0.260219
0.252396 0.093226 0.261647
0.322943 0.106072 0.263219
0.043603 0.093360 0.258637
0.081352 0.106525 0.259028
0.130601 0.109788 0.259608
0.189374 0.115371 0.260658
0.253635 0.122712 0.262034
0.323208 0.131520 0.263605
0.054262 0.159881 0.260048
0.086041 0.165604 0.260358
0.138064 0.173093 0.261040
0.193388 0.175679 0.261969
0.255741 0.179524 0.263240
0.324026 0.184558 0.264780
0.067128 0.231042 0.262307
0.093276 0.233757 0.262561
0.141923 0.237569 0.263176
0.198881 0.242439 0.264165
0.258838 0.244711 0.265363
0.325501 0.247862 0.266946
0.081056 0.303142 0.265544
0.102632 0.304305 0.265761
0.147386 0.306026 0.266265
0.202479 0.308397 0.267129
0.262940 0.311519 0.268486
0.327744 0.313712 0.270144
0.096112 0.375415 0.269760
0.113952 0.375583 0.269891
0.154617 0.375939 0.270358
0.207421 0.376859 0.271268
0.266646 0.378089 0.272581
0.330816 0.379581 0.274283
