lut/aece263c-aa3c-4e37-8378-b26b2e7bf584.cube
TITLE "Natural Cinema Clean"
LUT_3D_SIZE 6
0.000000 0.000000 0.000000
0.096696 0.000000 0.000000
0.278102 0.000000 0.000000
0.545836 0.000000 0.000000
0.826115 0.000000 0.000000
1.034021 0.000000 0.000000
0.000000 0.093990 0.000000
0.096696 0.093990 0.000000
0.278102 0.135179 0.000000
0.545836 0.176869 0.000000
0.826115 0.200778 0.000000
1.034021 0.201041 0.000000
0.000000 0.270358 0.000000
0.139054 0.270358 0.000000
0.278102 0.270358 0.000000
0.545836 0.353749 0.000000
0.826115 0.401530 0.000000
1.034021 0.402058 0.000000
0.000000 0.530594 0.000000
0.181918 0.530594 0.000000
0.363844 0.530594 0.000000
0.545836 0.530594 0.000000
0.826115 0.602381 0.000000
1.034021 0.603124 0.000000
0.000000 0.803107 0.000000
0.206527 0.803107 0.000000
0.413077 0.803107 0.000000
0.619631 0.803107 0.000000
0.826115 0.803107 0.000000
1.034021 0.804176 0.000000
0.000000 1.005209 0.000000
0.206808 1.005209 0.000000
0.413600 1.005209 0.000000
0.620446 1.005209 0.000000
0.827199 1.005209 0.000000
1.034021 1.005209 0.000000
0.000000 0.000000 0.091386
0.096696 0.000000 0.091386
0.278102 0.000000 0.131414
0.545836 0.000000 0.171946
0.826115 0.000000 0.195182
1.034021 0.000000 0.195437
0.000000 0.093990 0.091386
0.096696 0.093990 0.091386
0.278102 0.093990 0.091386
0.545836 0.093990 0.091386
0.826115 0.093990 0.091386
1.034021 0.093990 0.091386
0.000000 0.270358 0.131414
0.096696 0.270358 0.091386
0.278102 0.270358 0.091386
0.545836 0.338672 0.091386
0.826115 0.378281 0.091386
1.034021 0.376797 0.091386
0.000000 0.530594 0.171946
0.096696 0.530594 0.091386
0.348376 0.530594 0.091386
0.545836 0.530594 0.091386
0.826115 0.594525 0.091386
1.034021 0.592101 0.091386
0.000000 0.803107 0.195182
0.096696 0.803107 0.091386
0.389123 0.803107 0.091386
0.611544 0.803107 0.091386
0.826115 0.803107 0.091386
1.034021 0.799844 0.091386
0.000000 1.005209 0.195437
0.096696 1.005209 0.091386
0.387589 1.005209 0.091386
0.609058 1.005209 0.091386
0.822727 1.005209 0.091386
1.034021 1.005209 0.091386
0.000000 0.000000 0.262829
0.139054 0.000000 0.262829
0.278102 0.000000 0.262829
0.545836 0.000000 0.343870
0.826115 0.000000 0.390377
1.034021 0.000000 0.390853
0.000000 0.135179 0.262829
0.096696 0.093990 0.262829
0.278102 0.093990 0.262829
0.545836 0.093990 0.329235
0.826115 0.093990 0.367735
1.034021 0.093990 0.366319
0.000000 0.270358 0.262829
0.096696 0.270358 0.262829
0.278102 0.270358 0.262829
0.545836 0.270358 0.262829
0.826115 0.270358 0.262829
1.034021 0.270358 0.262829
0.000000 0.530594 0.343870
0.096696 0.530594 0.329235
0.278102 0.530594 0.262829
0.545836 0.530594 0.262829
0.826115 0.564995 0.262829
1.034021 0.554027 0.262829
0.000000 0.803107 0.390377
0.096696 0.803107 0.367735
0.278102 0.803107 0.262829
0.581193 0.803107 0.262829
0.826115 0.803107 0.262829
1.034021 0.785678 0.262829
0.000000 1.005209 0.390853
0.096696 1.005209 0.366319
0.278102 1.005209 0.262829
0.569909 1.005209 0.262829
0.808194 1.005209 0.262829
1.034021 1.005209 0.262829
0.000000 0.000000 0.515848
0.181918 0.000000 0.515848
0.363844 0.000000 0.515848
0.545836 0.000000 0.515848
0.826115 0.000000 0.585598
1.034021 0.000000 0.586322
0.000000 0.176869 0.515848
0.096696 0.093990 0.515848
0.348376 0.093990 0.515848
0.545836 0.093990 0.515848
0.826115 0.093990 0.577963
1.034021 0.093990 0.575609
0.000000 0.353749 0.515848
0.096696 0.338672 0.515848
0.278102 0.270358 0.515848
0.545836 0.270358 0.515848
0.826115 0.270358 0.549284
1.034021 0.270358 0.538564
0.000000 0.530594 0.515848
0.096696 0.530594 0.515848
0.278102 0.530594 0.515848
0.545836 0.530594 0.515848
0.826115 0.530594 0.515848
1.034021 0.530594 0.515848
0.000000 0.803107 0.585598
0.096696 0.803107 0.577963
0.278102 0.803107 0.549284
0.545836 0.803107 0.515848
0.826115 0.803107 0.515848
1.034021 0.777355 0.515848
0.000000 1.005209 0.586322
0.096696 1.005209 0.575609
0.278102 1.005209 0.538564
0.545836 1.005209 0.515848
0.799679 1.005209 0.515848
1.034021 1.005209 0.515848
0.000000 0.000000 0.780705
0.206527 0.000000 0.780705
0.413077 0.000000 0.780705
0.619631 0.000000 0.780705
0.826115 0.000000 0.780705
1.034021 0.000000 0.781727
0.000000 0.200778 0.780705
0.096696 0.093990 0.780705
0.389123 0.093990 0.780705
0.611544 0.093990 0.780705
0.826115 0.093990 0.780705
1.034021 0.093990 0.777535
0.000000 0.401530 0.780705
0.096696 0.378281 0.780705
0.278102 0.270358 0.780705
0.581193 0.270358 0.780705
0.826115 0.270358 0.780705
1.034021 0.270358 0.763747
0.000000 0.602381 0.780705
0.096696 0.594525 0.780705
0.278102 0.564995 0.780705
0.545836 0.530594 0.780705
0.826115 0.530594 0.780705
1.034021 0.530594 0.755748
0.000000 0.803107 0.780705
0.096696 0.803107 0.780705
0.278102 0.803107 0.780705
0.545836 0.803107 0.780705
0.826115 0.803107 0.780705
1.034021 0.803107 0.780705
0.000000 1.005209 0.781727
0.096696 1.005209 0.777535
0.278102 1.005209 0.763747
0.545836 1.005209 0.755748
0.826115 1.005209 0.780705
1.034021 1.005209 0.780705
0.000000 0.000000 0.977224
0.206808 0.000000 0.977224
0.413600 0.000000 0.977224
0.620446 0.000000 0.977224
0.827199 0.000000 0.977224
1.034021 0.000000 0.977224
0.000000 0.201041 0.977224
0.096696 0.093990 0.977224
0.387589 0.093990 0.977224
0.609058 0.093990 0.977224
0.822727 0.093990 0.977224
1.034021 0.093990 0.977224
0.000000 0.402058 0.977224
0.096696 0.376797 0.977224
0.278102 0.270358 0.977224
0.569909 0.270358 0.977224
0.808194 0.270358 0.977224
1.034021 0.270358 0.977224
0.000000 0.603124 0.977224
0.096696 0.592101 0.977224
0.278102 0.554027 0.977224
0.545836 0.530594 0.977224
0.799679 0.530594 0.977224
1.034021 0.530594 0.977224
0.000000 0.804176 0.977224
0.096696 0.799844 0.977224
0.278102 0.785678 0.977224
0.545836 0.777355 0.977224
0.826115 0.803107 0.977224
1.034021 0.803107 0.977224
0.000000 1.005209 0.977224
0.096696 1.005209 0.977224
0.278102 1.005209 0.977224
0.545836 1.005209 0.977224
0.826115 1.005209 0.977224
1.034021 1.005209 0.977224
