lut/aece263c-aa3c-4e37-8378-b26b2e7bf584.cube
TITLE "Natural Cinema Clean"
LUT_3D_SIZE 16
0.000000 0.000000 0.000000
0.027909 0.000000 0.000000
0.060041 0.000000 0.000000
0.096696 0.000000 0.000000
0.144142 0.000000 0.000000
0.204857 0.000000 0.000000
0.278102 0.000000 0.000000
0.362053 0.000000 0.000000
0.453667 0.000000 0.000000
0.545836 0.000000 0.000000
0.638047 0.000000 0.000000
0.731834 0.000000 0.000000
0.826115 0.000000 0.000000
0.916586 0.000000 0.000000
0.990387 0.000000 0.000000
1.034021 0.000000 0.000000
0.000000 0.027133 0.000000
0.027909 0.027133 0.000000
0.060041 0.029184 0.000000
0.096696 0.031335 0.000000
0.144142 0.035031 0.000000
0.204857 0.039828 0.000000
0.278102 0.045064 0.000000
0.362053 0.050283 0.000000
0.453667 0.055132 0.000000
0.545836 0.058957 0.000000
0.638047 0.062031 0.000000
0.731834 0.064680 0.000000
0.826115 0.066930 0.000000
0.916586 0.068541 0.000000
0.990387 0.068779 0.000000
1.034021 0.067014 0.000000
0.000000 0.058368 0.000000
0.030020 0.058368 0.000000
0.060041 0.058368 0.000000
0.096696 0.062670 0.000000
0.144142 0.070061 0.000000
0.204857 0.079658 0.000000
0.278102 0.090123 0.000000
0.362053 0.100565 0.000000
0.453667 0.110258 0.000000
0.545836 0.117913 0.000000
0.638047 0.124064 0.000000
0.731834 0.129352 0.000000
0.826115 0.133857 0.000000
0.916586 0.137073 0.000000
0.990387 0.137557 0.000000
1.034021 0.134025 0.000000
0.000000 0.093990 0.000000
0.032233 0.093990 0.000000
0.064463 0.093990 0.000000
0.096696 0.093990 0.000000
0.144142 0.105092 0.000000
0.204857 0.119489 0.000000
0.278102 0.135179 0.000000
0.362053 0.150838 0.000000
0.453667 0.165379 0.000000
0.545836 0.176869 0.000000
0.638047 0.186083 0.000000
0.731834 0.194029 0.000000
0.826115 0.200778 0.000000
0.916586 0.205606 0.000000
0.990387 0.206324 0.000000
1.034021 0.201041 0.000000
0.000000 0.140122 0.000000
0.036036 0.140122 0.000000
0.072074 0.140122 0.000000
0.108094 0.140122 0.000000
0.144142 0.140122 0.000000
0.204857 0.159327 0.000000
0.278102 0.180250 0.000000
0.362053 0.201130 0.000000
0.453667 0.220523 0.000000
0.545836 0.235840 0.000000
0.638047 0.248118 0.000000
0.731834 0.258712 0.000000
0.826115 0.267710 0.000000
0.916586 0.274148 0.000000
0.990387 0.275105 0.000000
1.034021 0.268052 0.000000
0.000000 0.199147 0.000000
0.040976 0.199147 0.000000
0.081941 0.199147 0.000000
0.122907 0.199147 0.000000
0.163885 0.199147 0.000000
0.204857 0.199147 0.000000
0.278102 0.225311 0.000000
0.362053 0.251400 0.000000
0.453667 0.275644 0.000000
0.545836 0.294783 0.000000
0.638047 0.310130 0.000000
0.731834 0.323373 0.000000
0.826115 0.334619 0.000000
0.916586 0.342681 0.000000
0.990387 0.343879 0.000000
1.034021 0.335068 0.000000
0.000000 0.270358 0.000000
0.046350 0.270358 0.000000
0.092699 0.270358 0.000000
0.139054 0.270358 0.000000
0.185397 0.270358 0.000000
0.231768 0.270358 0.000000
0.278102 0.270358 0.000000
0.362053 0.301682 0.000000
0.453667 0.330765 0.000000
0.545836 0.353749 0.000000
0.638047 0.372167 0.000000
0.731834 0.388064 0.000000
0.826115 0.401530 0.000000
0.916586 0.411210 0.000000
0.990387 0.412649 0.000000
1.034021 0.402058 0.000000
0.000000 0.351964 0.000000
0.051724 0.351964 0.000000
0.103444 0.351964 0.000000
0.155164 0.351964 0.000000
0.206886 0.351964 0.000000
0.258609 0.351964 0.000000
0.310307 0.351964 0.000000
0.362053 0.351964 0.000000
0.453667 0.385886 0.000000
0.545836 0.412650 0.000000
0.638047 0.434200 0.000000
0.731834 0.452727 0.000000
0.826115 0.468487 0.000000
0.916586 0.479732 0.000000
0.990387 0.481414 0.000000
1.034021 0.469073 0.000000
0.000000 0.441039 0.000000
0.056709 0.441039 0.000000
0.113417 0.441039 0.000000
0.170112 0.441039 0.000000
0.226832 0.441039 0.000000
0.283527 0.441039 0.000000
0.340222 0.441039 0.000000
0.396954 0.441039 0.000000
0.453667 0.441039 0.000000
0.545836 0.471642 0.000000
0.638047 0.496231 0.000000
0.731834 0.517430 0.000000
0.826115 0.535428 0.000000
0.916586 0.548294 0.000000
0.990387 0.550257 0.000000
1.034021 0.536111 0.000000
0.000000 0.530594 0.000000
0.060647 0.530594 0.000000
0.121291 0.530594 0.000000
0.181918 0.530594 0.000000
0.242581 0.530594 0.000000
0.303213 0.530594 0.000000
0.363844 0.530594 0.000000
0.424506 0.530594 0.000000
0.485175 0.530594 0.000000
0.545836 0.530594 0.000000
0.638047 0.558279 0.000000
0.731834 0.582096 0.000000
0.826115 0.602381 0.000000
0.916586 0.616834 0.000000
0.990387 0.619009 0.000000
1.034021 0.603124 0.000000
0.000000 0.620277 0.000000
0.063808 0.620277 0.000000
0.127616 0.620277 0.000000
0.191416 0.620277 0.000000
0.255227 0.620277 0.000000
0.319028 0.620277 0.000000
0.382829 0.620277 0.000000
0.446639 0.620277 0.000000
0.510451 0.620277 0.000000
0.574294 0.620277 0.000000
0.638047 0.620277 0.000000
0.731834 0.646731 0.000000
0.826115 0.669233 0.000000
0.916586 0.685343 0.000000
0.990387 0.687743 0.000000
1.034021 0.670122 0.000000
0.000000 0.711510 0.000000
0.066534 0.711510 0.000000
0.133061 0.711510 0.000000
0.199573 0.711510 0.000000
0.266120 0.711510 0.000000
0.332635 0.711510 0.000000
0.399168 0.711510 0.000000
0.465686 0.711510 0.000000
0.532240 0.711510 0.000000
0.598782 0.711510 0.000000
0.665258 0.711510 0.000000
0.731834 0.711510 0.000000
0.826115 0.736282 0.000000
0.916586 0.753953 0.000000
0.990387 0.756624 0.000000
1.034021 0.737189 0.000000
0.000000 0.803107 0.000000
0.068848 0.803107 0.000000
0.137694 0.803107 0.000000
0.206527 0.803107 0.000000
0.275391 0.803107 0.000000
0.344217 0.803107 0.000000
0.413077 0.803107 0.000000
0.481906 0.803107 0.000000
0.550780 0.803107 0.000000
0.619631 0.803107 0.000000
0.688427 0.803107 0.000000
0.757393 0.803107 0.000000
0.826115 0.803107 0.000000
0.916586 0.822430 0.000000
0.990387 0.825277 0.000000
1.034021 0.804176 0.000000
0.000000 0.891070 0.000000
0.070497 0.891070 0.000000
0.140996 0.891070 0.000000
0.211493 0.891070 0.000000
0.281990 0.891070 0.000000
0.352491 0.891070 0.000000
0.422978 0.891070 0.000000
0.493498 0.891070 0.000000
0.563988 0.891070 0.000000
0.634527 0.891070 0.000000
0.704974 0.891070 0.000000
0.775514 0.891070 0.000000
0.845961 0.891070 0.000000
0.916586 0.891070 0.000000
0.990387 0.894216 0.000000
1.034021 0.871240 0.000000
0.000000 0.962777 0.000000
0.070749 0.962777 0.000000
0.141495 0.962777 0.000000
0.212231 0.962777 0.000000
0.282996 0.962777 0.000000
0.353762 0.962777 0.000000
0.424480 0.962777 0.000000
0.495224 0.962777 0.000000
0.565986 0.962777 0.000000
0.636756 0.962777 0.000000
0.707488 0.962777 0.000000
0.778256 0.962777 0.000000
0.848946 0.962777 0.000000
0.919827 0.962777 0.000000
0.990387 0.962777 0.000000
1.034021 0.938172 0.000000
0.000000 1.005209 0.000000
0.068936 1.005209 0.000000
0.137868 1.005209 0.000000
0.206808 1.005209 0.000000
0.275723 1.005209 0.000000
0.344677 1.005209 0.000000
0.413600 1.005209 0.000000
0.482502 1.005209 0.000000
0.551477 1.005209 0.000000
0.620446 1.005209 0.000000
0.689340 1.005209 0.000000
0.758324 1.005209 0.000000
0.827199 1.005209 0.000000
0.896204 1.005209 0.000000
0.964992 1.005209 0.000000
1.034021 1.005209 0.000000
0.000000 0.000000 0.026376
0.027909 0.000000 0.026376
0.060041 0.000000 0.028371
0.096696 0.000000 0.030461
0.144142 0.000000 0.034057
0.204857 0.000000 0.038723
0.278102 0.000000 0.043809
0.362053 0.000000 0.048881
0.453667 0.000000 0.053591
0.545836 0.000000 0.057315
0.638047 0.000000 0.060303
0.731834 0.000000 0.062878
0.826115 0.000000 0.065064
0.916586 0.000000 0.066628
0.990387 0.000000 0.066865
1.034021 0.000000 0.065149
0.000000 0.027133 0.026376
0.027909 0.027133 0.026376
0.060041 0.027133 0.026376
0.096696 0.027133 0.026376
0.144142 0.027133 0.026376
0.204857 0.027133 0.026376
0.278102 0.027133 0.026376
0.362053 0.027133 0.026376
0.453667 0.027133 0.026376
0.545836 0.027133 0.026376
0.638047 0.027133 0.026376
0.731834 0.027133 0.026376
0.826115 0.027133 0.026376
0.916586 0.027133 0.026376
0.990387 0.027133 0.026376
1.034021 0.027133 0.026376
0.000000 0.058368 0.028371
0.027909 0.058368 0.026376
0.060041 0.058368 0.026376
0.096696 0.061689 0.026376
0.144142 0.067882 0.026376
0.204857 0.076109 0.026376
0.278102 0.085223 0.026376
0.362053 0.094416 0.026376
0.453667 0.103018 0.026376
0.545836 0.109838 0.026376
0.638047 0.115330 0.026376
0.731834 0.120072 0.026376
0.826115 0.124114 0.026376
0.916586 0.127004 0.026376
0.990387 0.127417 0.026376
1.034021 0.124213 0.026376
0.000000 0.093990 0.030461
0.027909 0.093990 0.026376
0.063456 0.093990 0.026376
0.096696 0.093990 0.026376
0.144142 0.104343 0.026376
0.204857 0.117920 0.026376
0.278102 0.132819 0.026376
0.362053 0.147744 0.026376
0.453667 0.161640 0.026376
0.545836 0.172632 0.026376
0.638047 0.181448 0.026376
0.731834 0.189067 0.026376
0.826115 0.195562 0.026376
0.916586 0.200184 0.026376
0.990387 0.200858 0.026376
1.034021 0.195728 0.026376
0.000000 0.140122 0.034057
0.027909 0.140122 0.026376
0.069824 0.140122 0.026376
0.107333 0.140122 0.026376
0.144142 0.140122 0.026376
0.204857 0.158705 0.026376
0.278102 0.179031 0.026376
0.362053 0.199375 0.026376
0.453667 0.218298 0.026376
0.545836 0.233244 0.026376
0.638047 0.245237 0.026376
0.731834 0.255576 0.026376
0.826115 0.264382 0.026376
0.916586 0.270667 0.026376
0.990387 0.271581 0.026376
1.034021 0.264612 0.026376
0.000000 0.199147 0.038723
0.027909 0.199147 0.026376
0.078289 0.199147 0.026376
0.121305 0.199147 0.026376
0.163256 0.199147 0.026376
0.204857 0.199147 0.026376
0.278102 0.224793 0.026376
0.362053 0.250448 0.026376
0.453667 0.274288 0.026376
0.545836 0.293098 0.026376
0.638047 0.308223 0.026376
0.731834 0.321244 0.026376
0.826115 0.332339 0.026376
0.916586 0.340239 0.026376
0.990387 0.341415 0.026376
1.034021 0.332626 0.026376
0.000000 0.270358 0.043809
0.027909 0.270358 0.026376
0.087668 0.270358 0.026376
0.136627 0.270358 0.026376
0.184184 0.270358 0.026376
0.231231 0.270358 0.026376
0.278102 0.270358 0.026376
0.362053 0.301265 0.026376
0.453667 0.329978 0.026376
0.545836 0.352676 0.026376
0.638047 0.370864 0.026376
0.731834 0.386578 0.026376
0.826115 0.399908 0.026376
0.916586 0.409474 0.026376
0.990387 0.410834 0.026376
1.034021 0.400293 0.026376
0.000000 0.351964 0.048881
0.027909 0.351964 0.026376
0.097129 0.351964 0.026376
0.151979 0.351964 0.026376
0.205105 0.351964 0.026376
0.257623 0.351964 0.026376
0.309911 0.351964 0.026376
0.362053 0.351964 0.026376
0.453667 0.385512 0.026376
0.545836 0.412031 0.026376
0.638047 0.433344 0.026376
0.731834 0.451679 0.026376
0.826115 0.467306 0.026376
0.916586 0.478425 0.026376
0.990387 0.480057 0.026376
1.034021 0.467710 0.026376
0.000000 0.441039 0.053591
0.027909 0.441039 0.026376
0.105970 0.441039 0.026376
0.166262 0.441039 0.026376
0.224544 0.441039 0.026376
0.282142 0.441039 0.026376
0.339458 0.441039 0.026376
0.396567 0.441039 0.026376
0.453667 0.441039 0.026376
0.545836 0.471372 0.026376
0.638047 0.495742 0.026376
0.731834 0.516732 0.026376
0.826115 0.534581 0.026376
0.916586 0.547315 0.026376
0.990387 0.549178 0.026376
1.034021 0.535047 0.026376
0.000000 0.530594 0.057315
0.027909 0.530594 0.026376
0.112987 0.530594 0.026376
0.177583 0.530594 0.026376
0.239921 0.530594 0.026376
0.301503 0.530594 0.026376
0.362777 0.530594 0.026376
0.423864 0.530594 0.026376
0.484886 0.530594 0.026376
0.545836 0.530594 0.026376
0.638047 0.558041 0.026376
0.731834 0.581691 0.026376
0.826115 0.601815 0.026376
0.916586 0.616141 0.026376
0.990387 0.618261 0.026376
1.034021 0.602336 0.026376
0.000000 0.620277 0.060303
0.027909 0.620277 0.026376
0.118634 0.620277 0.026376
0.186658 0.620277 0.026376
0.252261 0.620277 0.026376
0.317067 0.620277 0.026376
0.381498 0.620277 0.026376
0.445754 0.620277 0.026376
0.509924 0.620277 0.026376
0.574054 0.620277 0.026376
0.638047 0.620277 0.026376
0.731834 0.646563 0.026376
0.826115 0.668892 0.026376
0.916586 0.684862 0.026376
0.990387 0.687200 0.026376
1.034021 0.669534 0.026376
0.000000 0.711510 0.062878
0.027909 0.711510 0.026376
0.123507 0.711510 0.026376
0.194503 0.711510 0.026376
0.262902 0.711510 0.026376
0.330453 0.711510 0.026376
0.397645 0.711510 0.026376
0.464622 0.711510 0.026376
0.531518 0.711510 0.026376
0.598336 0.711510 0.026376
0.665051 0.711510 0.026376
0.731834 0.711510 0.026376
0.826115 0.736092 0.026376
0.916586 0.753685 0.026376
0.990387 0.756169 0.026376
1.034021 0.736756 0.026376
0.000000 0.803107 0.065064
0.027909 0.803107 0.026376
0.127666 0.803107 0.026376
0.201163 0.803107 0.026376
0.271965 0.803107 0.026376
0.341856 0.803107 0.026376
0.411384 0.803107 0.026376
0.480681 0.803107 0.026376
0.549883 0.803107 0.026376
0.619045 0.803107 0.026376
0.688119 0.803107 0.026376
0.757202 0.803107 0.026376
0.826115 0.803107 0.026376
0.916586 0.822258 0.026376
0.990387 0.825084 0.026376
1.034021 0.803822 0.026376
0.000000 0.891070 0.066628
0.027909 0.891070 0.026376
0.130639 0.891070 0.026376
0.205926 0.891070 0.026376
0.278414 0.891070 0.026376
0.350016 0.891070 0.026376
0.421169 0.891070 0.026376
0.492142 0.891070 0.026376
0.563029 0.891070 0.026376
0.633813 0.891070 0.026376
0.704505 0.891070 0.026376
0.775265 0.891070 0.026376
0.845781 0.891070 0.026376
0.916586 0.891070 0.026376
0.990387 0.894062 0.026376
1.034021 0.871044 0.026376
0.000000 0.962777 0.066865
0.027909 0.962777 0.026376
0.131073 0.962777 0.026376
0.206616 0.962777 0.026376
0.279368 0.962777 0.026376
0.351202 0.962777 0.026376
0.422593 0.962777 0.026376
0.493808 0.962777 0.026376
0.564921 0.962777 0.026376
0.635952 0.962777 0.026376
0.706918 0.962777 0.026376
0.777902 0.962777 0.026376
0.848675 0.962777 0.026376
0.919665 0.962777 0.026376
0.990387 0.962777 0.026376
1.034021 0.938039 0.026376
0.000000 1.005209 0.065149
0.027909 1.005209 0.026376
0.127772 1.005209 0.026376
0.201338 1.005209 0.026376
0.272205 1.005209 0.026376
0.342169 1.005209 0.026376
0.411737 1.005209 0.026376
0.481094 1.005209 0.026376
0.550385 1.005209 0.026376
0.619583 1.005209 0.026376
0.688701 1.005209 0.026376
0.757896 1.005209 0.026376
0.826829 1.005209 0.026376
0.895984 1.005209 0.026376
0.964944 1.005209 0.026376
1.034021 1.005209 0.026376
0.000000 0.000000 0.056742
0.030020 0.000000 0.056742
0.060041 0.000000 0.056742
0.096696 0.000000 0.060924
0.144142 0.000000 0.068113
0.204857 0.000000 0.077441
0.278102 0.000000 0.087616
0.362053 0.000000 0.097762
0.453667 0.000000 0.107181
0.545836 0.000000 0.114626
0.638047 0.000000 0.120600
0.731834 0.000000 0.125750
0.826115 0.000000 0.130130
0.916586 0.000000 0.133254
0.990387 0.000000 0.133723
1.034021 0.000000 0.130295
0.000000 0.029184 0.056742
0.027909 0.027133 0.056742
0.060041 0.027133 0.056742
0.096696 0.027133 0.059971
0.144142 0.027133 0.065992
0.204857 0.027133 0.073997
0.278102 0.027133 0.082852
0.362053 0.027133 0.091784
0.453667 0.027133 0.100149
0.545836 0.027133 0.106781
0.638047 0.027133 0.112115
0.731834 0.027133 0.116726
0.826115 0.027133 0.120658
0.916586 0.027133 0.123459
0.990387 0.027133 0.123864
1.034021 0.027133 0.120751
0.000000 0.058368 0.056742
0.027909 0.058368 0.056742
0.060041 0.058368 0.056742
0.096696 0.058368 0.056742
0.144142 0.058368 0.056742
0.204857 0.058368 0.056742
0.278102 0.058368 0.056742
0.362053 0.058368 0.056742
0.453667 0.058368 0.056742
0.545836 0.058368 0.056742
0.638047 0.058368 0.056742
0.731834 0.058368 0.056742
0.826115 0.058368 0.056742
0.916586 0.058368 0.056742
0.990387 0.058368 0.056742
1.034021 0.058368 0.056742
0.000000 0.093990 0.060924
0.027909 0.093990 0.059971
0.060041 0.093990 0.056742
0.096696 0.093990 0.056742
0.144142 0.101382 0.056742
0.204857 0.111222 0.056742
0.278102 0.122302 0.056742
0.362053 0.133656 0.056742
0.453667 0.144418 0.056742
0.545836 0.152984 0.056742
0.638047 0.159913 0.056742
0.731834 0.165926 0.056742
0.826115 0.171084 0.056742
0.916586 0.174750 0.056742
0.990387 0.175222 0.056742
1.034021 0.170950 0.056742
0.000000 0.140122 0.068113
0.027909 0.140122 0.065992
0.060041 0.140122 0.056742
0.104294 0.140122 0.056742
0.144142 0.140122 0.056742
0.204857 0.156192 0.056742
0.278102 0.173919 0.056742
0.362053 0.191824 0.056742
0.453667 0.208607 0.056742
0.545836 0.221882 0.056742
0.638047 0.232580 0.056742
0.731834 0.241805 0.056742
0.826115 0.249697 0.056742
0.916586 0.255304 0.056742
0.990387 0.256010 0.056742
1.034021 0.249507 0.056742
0.000000 0.199147 0.077441
0.027909 0.199147 0.073997
0.060041 0.199147 0.056742
0.114415 0.199147 0.056742
0.160665 0.199147 0.056742
0.204857 0.199147 0.056742
0.278102 0.222713 0.056742
0.362053 0.246400 0.056742
0.453667 0.268506 0.056742
0.545836 0.285960 0.056742
0.638047 0.300006 0.056742
0.731834 0.312120 0.056742
0.826115 0.322448 0.056742
0.916586 0.329794 0.056742
0.990387 0.330731 0.056742
1.034021 0.322195 0.056742
0.000000 0.270358 0.087616
0.027909 0.270358 0.082852
0.060041 0.270358 0.056742
0.125805 0.270358 0.056742
0.178895 0.270358 0.056742
0.229098 0.270358 0.056742
0.278102 0.270358 0.056742
0.362053 0.299533 0.056742
0.453667 0.326723 0.056742
0.545836 0.348172 0.056742
0.638047 0.365379 0.056742
0.731834 0.380215 0.056742
0.826115 0.392931 0.056742
0.916586 0.401941 0.056742
0.990387 0.403071 0.056742
1.034021 0.392615 0.056742
0.000000 0.351964 0.097762
0.027909 0.351964 0.091784
0.060041 0.351964 0.056742
0.137485 0.351964 0.056742
0.197323 0.351964 0.056742
0.253460 0.351964 0.056742
0.308119 0.351964 0.056742
0.362053 0.351964 0.056742
0.453667 0.384108 0.056742
0.545836 0.409446 0.056742
0.638047 0.429770 0.056742
0.731834 0.447304 0.056742
0.826115 0.462296 0.056742
0.916586 0.472940 0.056742
0.990387 0.474259 0.056742
1.034021 0.461935 0.056742
0.000000 0.441039 0.107181
0.027909 0.441039 0.100149
0.060041 0.441039 0.056742
0.148553 0.441039 0.056742
0.214581 0.441039 0.056742
0.276207 0.441039 0.056742
0.336098 0.441039 0.056742
0.395113 0.441039 0.056742
0.453667 0.441039 0.056742
0.545836 0.470187 0.056742
0.638047 0.493612 0.056742
0.731834 0.513831 0.056742
0.826115 0.531049 0.056742
0.916586 0.543282 0.056742
0.990387 0.544809 0.056742
1.034021 0.530609 0.056742
0.000000 0.530594 0.114626
0.027909 0.530594 0.106781
0.060041 0.530594 0.056742
0.157362 0.530594 0.056742
0.228239 0.530594 0.056742
0.294169 0.530594 0.056742
0.358127 0.530594 0.056742
0.421149 0.530594 0.056742
0.483654 0.530594 0.056742
0.545836 0.530594 0.056742
0.638047 0.557112 0.056742
0.731834 0.579934 0.056742
0.826115 0.599389 0.056742
0.916586 0.613218 0.056742
0.990387 0.614974 0.056742
1.034021 0.598930 0.056742
0.000000 0.620277 0.120600
0.027909 0.620277 0.112115
0.060041 0.620277 0.056742
0.164496 0.620277 0.056742
0.239229 0.620277 0.056742
0.308589 0.620277 0.056742
0.375863 0.620277 0.056742
0.442077 0.620277 0.056742
0.507740 0.620277 0.056742
0.573050 0.620277 0.056742
0.638047 0.620277 0.056742
0.731834 0.645734 0.056742
0.826115 0.667462 0.056742
0.916586 0.682904 0.056742
0.990387 0.684833 0.056742
1.034021 0.666926 0.056742
0.000000 0.711510 0.125750
0.027909 0.711510 0.116726
0.060041 0.711510 0.056742
0.170685 0.711510 0.056742
0.248732 0.711510 0.056742
0.321047 0.711510 0.056742
0.391176 0.711510 0.056742
0.460136 0.711510 0.056742
0.528515 0.711510 0.056742
0.596541 0.711510 0.056742
0.664248 0.711510 0.056742
0.731834 0.711510 0.056742
0.826115 0.735442 0.056742
0.916586 0.752435 0.056742
0.990387 0.754551 0.056742
1.034021 0.734807 0.056742
0.000000 0.803107 0.130130
0.027909 0.803107 0.120658
0.060041 0.803107 0.056742
0.175996 0.803107 0.056742
0.256848 0.803107 0.056742
0.331669 0.803107 0.056742
0.404159 0.803107 0.056742
0.475522 0.803107 0.056742
0.546254 0.803107 0.056742
0.616556 0.803107 0.056742
0.686560 0.803107 0.056742
0.756496 0.803107 0.056742
0.826115 0.803107 0.056742
0.916586 0.821695 0.056742
0.990387 0.823986 0.056742
1.034021 0.802476 0.056742
0.000000 0.891070 0.133254
0.027909 0.891070 0.123459
0.060041 0.891070 0.056742
0.179749 0.891070 0.056742
0.262631 0.891070 0.056742
0.339250 0.891070 0.056742
0.413437 0.891070 0.056742
0.486476 0.891070 0.056742
0.558848 0.891070 0.056742
0.630808 0.891070 0.056742
0.702466 0.891070 0.056742
0.773973 0.891070 0.056742
0.845216 0.891070 0.056742
0.916586 0.891070 0.056742
0.990387 0.893592 0.056742
1.034021 0.870184 0.056742
0.000000 0.962777 0.133723
0.027909 0.962777 0.123864
0.060041 0.962777 0.056742
0.180229 0.962777 0.056742
0.263357 0.962777 0.056742
0.340196 0.962777 0.056742
0.414634 0.962777 0.056742
0.487854 0.962777 0.056742
0.560424 0.962777 0.056742
0.632597 0.962777 0.056742
0.704436 0.962777 0.056742
0.776132 0.962777 0.056742
0.847615 0.962777 0.056742
0.919145 0.962777 0.056742
0.990387 0.962777 0.056742
1.034021 0.937673 0.056742
0.000000 1.005209 0.130295
0.027909 1.005209 0.120751
0.060041 1.005209 0.056742
0.175855 1.005209 0.056742
0.256660 1.005209 0.056742
0.331426 1.005209 0.056742
0.403873 1.005209 0.056742
0.475170 1.005209 0.056742
0.545852 1.005209 0.056742
0.616105 1.005209 0.056742
0.686011 1.005209 0.056742
0.755922 1.005209 0.056742
0.825458 1.005209 0.056742
0.895195 1.005209 0.056742
0.964544 1.005209 0.056742
1.034021 1.005209 0.056742
0.000000 0.000000 0.091386
0.032233 0.000000 0.091386
0.064463 0.000000 0.091386
0.096696 0.000000 0.091386
0.144142 0.000000 0.102159
0.204857 0.000000 0.116153
0.278102 0.000000 0.131414
0.362053 0.000000 0.146641
0.453667 0.000000 0.160767
0.545836 0.000000 0.171946
0.638047 0.000000 0.180885
0.731834 0.000000 0.188612
0.826115 0.000000 0.195182
0.916586 0.000000 0.199874
0.990387 0.000000 0.200571
1.034021 0.000000 0.195437
0.000000 0.031335 0.091386
0.027909 0.027133 0.091386
0.063456 0.027133 0.091386
0.096696 0.027133 0.091386
0.144142 0.027133 0.101438
0.204857 0.027133 0.114639
0.278102 0.027133 0.129111
0.362053 0.027133 0.143627
0.453667 0.027133 0.157137
0.545836 0.027133 0.167828
0.638047 0.027133 0.176419
0.731834 0.027133 0.183797
0.826115 0.027133 0.190119
0.916586 0.027133 0.194607
0.990387 0.027133 0.195259
1.034021 0.027133 0.190258
0.000000 0.062670 0.091386
0.027909 0.061689 0.091386
0.060041 0.058368 0.091386
0.096696 0.058368 0.091386
0.144142 0.058368 0.098563
0.204857 0.058368 0.108127
0.278102 0.058368 0.118897
0.362053 0.058368 0.129933
0.453667 0.058368 0.140393
0.545836 0.058368 0.148732
0.638047 0.058368 0.155461
0.731834 0.058368 0.161311
0.826115 0.058368 0.166306
0.916586 0.058368 0.169873
0.990387 0.058368 0.170321
1.034021 0.058368 0.166191
0.000000 0.093990 0.091386
0.027909 0.093990 0.091386
0.060041 0.093990 0.091386
0.096696 0.093990 0.091386
0.144142 0.093990 0.091386
0.204857 0.093990 0.091386
0.278102 0.093990 0.091386
0.362053 0.093990 0.091386
0.453667 0.093990 0.091386
0.545836 0.093990 0.091386
0.638047 0.093990 0.091386
0.731834 0.093990 0.091386
0.826115 0.093990 0.091386
0.916586 0.093990 0.091386
0.990387 0.093990 0.091386
1.034021 0.093990 0.091386
0.000000 0.140122 0.102159
0.027909 0.140122 0.101438
0.060041 0.140122 0.098563
0.096696 0.140122 0.091386
0.144142 0.140122 0.091386
0.204857 0.150424 0.091386
0.278102 0.162183 0.091386
0.362053 0.174461 0.091386
0.453667 0.186242 0.091386
0.545836 0.195626 0.091386
0.638047 0.203268 0.091386
0.731834 0.209934 0.091386
0.826115 0.215689 0.091386
0.916586 0.219756 0.091386
0.990387 0.220106 0.091386
1.034021 0.214923 0.091386
0.000000 0.199147 0.116153
0.027909 0.199147 0.114639
0.060041 0.199147 0.108127
0.096696 0.199147 0.091386
0.154739 0.199147 0.091386
0.204857 0.199147 0.091386
0.278102 0.218131 0.091386
0.362053 0.237579 0.091386
0.453667 0.255969 0.091386
0.545836 0.270481 0.091386
0.638047 0.282174 0.091386
0.731834 0.292350 0.091386
0.826115 0.301103 0.091386
0.916586 0.307265 0.091386
0.990387 0.307768 0.091386
1.034021 0.299924 0.091386
0.000000 0.270358 0.131414
0.027909 0.270358 0.129111
0.060041 0.270358 0.118897
0.096696 0.270358 0.091386
0.166835 0.270358 0.091386
0.224390 0.270358 0.091386
0.278102 0.270358 0.091386
0.362053 0.295845 0.091386
0.453667 0.319828 0.091386
0.545836 0.338672 0.091386
0.638047 0.353803 0.091386
0.731834 0.366983 0.091386
0.826115 0.378281 0.091386
0.916586 0.386236 0.091386
0.990387 0.386889 0.091386
1.034021 0.376797 0.091386
0.000000 0.351964 0.146641
0.027909 0.351964 0.143627
0.060041 0.351964 0.129933
0.096696 0.351964 0.091386
0.179446 0.351964 0.091386
0.244389 0.351964 0.091386
0.304319 0.351964 0.091386
