lut/b1458929-8f5c-4247-90ef-679386e5f643.cube
TITLE "Vibrant Warmth & Greens"
LUT_3D_SIZE 9
0.033463 0.0501259 0.0667582
0.2318 0.00563058 0.0346227
0.474586 0.000991836 0.000686656
0.698329 0.000411994 0.000396735
0.622797 0.0365911 0.0134737
0.759976 0.0485084 0.0134585
0.901396 0.0569009 0.0107118
0.980133 0.0611429 0.0087892
0.996567 0.0620737 0.00852979
0.0315557 0.201114 0.0710613
0.14313 0.211795 0.00416571
0.423117 0.196643 0.0018616
0.644221 0.163088 0.000350958
0.829221 0.0430762 0.000549325
0.740566 0.0741131 0.0210422
0.881346 0.0749828 0.0156863
0.980972 0.0798047 0.0126497
0.996933 0.0807813 0.0122683
0.053193 0.375189 0.0993668
0.0582132 0.371389 0.0866712
0.346105 0.370336 0.000274662
0.586587 0.348333 0.000488289
0.789441 0.342596 0.000564584
0.785153 0.359106 0.0871138
0.902922 0.336858 0.0897993
0.99794 0.295003 0.073579
0.998825 0.221973 0.0499123
0.0576028 0.526452 0.11043
0.0610666 0.52488 0.095552
0.0636149 0.523903 0.0667887
0.495445 0.507073 0.000228885
0.736248 0.47744 0.000457771
0.803586 0.49366 0.0785687
0.901198 0.502876 0.110857
0.997818 0.492317 0.105806
0.999908 0.470161 0.102358
0.165072 0.6271 0.208408
0.103838 0.650492 0.13872
0.0711223 0.660838 0.092256
0.173281 0.701518 0.000106813
0.629389 0.635859 0.000183108
0.778546 0.600198 0.0842451
0.899855 0.612619 0.117784
0.99762 0.618189 0.115419
0.999847 0.606622 0.113756
0.257191 0.726055 0.295811
0.258885 0.724819 0.285618
0.259892 0.722957 0.275135
0.259419 0.718303 0.262806
0.387991 0.815 3.0518e-05
0.729412 0.730373 0.121965
0.887098 0.71458 0.119615
0.997391 0.716167 0.117586
0.99971 0.710246 0.11841
0.285527 0.844373 0.328389
0.286976 0.843183 0.317708
0.288029 0.841794 0.30721
0.288075 0.838865 0.295445
0.289342 0.839017 0.27126
0.623545 0.86836 0.127886
0.846677 0.844434 0.121477
0.993301 0.821302 0.117357
0.999435 0.800412 0.118074
0.299519 0.907134 0.344732
0.302083 0.911543 0.335225
0.304448 0.915908 0.326299
0.306432 0.920516 0.317006
0.308202 0.925231 0.30724
0.391333 0.98143 0.154406
0.741329 0.968811 0.124407
0.950134 0.946181 0.117189
0.999298 0.904814 0.116274
0.302174 0.920333 0.347646
0.304738 0.924697 0.33846
0.307256 0.928847 0.329915
0.309224 0.93344 0.320623
0.310979 0.938033 0.310887
0.312535 0.942824 0.300542
0.534127 0.995407 0.130343
0.838697 0.990448 0.120623
0.998535 0.985626 0.113497
0.00163272 0.00466926 0.244053
0.270359 0.000579843 0.304646
0.539376 0.000366217 0.249348
0.744854 0.000381476 0.136278
0.665019 0.0316777 0.0589761
0.771389 0.0490425 0.0307164
0.910018 0.0572671 0.027512
0.980911 0.0609751 0.0255894
0.997192 0.0620127 0.0253605
0.0331273 0.201709 0.210788
0.145174 0.18941 0.183551
0.45568 0.110445 0.189685
0.674876 0.0523079 0.110933
0.770031 0.0225834 0.013962
0.748318 0.0682383 0.0352026
0.888853 0.0754406 0.0317845
0.981231 0.0800031 0.0289311
0.996994 0.0807355 0.0284886
0.0648661 0.367498 0.127871
0.0711376 0.363668 0.114672
0.337194 0.366918 0.00196841
0.579477 0.34139 0.00706493
0.782406 0.316365 0.00613413
0.812757 0.31632 0.0676127
0.889433 0.300465 0.0970626
0.994797 0.260731 0.0778363
0.997253 0.138079 0.0420691
0.070161 0.518868 0.137484
0.0757916 0.516701 0.125856
0.0814832 0.513848 0.103426
0.489311 0.504143 0.00192264
0.735744 0.479927 0.00216678
0.880049 0.483574 0.027039
0.902174 0.494347 0.130037
0.997024 0.47155 0.118868
0.999664 0.441062 0.114168
0.135668 0.635782 0.198276
0.0981308 0.650431 0.151003
0.0812543 0.654383 0.120073
0.162081 0.69688 0.00183108
0.624903 0.632624 0.00187686
0.812772 0.60206 0.0246433
0.906249 0.619883 0.13547
0.997848 0.618585 0.131579
0.999908 0.602029 0.129
0.265675 0.720775 0.31397
0.268009 0.719326 0.304952
0.269688 0.716793 0.29575
0.269947 0.712245 0.284779
0.372869 0.815763 0.00175479
0.728695 0.730343 0.11249
0.886793 0.715007 0.136934
0.997696 0.722545 0.135424
0.999786 0.715038 0.135698
0.294255 0.83888 0.346914
0.296391 0.83769 0.337469
0.298024 0.835904 0.328161
0.298619 0.832593 0.317479
0.30042 0.832731 0.294606
0.618616 0.866087 0.144869
0.844114 0.841917 0.138506
0.992172 0.820386 0.134463
0.999512 0.80531 0.135698
0.308888 0.90367 0.363973
0.312032 0.907698 0.355734
0.314961 0.911894 0.347845
0.317128 0.916259 0.338994
0.319112 0.920913 0.329885
0.387381 0.978836 0.178485
0.737545 0.967651 0.140917
0.947585 0.943893 0.13434
0.999283 0.903319 0.13341
0.31162 0.91693 0.367071
0.314687 0.920836 0.358968
0.317571 0.924895 0.35108
0.319692 0.929259 0.342199
0.321599 0.933837 0.332967
0.323156 0.938354 0.323018
0.525826 0.995132 0.146365
0.834867 0.990127 0.136675
0.998489 0.985107 0.130526
0.000366217 0.00184634 0.453773
0.251194 0.00134279 0.550057
0.553628 0.000366217 0.556222
0.814389 0.000381476 0.495644
0.750042 0.0299382 0.333852
0.829007 0.0500954 0.278233
0.955688 0.0572671 0.230701
0.986145 0.0602274 0.134569
0.999054 0.0618296 0.0643778
0.00773632 0.201053 0.429618
0.10457 0.157519 0.457267
0.509209 0.00202945 0.521996
0.77113 0.00195315 0.452003
0.944793 0.00195315 0.352026
0.799634 0.0685893 0.259617
0.928298 0.0757763 0.212421
0.983566 0.0798505 0.0857862
0.997482 0.0806897 0.0567636
0.0689708 0.365377 0.380377
0.085069 0.35668 0.372519
0.332128 0.345144 0.366781
0.594278 0.304143 0.334371
0.809567 0.266423 0.28278
0.977035 0.22237 0.221607
0.902052 0.246616 0.24242
0.989685 0.161334 0.155093
0.996658 0.0987411 0.0504463
0.100191 0.505272 0.268681
0.102846 0.502419 0.188296
0.107393 0.498512 0.158145
0.480827 0.499184 0.00477607
0.715953 0.468757 0.193576
0.909773 0.442771 0.217868
0.985504 0.411872 0.167636
0.993225 0.447288 0.268879
0.999573 0.424781 0.216327
0.117327 0.639277 0.197452
0.0978103 0.646845 0.166369
0.0927291 0.646174 0.146868
0.154665 0.690547 0.00343328
0.619089 0.628916 0.0034638
0.852369 0.605585 0.00703441
0.950088 0.614466 0.169665
0.997513 0.61091 0.309483
0.999695 0.582712 0.298024
0.272679 0.715496 0.329671
0.275898 0.713817 0.32195
0.278202 0.711055 0.313802
0.279149 0.70605 0.304173
0.361181 0.813504 0.00337224
0.732113 0.734737 0.0682231
0.887221 0.718624 0.153185
0.998123 0.731533 0.151843
0.999863 0.719493 0.151263
0.301915 0.833906 0.363516
0.304616 0.832242 0.355016
0.306844 0.830228 0.346654
0.307988 0.826703 0.337102
0.310307 0.825986 0.316716
0.613947 0.863401 0.160876
0.841199 0.839521 0.154284
0.991379 0.821332 0.150515
0.999634 0.814878 0.152499
0.317189 0.900801 0.381201
0.320897 0.904418 0.37409
0.324346 0.908263 0.367086
0.327047 0.912551 0.359243
0.32932 0.916854 0.350851
0.38616 0.975586 0.202823
0.734127 0.966232 0.156909
0.945068 0.941314 0.150134
0.999283 0.903212 0.149187
0.319982 0.913939 0.384436
0.323537 0.917449 0.37731
0.326925 0.921355 0.37026
0.32961 0.92546 0.362432
0.331899 0.929824 0.354086
0.333654 0.93431 0.344808
0.521645 0.994919 0.162463
0.832319 0.989685 0.152636
0.998444 0.984695 0.146197
0.000381476 0.00280766 0.649149
0.200565 0.00242618 0.739178
0.528099 0.000366217 0.798413
0.802747 0.000381476 0.777386
0.732204 0.0437018 0.529534
0.887343 0.0504616 0.490745
0.993469 0.0554513 0.445106
0.996628 0.0571145 0.401968
0.999817 0.0586099 0.35053
0.00187686 0.143053 0.639017
0.00331121 0.0325628 0.658061
0.476341 0.00195315 0.768673
0.766155 0.00195315 0.749493
0.75613 0.0475013 0.534768
0.864424 0.0689403 0.468803
0.987457 0.0744335 0.422004
0.996582 0.0761425 0.382513
0.999268 0.0777142 0.33344
0.038407 0.363455 0.572808
0.0541238 0.352087 0.569986
0.302007 0.328328 0.612848
0.64593 0.241642 0.650706
0.953719 0.0771496 0.614939
0.824964 0.0859541 0.437354
0.951751 0.0918288 0.39823
0.996536 0.0946822 0.365423
0.999023 0.0958114 0.327733
0.0912184 0.505165 0.521187
0.107424 0.498405 0.515053
0.12752 0.486671 0.504128
0.471901 0.473182 0.498024
0.724498 0.434653 0.457908
0.939239 0.401923 0.407218
0.987961 0.366674 0.35227
0.998093 0.410071 0.395773
0.999557 0.386847 0.373022
0.119234 0.63711 0.456657
0.134981 0.63093 0.441688
0.149523 0.622354 0.421607
0.302144 0.613306 0.391226
0.60267 0.614816 0.190005
0.846372 0.584482 0.341222
0.985061 0.558328 0.343252
0.995377 0.527398 0.30164
0.999481 0.530449 0.341741
0.278706 0.709972 0.343786
0.282673 0.707927 0.337118
0.285649 0.704738 0.330037
0.287083 0.699199 0.321263
0.33904 0.810208 0.00492866
0.737682 0.742168 0.0150759
0.898802 0.72221 0.204242
0.997894 0.703441 0.200641
0.999847 0.679271 0.235935
0.308598 0.828534 0.378439
0.311879 0.826368 0.370855
0.314717 0.824262 0.3635
0.316381 0.820615 0.354818
0.318883 0.817884 0.338827
0.605447 0.860838 0.172274
0.837278 0.836286 0.169558
0.99115 0.824857 0.166262
0.999771 0.826429 0.175128
0.324773 0.898146 0.397223
0.329 0.901579 0.390967
0.332906 0.905272 0.384756
0.336187 0.909133 0.377844
0.338949 0.913298 0.370352
0.380529 0.969924 0.233463
0.729351 0.963806 0.172442
0.942107 0.938445 0.165438
0.999313 0.904845 0.16463
0.327581 0.91136 0.400427
0.331624 0.91458 0.394247
0.335515 0.918196 0.387945
0.33872 0.92224 0.380941
0.341405 0.926116 0.373373
0.343618 0.930449 0.365133
0.5196 0.994797 0.17821
0.829511 0.989456 0.167987
0.99823 0.984512 0.161379
0.00265507 0.00683604 0.549233
0.0544442 0.0159304 0.569772
0.375967 0.0274205 0.718791
0.555734 0.0391394 0.703334
0.72607 0.0465095 0.696483
0.89691 0.0514076 0.683162
0.995026 0.0542306 0.656931
0.99852 0.0549477 0.612436
0.999939 0.0558785 0.561074
0.0077821 0.0467536 0.552148
0.0203403 0.0361944 0.551049
0.402625 0.0131685 0.878279
0.616831 0.0210575 0.813626
0.707073 0.0651713 0.682185
0.878141 0.069688 0.666941
0.993637 0.0728466 0.637018
0.998352 0.073579 0.592569
0.999771 0.0745556 0.538628
0.124865 0.335225 0.600916
0.0851759 0.329412 0.681971
0.26717 0.302434 0.824826
0.626047 0.203967 0.909377
0.741817 0.0770428 0.720272
0.854612 0.0871138 0.64387
0.991287 0.0906996 0.608499
0.99823 0.0915236 0.565637
0.999649 0.0928664 0.515938
0.166918 0.482139 0.623697
0.108385 0.490486 0.675914
0.0915541 0.485176 0.69453
0.447791 0.458259 0.746578
0.775998 0.383749 0.774701
0.98117 0.28719 0.721904
0.984161 0.291829 0.581338
0.998138 0.258778 0.541939
0.999557 0.22475 0.504997
0.261295 0.594919 0.604913
0.201495 0.60885 0.621454
0.151232 0.617456 0.632929
0.262974 0.609552 0.627497
0.593698 0.591028 0.61915
0.858213 0.547356 0.576822
0.986877 0.516915 0.523369
0.997742 0.488502 0.47306
0.999466 0.473198 0.451057
0.313863 0.708232 0.600992
0.323247 0.702937 0.594171
0.319997 0.70106 0.585321
0.252384 0.715938 0.562417
0.436896 0.729595 0.517174
0.72285 0.726055 0.322606
0.961364 0.698009 0.447501
0.99501 0.667552 0.45507
0.999405 0.638621 0.439261
0.349203 0.816953 0.531502
0.357595 0.811307 0.509621
0.36286 0.806912 0.486702
0.363638 0.802167 0.463447
0.355505 0.798093 0.426276
0.523827 0.90071 0.0366522
0.831754 0.83209 0.185428
0.996246 0.824689 0.1467
0.999802 0.811017 0.30341
0.331487 0.895949 0.411902
0.336294 0.899184 0.406531
0.34078 0.902525 0.401205
0.344488 0.906157 0.395041
0.347829 0.910079 0.388495
0.372396 0.956466 0.278828
0.722683 0.960327 0.187808
0.937667 0.934936 0.180362
0.999374 0.909682 0.181842
0.334401 0.909117 0.41529
0.338918 0.912077 0.409827
0.343328 0.915434 0.404379
0.347066 0.919127 0.398276
0.350317 0.922881 0.391562
0.352941 0.926986 0.384085
0.520668 0.994568 0.193408
0.827756 0.989212 0.183185
0.997986 0.984329 0.176242
0.00503548 0.0164492 0.679789
0.0386664 0.0219425 0.691005
0.3355 0.0442969 0.791272
0.538872 0.0469215 0.838148
0.722255 0.0495766 0.851133
0.891936 0.0537118 0.846677
0.994934 0.0556954 0.834195
0.99852 0.0558328 0.803998
0.999939 0.0559243 0.762432
0.0108949 0.0404669 0.677211
0.0267948 0.0416419 0.679728
0.299748 0.0638285 0.768978
0.514458 0.0662089 0.822858
0.701457 0.0683299 0.837156
0.872541 0.0717937 0.832135
0.993469 0.0739757 0.818311
0.998337 0.0741131 0.789502
0.999756 0.0741131 0.743236
0.118715 0.315496 0.710781
0.125505 0.29868 0.708843
0.237613 0.276478 0.74287
0.540063 0.167178 0.919173
0.672419 0.0859693 0.819165
0.848646 0.0889448 0.813901
0.990921 0.091371 0.798505
0.99823 0.0915694 0.76936
0.999649 0.0916304 0.720485
0.186191 0.471977 0.716457
0.195178 0.464485 0.713558
0.202213 0.453819 0.709636
0.419944 0.43917 0.963531
0.753552 0.358557 0.985382
0.981064 0.234897 0.983978
0.986511 0.185229 0.777356
0.998138 0.108461 0.738079
0.999542 0.108782 0.689113
0.246662 0.598718 0.72018
0.256168 0.593027 0.715846
0.264408 0.58584 0.710903
0.216205 0.60354 0.800946
0.573922 0.575952 0.870207
0.900465 0.503304 0.893523
0.992111 0.431617 0.828733
0.998047 0.380667 0.773632
0.999466 0.355474 0.715923
0.308522 0.71104 0.720195
0.318273 0.706065 0.71545
0.327047 0.70042 0.710094
0.334356 0.692088 0.702342
0.401404 0.725048 0.744091
0.708568 0.703304 0.734646
0.972457 0.658 0.687327
0.996979 0.627619 0.636179
0.99939 0.615564 0.611704
0.355489 0.821012 0.717464
0.364858 0.816022 0.71191
0.373632 0.811124 0.706065
0.381521 0.804532 0.697414
0.388113 0.795239 0.684276
0.591592 0.842313 0.648417
0.837095 0.832258 0.480003
0.994751 0.803113 0.56286
0.99942 0.77171 0.582391
0.377554 0.891936 0.664103
0.388342 0.892149 0.65951
0.398962 0.892851 0.654353
0.409094 0.893263 0.645426
0.418708 0.893355 0.62707
0.456535 0.891554 0.568826
0.660121 0.989441 0.105684
0.93196 0.929793 0.295781
0.999466 0.914137 0.321584
0.363058 0.901015 0.486671
0.362753 0.90486 0.464149
0.3617 0.909361 0.443946
0.35903 0.914946 0.423301
0.358663 0.919951 0.408789
0.361913 0.92372 0.402258
0.534768 0.994354 0.207797
0.828428 0.988891 0.197879
0.997772 0.983978 0.190799
0.00573739 0.0190127 0.712642
0.02121 0.0213779 0.718563
0.306783 0.0458991 0.817731
0.524147 0.0491188 0.879423
0.713863 0.0512398 0.906188
0.887587 0.0544137 0.916014
0.994904 0.0566873 0.918624
0.998505 0.0569924 0.918898
0.999939 0.0576181 0.919203
0.0125734 0.04271 0.718578
0.0292058 0.04448 0.724086
0.263844 0.0650492 0.80296
0.497719 0.0689708 0.874708
0.691859 0.0700999 0.905501
0.867887 0.0725567 0.916411
0.993393 0.0749523 0.919432
0.998337 0.0753185 0.919585
0.999756 0.0754864 0.912062
0.102052 0.275273 0.757641
0.10634 0.249973 0.75938
0.156466 0.189883 0.776272
0.452186 0.088716 0.864073
0.66128 0.0884413 0.903899
0.843793 0.0902266 0.917113
0.989807 0.092668 0.920516
0.99823 0.0928054 0.919112
0.999634 0.0928054 0.896956
0.176226 0.460533 0.782254
0.185183 0.452201 0.783673
0.19176 0.439628 0.784665
0.384146 0.414923 0.997024
0.734249 0.324025 0.997009
0.821363 0.273259 0.934676
0.980591 0.127749 0.923735
0.998123 0.109651 0.910353
0.999542 0.109514 0.874144
0.235813 0.596094 0.806546
0.245045 0.590127 0.806729
0.252949 0.582818 0.806882
0.275593 0.572137 0.809689
0.55169 0.558816 0.996933
0.876844 0.482963 0.996536
0.992065 0.396017 0.995346
0.998047 0.37113 0.955261
0.999451 0.282231 0.856138
0.290242 0.71548 0.828717
0.299641 0.710292 0.826505
0.308171 0.704692 0.823896
0.315206 0.696056 0.819364
0.338689 0.724193 0.940169
0.691203 0.687846 0.981994
0.987213 0.616449 0.988144
0.997971 0.559167 0.951095
0.999374 0.535271 0.886015
0.348409 0.823163 0.832364
0.357824 0.818082 0.827741
0.366857 0.81323 0.823194
0.374929 0.806516 0.816892
0.381842 0.797208 0.808164
0.573571 0.835019 0.856794
0.823178 0.809918 0.845106
0.99501 0.768856 0.793881
0.999298 0.752331 0.765026
0.382742 0.898558 0.813428
0.393713 0.898863 0.810544
0.404532 0.899519 0.807965
0.41503 0.900191 0.803967
0.424689 0.899046 0.79707
0.454643 0.892607 0.788144
0.71487 0.941192 0.761379
0.938949 0.927031 0.626993
0.999405 0.899092 0.695293
0.384771 0.90782 0.748592
0.395178 0.908003 0.744854
0.405875 0.908827 0.741131
0.416114 0.909285 0.735653
0.426139 0.90985 0.728817
0.436164 0.910567 0.723659
0.573114 0.981964 0.673579
0.779751 0.998779 0.430716
0.99881 0.990539 0.37084
0.00610361 0.0200961 0.725567
0.0220188 0.0224308 0.731441
0.256764 0.0448005 0.812512
0.493385 0.0498512 0.88571
0.686641 0.0514534 0.917586
0.860639 0.0542306 0.929671
0.994919 0.0569772 0.933516
0.99852 0.0573892 0.933837
0.999939 0.0576791 0.934142
0.013138 0.043534 0.731319
0.0298619 0.0452583 0.736721
0.191836 0.0617838 0.790249
0.467811 0.069688 0.880171
0.666728 0.0703593 0.916671
0.844144 0.0726177 0.930083
0.993393 0.0751049 0.934386
0.998337 0.0754711 0.934585
0.999756 0.0757153 0.934737
0.0513619 0.142992 0.75256
0.0438239 0.0827344 0.745464
0.0539712 0.0683757 0.746807
0.422965 0.0887617 0.868009
0.638056 0.0886091 0.914595
0.822232 0.0901961 0.930587
0.984771 0.0923934 0.935241
0.998215 0.0928511 0.935515
0.999634 0.0930648 0.935622
0.164263 0.433753 0.789899
0.173312 0.424933 0.791516
0.180758 0.413214 0.792905
0.355261 0.401694 0.862638
0.707729 0.278874 0.997589
0.799039 0.232074 0.944106
0.964111 0.109422 0.936217
0.998123 0.10988 0.936645
0.999542 0.110063 0.936721
0.226322 0.577157 0.81326
0.235737 0.571649 0.813825
0.244099 0.565179 0.814404
0.256596 0.554681 0.815793
0.53257 0.54258 0.998413
0.855085 0.467826 0.998398
0.990433 0.377829 0.998398
0.998032 0.37464 0.957107
0.999451 0.20354 0.94522
0.280583 0.700145 0.841596
0.290425 0.69575 0.841382
0.299214 0.690974 0.841215
0.306447 0.683116 0.840375
0.379202 0.696803 0.920165
0.676539 0.675166 0.998352
0.978637 0.605112 0.998337
0.997971 0.538643 0.998322
0.999374 0.495933 0.998306
0.334371 0.811856 0.871366
0.343709 0.808286 0.870924
0.352361 0.804227 0.870527
0.359686 0.798245 0.869703
0.365621 0.78967 0.868269
0.540917 0.82562 0.978317
0.808286 0.796429 0.997955
0.996292 0.734066 0.998215
0.999298 0.704387 0.995834
0.377966 0.903929 0.899794
0.389212 0.904707 0.900099
0.399878 0.904585 0.900496
0.409369 0.902495 0.899992
0.417456 0.897276 0.897337
0.443992 0.890288 0.894469
0.708019 0.930114 0.946639
0.930098 0.907805 0.938155
0.999222 0.876692 0.902571
0.385534 0.914336 0.876768
0.396475 0.914549 0.873259
0.40763 0.915114 0.870481
0.418448 0.915526 0.867109
0.429084 0.916091 0.863127
0.439551 0.916686 0.858701
0.564981 0.978592 0.880705
0.847868 0.980087 0.869413
0.998703 0.975128 0.779293
0.00634775 0.0210117 0.736385
0.0227207 0.0233158 0.742428
0.18529 0.0408331 0.797787
0.467094 0.0501411 0.890211
0.665919 0.0515297 0.927153
0.84242 0.0541238 0.941238
0.99028 0.0570382 0.945937
0.99852 0.0575265 0.946303
0.999939 0.0579232 0.946548
0.0137331 0.0442664 0.742702
0.0306401 0.0461433 0.748455
0.046891 0.0479744 0.753811
0.436011 0.0701915 0.88304
0.641062 0.0706645 0.926375
0.820356 0.0724041 0.942504
0.981628 0.0750439 0.947936
0.998337 0.0756085 0.948394
0.999756 0.0758526 0.948577
0.0236973 0.0719615 0.749569
0.0381476 0.0674754 0.753689
0.0542763 0.0690013 0.758907
0.387137 0.0891432 0.868986
0.609751 0.0892195 0.923812
0.795804 0.0901808 0.943297
0.963561 0.0923171 0.949554
0.998215 0.0929885 0.950286
0.999634 0.0932021 0.950439
0.150317 0.400778 0.796536
0.15845 0.388495 0.798306
0.166445 0.377066 0.800122
0.314061 0.362493 0.848737
0.581552 0.28571 0.933913
0.76788 0.170687 0.950118
0.935912 0.108949 0.950179
0.998123 0.110018 0.9514
0.999527 0.110185 0.951522
0.215 0.55407 0.819516
0.224201 0.547662 0.820325
0.232868 0.541619 0.821439
0.242908 0.53312 0.822843
0.512169 0.524437 0.999863
0.827222 0.453193 0.999847
0.98819 0.36202 0.999847
0.998032 0.326604 0.96907
0.999435 0.159426 0.955901
0.270161 0.67953 0.846311
0.279576 0.674098 0.846006
0.288533 0.669352 0.846036
0.296422 0.663005 0.845869
0.414984 0.668254 0.86891
0.663905 0.662333 0.999802
0.960571 0.597375 0.999786
0.997589 0.529961 0.999771
0.999359 0.473152 0.999756
0.322652 0.792126 0.875273
0.331334 0.787121 0.874571
0.339773 0.78265 0.87425
0.347692 0.777432 0.873655
0.354635 0.770672 0.872938
0.532784 0.80882 0.996597
0.798611 0.786511 0.999725
0.994858 0.728344 0.99971
0.999283 0.688045 0.999695
0.372305 0.894316 0.905318
0.381201 0.890333 0.904448
0.39028 0.886931 0.904005
0.398474 0.882383 0.903258
0.405814 0.876524 0.902098
0.435401 0.872343 0.903441
0.698451 0.915312 0.981048
0.922286 0.897292 0.996277
0.999222 0.857435 0.995178
0.382391 0.916976 0.912474
0.392966 0.917266 0.912902
0.403998 0.918074 0.913725
0.414679 0.918914 0.914656
0.425132 0.919753 0.915572
0.435431 0.920577 0.916457
0.531212 0.980407 0.975418
0.844312 0.976455 0.973907
0.996674 0.970062 0.964431
