lut/b1458929-8f5c-4247-90ef-679386e5f643.cube
TITLE "Vibrant Warmth & Greens"
LUT_3D_SIZE 17
0.033463 0.0501259 0.0667582
0.112062 0.0354009 0.0715038
0.2318 0.00563058 0.0346227
0.353292 0.00115969 0.002121
0.474586 0.000991836 0.000686656
0.589746 0.000686656 0.000381476
0.698329 0.000411994 0.000396735
0.805035 0.000396735 0.000396735
0.622797 0.0365911 0.0134737
0.687617 0.0438087 0.0142977
0.759976 0.0485084 0.0134585
0.831174 0.052903 0.0122835
0.901396 0.0569009 0.0107118
0.962463 0.0601511 0.00918593
0.980133 0.0611429 0.0087892
0.988434 0.061799 0.0087129
0.996567 0.0620737 0.00852979
0.00802625 0.109514 0.0431678
0.0537881 0.120989 0.0164034
0.212665 0.112993 0.0056611
0.336889 0.0899977 0.00341802
0.451087 0.0446174 0.00109865
0.567727 0.00381476 0.000320439
0.677501 0.00166323 0.000320439
0.785519 0.00143435 0.000335698
0.677211 0.0304265 0.00972
0.678447 0.0532998 0.0170748
0.750713 0.0580148 0.0159915
0.821775 0.0621653 0.0146944
0.892149 0.0661021 0.0130312
0.95729 0.0693523 0.0112764
0.980438 0.0706035 0.0106813
0.98851 0.071107 0.0104677
0.996567 0.0716106 0.0103304
0.0315557 0.201114 0.0710613
0.0358587 0.197086 0.0667887
0.14313 0.211795 0.00416571
0.306935 0.202518 0.00332647
0.423117 0.196643 0.0018616
0.536675 0.185122 0.000534066
0.644221 0.163088 0.000350958
0.751202 0.129366 0.000320439
0.829221 0.0430762 0.000549325
0.668925 0.0727855 0.0232395
0.740566 0.0741131 0.0210422
0.811536 0.0751507 0.0185702
0.881346 0.0749828 0.0156863
0.948974 0.078294 0.0137789
0.980972 0.0798047 0.0126497
0.988983 0.080415 0.0125429
0.996933 0.0807813 0.0122683
0.0458381 0.291264 0.0885939
0.0491951 0.289311 0.0831464
0.057557 0.293202 0.0586252
0.260914 0.293584 0.0011902
0.396612 0.280446 0.00047303
0.507836 0.277211 0.00047303
0.610254 0.272145 0.000488289
0.718486 0.262318 0.000457771
0.825803 0.245548 0.000427253
0.874708 0.233356 0.0121614
0.763119 0.251789 0.0764172
0.824689 0.222217 0.0632486
0.881346 0.161456 0.0392309
0.938781 0.0948196 0.0180819
0.980896 0.0939651 0.016083
0.989654 0.0920577 0.0152132
0.997314 0.0905928 0.0145418
0.053193 0.375189 0.0993668
0.0557717 0.374136 0.0929732
0.0582132 0.371389 0.0866712
0.105409 0.398154 0.00181582
0.346105 0.370336 0.000274662
0.479927 0.35227 0.000381476
0.586587 0.348333 0.000488289
0.687938 0.347143 0.000564584
0.789441 0.342596 0.000564584
0.886732 0.333944 0.000534066
0.785153 0.359106 0.0871138
0.838834 0.351415 0.0948043
0.902922 0.336858 0.0897993
0.963928 0.31841 0.0826123
0.99794 0.295003 0.073579
0.998016 0.261799 0.0630655
0.998825 0.221973 0.0499123
0.0565652 0.452811 0.106188
0.0586557 0.452079 0.0989548
0.0606851 0.450614 0.0921798
0.0628672 0.447013 0.0849317
0.190326 0.472465 0.000198367
0.422171 0.441169 0.000259403
0.555184 0.419913 0.000350958
0.662654 0.414191 0.00047303
0.764721 0.415335 0.000595102
0.860929 0.41326 0.000640879
0.802152 0.432349 0.0782788
0.838315 0.436774 0.105928
0.905303 0.43183 0.103304
0.968505 0.422507 0.100267
0.998306 0.407446 0.0963607
0.999146 0.38674 0.0926375
0.999802 0.372686 0.0896468
0.0576028 0.526452 0.11043
0.0593423 0.526024 0.102693
0.0610666 0.52488 0.095552
0.0627451 0.52256 0.0884565
0.0636149 0.523903 0.0667887
0.283497 0.538628 0.000167849
0.495445 0.507073 0.000228885
0.627268 0.485496 0.000335698
0.736248 0.47744 0.000457771
0.836622 0.477943 0.000579843
0.803586 0.49366 0.0785687
0.836881 0.501686 0.112734
0.901198 0.502876 0.110857
0.963973 0.500755 0.108461
0.997818 0.492317 0.105806
0.999222 0.47744 0.103685
0.999908 0.470161 0.102358
0.0575265 0.598428 0.113619
0.0588388 0.597894 0.105348
0.0602731 0.597299 0.097734
0.061677 0.595651 0.0903029
0.0621042 0.593332 0.0809949
0.1084 0.630686 0.000137331
0.38262 0.601572 0.000137331
0.563561 0.572488 0.000213626
0.695994 0.549996 0.00030518
0.805875 0.53872 0.000427253
0.789731 0.546456 0.0907301
0.83743 0.556619 0.116594
0.901015 0.562142 0.115587
0.961303 0.563958 0.113817
0.997589 0.560067 0.111604
0.999191 0.548837 0.110018
0.999908 0.544945 0.109087
0.165072 0.6271 0.208408
0.130541 0.640208 0.170108
0.103838 0.650492 0.13872
0.0822003 0.658244 0.111879
0.0711223 0.660838 0.092256
0.0631876 0.663539 0.0694591
0.173281 0.701518 0.000106813
0.457633 0.664881 0.000106813
0.629389 0.635859 0.000183108
0.75935 0.612314 0.000289921
0.778546 0.600198 0.0842451
0.833478 0.604547 0.118257
0.899855 0.612619 0.117784
0.962005 0.618814 0.11696
0.99762 0.618189 0.115419
0.999115 0.609369 0.114397
0.999847 0.606622 0.113756
0.241749 0.665385 0.278294
0.242618 0.664759 0.27306
0.243473 0.664195 0.268223
0.243824 0.663279 0.263066
0.237858 0.664393 0.251301
0.222126 0.668116 0.229618
0.155367 0.700786 0.134051
0.238712 0.765286 6.10361e-05
0.527504 0.726284 9.15541e-05
0.689998 0.693507 0.00015259
0.755978 0.662165 0.113512
0.826459 0.657786 0.119661
0.894408 0.660456 0.11873
0.959472 0.666621 0.117983
0.99765 0.669062 0.117144
0.999039 0.66276 0.11696
0.999786 0.661189 0.116915
0.257191 0.726055 0.295811
0.258 0.725368 0.290455
0.258885 0.724819 0.285618
0.259678 0.724041 0.280812
0.259892 0.722957 0.275135
0.259632 0.720684 0.268879
0.259419 0.718303 0.262806
0.272557 0.742077 0.194385
0.387991 0.815 3.0518e-05
0.613123 0.760266 0.0231174
0.729412 0.730373 0.121965
0.814343 0.719753 0.121279
0.887098 0.71458 0.119615
0.953399 0.714992 0.11841
0.997391 0.716167 0.117586
0.998932 0.711269 0.117922
0.99971 0.710246 0.11841
0.271885 0.786191 0.312596
0.272557 0.785107 0.307073
0.273396 0.784726 0.302083
0.274174 0.784024 0.297292
0.274403 0.782879 0.291661
0.274418 0.781567 0.285664
0.274174 0.779278 0.27953
0.274403 0.778149 0.269764
0.350301 0.818936 0.145006
0.560021 0.811368 0.128542
0.686305 0.800153 0.125399
0.788754 0.787854 0.122744
0.873823 0.776822 0.120546
0.946105 0.769924 0.118807
0.99733 0.765606 0.117372
0.998795 0.758633 0.117815
0.999573 0.755505 0.118563
0.285527 0.844373 0.328389
0.286137 0.843381 0.322652
0.286976 0.843183 0.317708
0.287739 0.842527 0.312825
0.288029 0.841794 0.30721
0.288106 0.840375 0.301411
0.288075 0.838865 0.295445
0.287968 0.836439 0.28957
0.289342 0.839017 0.27126
0.432532 0.879744 0.133135
0.623545 0.86836 0.127886
0.745495 0.857023 0.124315
0.846677 0.844434 0.121477
0.930938 0.831983 0.119142
0.993301 0.821302 0.117357
0.998688 0.809277 0.117388
0.999435 0.800412 0.118074
0.297704 0.898573 0.342519
0.298421 0.898116 0.336858
0.299275 0.898131 0.33193
0.300114 0.897887 0.327108
0.30042 0.897292 0.321538
0.300633 0.896376 0.315892
0.300771 0.894896 0.310307
0.300786 0.892927 0.304555
0.300496 0.89044 0.298039
0.306905 0.905058 0.25127
0.527169 0.933577 0.130724
0.685298 0.92224 0.12639
0.801968 0.910552 0.122591
0.901579 0.897826 0.119524
0.980896 0.882826 0.11722
0.998627 0.865797 0.116655
0.999344 0.849867 0.117266
0.299519 0.907134 0.344732
0.300816 0.9093 0.339742
0.302083 0.911543 0.335225
0.303426 0.913649 0.330983
0.304448 0.915908 0.326299
0.305455 0.918273 0.32163
0.306432 0.920516 0.317006
0.307408 0.922805 0.312474
0.308202 0.925231 0.30724
0.308965 0.92755 0.301991
0.391333 0.98143 0.154406
0.601068 0.978073 0.128695
0.741329 0.968811 0.124407
0.853605 0.958328 0.120485
0.950134 0.946181 0.117189
0.998566 0.926741 0.115526
0.999298 0.904814 0.116274
0.300862 0.913787 0.346197
0.302098 0.915846 0.34136
0.30341 0.918029 0.336873
0.304692 0.920195 0.33257
0.305867 0.922408 0.328161
0.306844 0.924681 0.323461
0.307836 0.927001 0.318853
0.308797 0.929244 0.314229
0.30959 0.931655 0.309026
0.310369 0.934035 0.303883
0.313939 0.944366 0.281285
0.47071 0.989822 0.133562
0.661799 0.9879 0.126772
0.78938 0.984817 0.122545
0.897581 0.98172 0.118502
0.987503 0.976806 0.114992
0.998947 0.964767 0.114763
0.302174 0.920333 0.347646
0.30341 0.922438 0.342916
0.304738 0.924697 0.33846
0.306081 0.92665 0.334325
0.307256 0.928847 0.329915
0.308263 0.931212 0.325246
0.309224 0.93344 0.320623
0.31017 0.935668 0.315999
0.310979 0.938033 0.310887
0.311757 0.940444 0.305684
0.312535 0.942824 0.300542
0.323354 0.967117 0.243122
0.534127 0.995407 0.130343
0.717174 0.993545 0.12491
0.838697 0.990448 0.120623
0.943297 0.987716 0.116518
0.998535 0.985626 0.113497
0.0178225 0.0417792 0.150515
0.119295 0.00553903 0.173678
0.254643 0.00062562 0.159792
0.385 0.000671397 0.102571
0.495766 0.000717174 0.0292973
0.604074 0.000503548 0.00270085
0.708812 0.000381476 0.00192264
0.812802 0.000396735 0.00128176
0.62446 0.0373236 0.0218662
0.691218 0.0439612 0.0230869
0.762417 0.0486915 0.0222324
0.833448 0.0530556 0.0209201
0.903593 0.0567941 0.0193179
0.963699 0.0601053 0.0178225
0.980468 0.0610513 0.0174411
0.988739 0.0615854 0.0172427
0.996857 0.0618753 0.0170443
0.00880446 0.110826 0.109834
0.0707866 0.106645 0.109056
0.2262 0.0782788 0.108995
0.353872 0.0294957 0.0945754
0.468299 0.00373846 0.0292973
0.579339 0.00236515 0.00167849
0.686595 0.00137331 0.00141909
0.792905 0.0011902 0.00120546
0.679713 0.032517 0.0150149
0.681727 0.053727 0.0256504
0.753017 0.0581064 0.0245365
0.823713 0.0623484 0.0232395
0.893935 0.0662547 0.0215457
0.958907 0.0693675 0.0197299
0.980636 0.0704204 0.0190433
0.988678 0.0709239 0.0189059
0.99675 0.0716716 0.0188449
0.0334936 0.198444 0.0847486
0.0386358 0.1944 0.0783398
0.123964 0.209125 0.0174868
0.309743 0.194659 0.0200198
0.427085 0.17966 0.0257725
0.536873 0.162249 0.00228885
0.644526 0.133852 0.00115969
0.756222 0.0771801 0.00115969
0.80032 0.0212406 0.00488289
0.669917 0.0669871 0.0296178
0.741726 0.0708171 0.0282597
0.812482 0.0725261 0.0260471
0.883024 0.0751812 0.0240024
0.951019 0.0784924 0.0219883
0.981109 0.0798962 0.0209964
0.989029 0.0802777 0.0208133
0.996857 0.080766 0.0205844
0.0492866 0.28806 0.0991684
0.0536965 0.285985 0.0949264
0.0585336 0.281514 0.0901045
0.255604 0.29163 0.00503548
0.393988 0.27892 0.00155642
0.506142 0.271778 0.00166323
0.611017 0.261143 0.00181582
0.714305 0.245029 0.00132753
0.818631 0.224094 0.00115969
0.902632 0.204776 0.00114443
0.755047 0.234028 0.0787366
0.816419 0.193286 0.0610666
0.874632 0.125689 0.036347
0.938003 0.0872816 0.0244907
0.980789 0.0894636 0.023209
0.98941 0.0898604 0.0229038
0.997192 0.0899519 0.0225528
0.0581674 0.371847 0.111482
0.0615702 0.370825 0.106203
0.0647746 0.367712 0.100969
0.101015 0.39498 0.0106355
0.34258 0.368902 0.00114443
0.477989 0.351019 0.00123598
0.584787 0.346792 0.00132753
0.687068 0.342214 0.00134279
0.791135 0.334447 0.00132753
0.890959 0.320363 0.00129702
0.797284 0.339666 0.0752728
0.828428 0.333867 0.099794
0.892683 0.320058 0.0940108
0.955337 0.30071 0.0858625
0.99704 0.277531 0.0759747
0.996689 0.243427 0.0645609
0.998016 0.186999 0.0468147
0.0624704 0.449363 0.119402
0.0652018 0.448478 0.113085
0.0679484 0.446845 0.107362
0.0707713 0.443137 0.101122
0.18233 0.471473 0.00108339
0.418509 0.43978 0.00112917
0.553185 0.418418 0.00122072
0.662867 0.41471 0.00135805
0.764446 0.414252 0.00143435
0.862821 0.410086 0.00144961
0.830961 0.424491 0.0632029
0.838285 0.429709 0.112978
0.900847 0.420783 0.109957
0.960967 0.408453 0.106279
0.997803 0.392248 0.101747
0.999008 0.372229 0.097673
0.999695 0.355535 0.093904
0.0640726 0.522774 0.124346
0.066331 0.522179 0.11751
0.0686198 0.52108 0.111116
0.0709239 0.518242 0.104982
0.0729992 0.519081 0.0854353
0.27602 0.537346 0.00105287
0.492714 0.505623 0.00109865
0.62533 0.484398 0.00120546
0.737377 0.478218 0.00134279
0.838254 0.480125 0.00148013
0.831907 0.49163 0.0612345
0.839307 0.501183 0.120775
0.903822 0.50042 0.118517
0.96492 0.495537 0.115846
0.997757 0.484718 0.113069
0.999146 0.467155 0.110384
0.999802 0.456428 0.108675
0.0643168 0.594324 0.128054
0.0662242 0.59382 0.120668
0.0681315 0.592889 0.113771
0.0699931 0.591119 0.107149
0.0707561 0.588647 0.0983902
0.105745 0.626596 0.00102235
0.37792 0.600061 0.00102235
0.561303 0.570748 0.00108339
0.694499 0.54873 0.0011902
0.806989 0.539712 0.00131228
0.816831 0.548272 0.0654459
0.840345 0.559533 0.12549
0.903197 0.563012 0.124041
0.963729 0.562982 0.121904
0.997681 0.557397 0.119524
0.999207 0.544717 0.117662
0.999908 0.539086 0.116518
0.149279 0.631922 0.202609
0.121904 0.642344 0.170901
0.100816 0.650523 0.145006
0.0835889 0.656336 0.122271
0.076112 0.657664 0.106401
0.071519 0.658488 0.0881819
0.168109 0.69929 0.000991836
0.454109 0.663172 0.000991836
0.627466 0.634241 0.00105287
0.759106 0.611078 0.00115969
0.796658 0.600504 0.0544442
0.83682 0.60763 0.127413
0.90341 0.616037 0.126925
0.964614 0.620645 0.125719
0.997787 0.61854 0.123903
0.999146 0.608209 0.122637
0.999893 0.604974 0.121767
0.246006 0.662928 0.287495
0.247105 0.662104 0.282689
0.24715 0.661753 0.277256
0.245548 0.661738 0.270665
0.2365 0.663813 0.256382
0.216495 0.669245 0.231296
0.147921 0.701625 0.137896
0.231647 0.764111 0.000961318
0.524529 0.724575 0.000976577
0.689754 0.693385 0.00103761
0.763088 0.66273 0.0946975
0.826505 0.657954 0.128542
0.896742 0.662608 0.127825
0.962951 0.669871 0.127169
0.997879 0.671611 0.126207
0.999084 0.664118 0.125841
0.999817 0.661677 0.125444
0.26157 0.723384 0.30518
0.262486 0.722286 0.300069
0.26363 0.721752 0.295674
0.264469 0.720897 0.29099
0.264866 0.719493 0.28571
0.264927 0.717769 0.279911
0.26482 0.715114 0.274113
0.262486 0.741863 0.198779
0.379873 0.815824 0.0009308
0.604257 0.768215 0.0115206
0.728954 0.73022 0.11902
0.813107 0.718242 0.130037
0.886778 0.714183 0.128573
0.954772 0.716548 0.127565
0.997528 0.718914 0.126772
0.998978 0.713924 0.127153
0.999741 0.712261 0.127413
0.27631 0.78323 0.322103
0.277211 0.7823 0.316884
0.278141 0.78172 0.312184
0.279042 0.780774 0.307576
0.279484 0.779736 0.302312
0.279652 0.778347 0.296681
0.279698 0.776242 0.291051
0.27982 0.774105 0.282887
0.34876 0.816464 0.157107
0.546532 0.817334 0.0970169
0.684367 0.798764 0.134295
0.787289 0.786572 0.131624
0.872602 0.77554 0.129427
0.945434 0.769421 0.127672
0.997391 0.766384 0.126406
0.998825 0.760403 0.127001
0.999619 0.75848 0.127871
0.290013 0.841627 0.337911
0.290852 0.84062 0.332631
0.291768 0.840085 0.327825
0.292668 0.839338 0.323247
0.293217 0.838758 0.318029
0.293462 0.837354 0.312551
0.293538 0.83563 0.306905
0.293477 0.833082 0.301122
0.295079 0.835996 0.283009
0.430488 0.878218 0.142489
0.621134 0.867109 0.136599
0.743801 0.855558 0.133211
0.84535 0.842969 0.130343
0.929595 0.830915 0.12813
0.992706 0.820584 0.126223
0.998688 0.80972 0.126329
0.999466 0.802167 0.127138
0.302342 0.895979 0.352346
0.303181 0.895125 0.34699
0.304189 0.895109 0.342245
0.305074 0.894697 0.337575
0.305562 0.893904 0.332372
0.305943 0.893111 0.327062
0.306096 0.891661 0.321416
0.306172 0.889616 0.315892
0.305852 0.887098 0.309438
0.311711 0.901228 0.265003
0.523705 0.932372 0.139086
0.683268 0.920989 0.134829
0.800504 0.909392 0.13138
0.900008 0.896574 0.12842
0.979721 0.881788 0.126101
0.998627 0.864958 0.125597
0.999344 0.849882 0.126207
0.304341 0.905303 0.354635
0.30576 0.907423 0.350027
0.307225 0.909499 0.345876
0.308705 0.911528 0.341863
0.309926 0.913909 0.33753
0.310872 0.916075 0.332815
0.311833 0.918288 0.328191
0.31284 0.920501 0.323674
0.313664 0.923079 0.318563
0.314321 0.925399 0.313313
0.389944 0.980407 0.165759
0.598733 0.977829 0.136843
0.739605 0.968322 0.132647
0.852033 0.957519 0.129107
0.948943 0.944717 0.126085
0.998566 0.925994 0.124453
0.999283 0.904036 0.1252
0.305669 0.91194 0.356115
0.307134 0.913985 0.35172
0.308583 0.91606 0.347539
0.309987 0.918105 0.34342
0.311192 0.920394 0.339055
0.312123 0.92256 0.334325
0.313161 0.924849 0.329839
0.314122 0.927123 0.325277
0.314855 0.929351 0.320104
0.315572 0.931838 0.3149
0.319203 0.942535 0.291875
0.46772 0.989487 0.142153
0.659922 0.987732 0.13463
0.787869 0.984649 0.130495
0.896208 0.981247 0.126925
0.986496 0.975952 0.123964
0.998947 0.963378 0.123705
0.307073 0.918563 0.357717
0.308415 0.920485 0.353262
0.309834 0.922469 0.34905
0.311299 0.924544 0.345098
0.312413 0.926757 0.340597
0.313497 0.929168 0.33608
0.314412 0.931289 0.331411
0.315358 0.933608 0.326772
0.316152 0.936004 0.32166
0.316808 0.938308 0.316411
0.317556 0.940673 0.311315
0.327779 0.965072 0.254627
0.529809 0.995224 0.137972
0.71487 0.993301 0.132509
0.836728 0.990188 0.128405
0.94168 0.987442 0.124758
0.99852 0.985412 0.122332
0.00163272 0.00466926 0.244053
0.106554 0.00164797 0.287419
0.270359 0.000579843 0.304646
0.413169 0.000366217 0.287678
0.539376 0.000366217 0.249348
0.64802 0.000366217 0.200153
0.744854 0.000381476 0.136278
0.837842 0.000381476 0.0361944
0.665019 0.0316777 0.0589761
0.703288 0.0448005 0.054139
0.771389 0.0490425 0.0307164
0.841093 0.0532692 0.0290532
0.910018 0.0572671 0.027512
0.967208 0.0601816 0.0259861
0.980911 0.0609751 0.0255894
0.989044 0.0613718 0.0254368
0.997192 0.0620127 0.0253605
0.0024567 0.111086 0.233921
0.0492256 0.085771 0.247822
0.240162 0.0178378 0.2851
0.385992 0.0012665 0.266911
0.512459 0.00120546 0.227573
0.621302 0.0011902 0.179202
0.720073 0.0011902 0.118547
0.815564 0.0011902 0.0109102
0.683345 0.0329442 0.0360418
0.691615 0.0542611 0.0459297
0.761151 0.0586709 0.0325933
0.830777 0.0626841 0.03122
0.899855 0.0664988 0.0294804
0.962982 0.0696269 0.0277256
0.980896 0.0706035 0.0271916
0.988891 0.0710002 0.0270085
0.996887 0.0715038 0.0267796
0.0331273 0.201709 0.210788
0.0419165 0.194827 0.196384
0.145174 0.18941 0.183551
0.325322 0.161257 0.171862
0.45568 0.110445 0.189685
0.567514 0.0848859 0.1579
0.674876 0.0523079 0.110933
0.785992 0.0024567 0.01944
0.770031 0.0225834 0.013962
0.677775 0.0651102 0.0422217
0.748318 0.0682383 0.0352026
0.818799 0.0719158 0.0335699
0.888853 0.0754406 0.0317845
0.956176 0.078706 0.0297398
0.981231 0.0800031 0.0289311
0.989105 0.0803693 0.028748
0.996994 0.0807355 0.0284886
0.0585336 0.284031 0.164523
0.0661479 0.280171 0.143908
0.0676585 0.275273 0.114488
0.247913 0.28864 0.0139773
0.39295 0.271199 0.0839551
0.505867 0.25597 0.102647
0.606455 0.240314 0.108186
0.712489 0.223697 0.0713817
0.824521 0.203006 0.00378424
0.891188 0.186038 0.00813306
0.751842 0.195941 0.0732128
0.810483 0.130648 0.0487068
0.87422 0.084123 0.0341955
0.942229 0.0873426 0.0320897
0.981598 0.0890211 0.0307164
0.989364 0.0896162 0.0305943
0.997101 0.0898451 0.0302739
0.0648661 0.367498 0.127871
0.0680095 0.366415 0.12079
0.0711376 0.363668 0.114672
0.0973526 0.38941 0.0257725
0.337194 0.366918 0.00196841
0.47274 0.350393 0.00328069
0.579477 0.34139 0.00706493
0.682719 0.330602 0.0360571
0.782406 0.316365 0.00613413
0.882994 0.299657 0.00234989
0.812757 0.31632 0.0676127
0.823194 0.315496 0.10367
0.889433 0.300465 0.0970626
0.952911 0.284703 0.0885939
0.994797 0.260731 0.0778363
0.995285 0.22153 0.0648661
0.997253 0.138079 0.0420691
0.0680247 0.445319 0.131762
0.0714275 0.444739 0.126497
0.0746624 0.442603 0.121401
0.0779889 0.438575 0.116548
0.173968 0.469642 0.00192264
0.414466 0.437919 0.0019379
0.550042 0.417716 0.00204471
0.658427 0.413993 0.00292973
0.760403 0.409949 0.00404364
0.861814 0.401862 0.00494392
0.937789 0.392538 0.00750744
0.827848 0.41474 0.128435
0.889509 0.403754 0.115373
0.952224 0.391592 0.111543
0.997116 0.377676 0.106813
0.998947 0.35787 0.10222
0.999634 0.337682 0.097612
0.070161 0.518868 0.137484
0.0730144 0.518074 0.131411
0.0757916 0.516701 0.125856
0.0786145 0.514107 0.1205
0.0814832 0.513848 0.103426
0.267079 0.536187 0.00189212
0.489311 0.504143 0.00192264
0.622858 0.483375 0.00202945
0.735744 0.479927 0.00216678
0.836484 0.479957 0.00227359
0.880049 0.483574 0.027039
0.840253 0.498695 0.137896
0.902174 0.494347 0.130037
0.959411 0.485176 0.122194
0.997024 0.47155 0.118868
0.999008 0.453529 0.116075
0.999664 0.441062 0.114168
0.0707713 0.590387 0.141711
0.073167 0.589792 0.135058
0.0754101 0.589303 0.12871
0.0778363 0.586954 0.12285
0.0789654 0.584039 0.114916
0.103685 0.6215 0.0018616
0.372473 0.598779 0.00184634
0.558755 0.568948 0.00190738
0.692027 0.547829 0.00201419
0.80734 0.541344 0.00215152
0.837415 0.550027 0.0446479
0.842084 0.561547 0.1337
0.905272 0.563516 0.131823
0.965545 0.561334 0.129335
0.99765 0.553048 0.126543
0.999161 0.538415 0.124437
0.999817 0.529274 0.122759
0.135668 0.635782 0.198276
0.114504 0.643885 0.172427
0.0981308 0.650431 0.151003
0.0857404 0.654368 0.13283
0.0812543 0.654383 0.120073
0.0794385 0.653605 0.106447
0.162081 0.69688 0.00183108
0.450187 0.661677 0.00183108
0.624903 0.632624 0.00187686
0.758129 0.610147 0.00198367
0.812772 0.60206 0.0246433
0.840391 0.61207 0.136202
0.906249 0.619883 0.13547
0.966049 0.622477 0.133791
0.997848 0.618585 0.131579
0.999191 0.606806 0.130037
0.999908 0.602029 0.129
0.249928 0.660182 0.296056
0.25124 0.65948 0.291539
0.249973 0.659831 0.285222
0.245945 0.660655 0.276677
0.233738 0.664042 0.259831
0.210132 0.67071 0.231861
0.140597 0.702144 0.141772
0.224781 0.76286 0.00180056
0.520958 0.723583 0.00180056
0.689006 0.693233 0.0018616
0.771542 0.663523 0.0723278
0.827115 0.659129 0.137026
0.900114 0.666514 0.136522
0.966064 0.673976 0.13576
0.998047 0.674189 0.134463
0.999115 0.665385 0.133791
0.999863 0.662165 0.13315
0.265675 0.720775 0.31397
0.266758 0.719631 0.309148
0.268009 0.719326 0.304952
0.269123 0.718273 0.30071
0.269688 0.716793 0.29575
0.269932 0.715084 0.290303
0.269947 0.712245 0.284779
0.263767 0.736828 0.215518
0.372869 0.815763 0.00175479
0.596048 0.774762 0.00514229
0.728695 0.730343 0.11249
0.811856 0.717525 0.138293
0.886793 0.715007 0.136934
0.956817 0.71931 0.136004
0.997696 0.722545 0.135424
0.999039 0.71693 0.135653
0.999786 0.715038 0.135698
0.280537 0.780789 0.33109
0.281514 0.779507 0.326055
0.282643 0.778973 0.321645
0.283696 0.778042 0.317327
0.284337 0.777127 0.312398
0.284596 0.775464 0.307012
0.284764 0.773175 0.30164
0.284764 0.770275 0.295445
0.346044 0.814115 0.169375
0.531304 0.824445 0.063035
0.682658 0.797925 0.14255
0.786053 0.785534 0.139773
0.871595 0.774716 0.137667
0.944854 0.769665 0.136004
0.997391 0.768261 0.134874
0.998886 0.763577 0.135592
0.99968 0.762432 0.136461
0.294255 0.83888 0.346914
0.295247 0.837903 0.341924
0.296391 0.83769 0.337469
0.297383 0.836805 0.333074
0.298024 0.835904 0.328161
0.298466 0.834653 0.322927
0.298619 0.832593 0.317479
0.298756 0.830228 0.312123
0.30042 0.832731 0.294606
0.42826 0.87657 0.151553
0.618616 0.866087 0.144869
0.742107 0.85452 0.141466
0.844114 0.841917 0.138506
0.928374 0.829679 0.136278
0.992172 0.820386 0.134463
0.998718 0.81062 0.134752
0.999512 0.80531 0.135698
0.306706 0.893538 0.361456
0.307698 0.892683 0.35642
0.308843 0.892607 0.351919
0.309819 0.892042 0.347448
0.31046 0.891279 0.342535
0.310948 0.890333 0.337423
0.311192 0.888685 0.332067
0.311421 0.886717 0.326757
0.311116 0.884062 0.32047
0.316564 0.897108 0.279103
0.519768 0.931304 0.14757
0.681208 0.919966 0.143191
0.798932 0.908248 0.139651
0.898802 0.895216 0.13666
0.978668 0.880629 0.13434
0.998611 0.864637 0.133791
0.999359 0.850446 0.134615
0.308888 0.90367 0.363973
0.310445 0.905684 0.35967
0.312032 0.907698 0.355734
0.313634 0.909667 0.351965
0.314961 0.911894 0.347845
0.316045 0.914092 0.343389
0.317128 0.916259 0.338994
0.318257 0.918456 0.334798
0.319112 0.920913 0.329885
0.319905 0.923201 0.32488
0.387381 0.978836 0.178485
0.596063 0.9776 0.14522
0.737545 0.967651 0.140917
0.850446 0.956603 0.137362
0.947585 0.943893 0.13434
0.998581 0.925032 0.132662
0.999283 0.903319 0.13341
0.310231 0.910307 0.365469
0.311803 0.912261 0.361349
0.313359 0.914168 0.357382
0.314961 0.916197 0.353658
0.316213 0.918349 0.349416
0.317296 0.920546 0.344945
0.318456 0.922805 0.340642
0.319493 0.924941 0.336278
0.320333 0.927306 0.331365
0.321141 0.929641 0.326452
0.324666 0.939941 0.304799
0.465232 0.989395 0.151431
0.657481 0.987579 0.143008
0.786007 0.98439 0.138857
0.894926 0.981155 0.135164
0.985611 0.97525 0.132204
0.998947 0.962005 0.13193
0.31162 0.91693 0.367071
0.31313 0.9187 0.363043
0.314687 0.920836 0.358968
0.316258 0.922774 0.3552
0.317571 0.924895 0.35108
0.318654 0.927092 0.346624
0.319692 0.929259 0.342199
0.320745 0.931426 0.337774
0.321599 0.933837 0.332967
0.322362 0.936019 0.327932
0.323156 0.938354 0.323018
0.332738 0.962951 0.267384
0.525826 0.995132 0.146365
0.712764 0.993149 0.140871
0.834867 0.990127 0.136675
0.940291 0.987259 0.133028
0.998489 0.985107 0.130526
0.000366217 0.00131228 0.341619
0.0751354 0.00195315 0.392538
