lut/b1458929-8f5c-4247-90ef-679386e5f643.cube
TITLE "Vibrant Warmth & Greens"
LUT_3D_SIZE 5
0.033463 0.0501259 0.0667582
0.474586 0.000991836 0.000686656
0.622797 0.0365911 0.0134737
0.901396 0.0569009 0.0107118
0.996567 0.0620737 0.00852979
0.053193 0.375189 0.0993668
0.346105 0.370336 0.000274662
0.789441 0.342596 0.000564584
0.902922 0.336858 0.0897993
0.998825 0.221973 0.0499123
0.165072 0.6271 0.208408
0.0711223 0.660838 0.092256
0.629389 0.635859 0.000183108
0.899855 0.612619 0.117784
0.999847 0.606622 0.113756
0.285527 0.844373 0.328389
0.288029 0.841794 0.30721
0.289342 0.839017 0.27126
0.846677 0.844434 0.121477
0.999435 0.800412 0.118074
0.302174 0.920333 0.347646
0.307256 0.928847 0.329915
0.310979 0.938033 0.310887
0.534127 0.995407 0.130343
0.998535 0.985626 0.113497
0.000366217 0.00184634 0.453773
0.553628 0.000366217 0.556222
0.750042 0.0299382 0.333852
0.955688 0.0572671 0.230701
0.999054 0.0618296 0.0643778
0.0689708 0.365377 0.380377
0.332128 0.345144 0.366781
0.809567 0.266423 0.28278
0.902052 0.246616 0.24242
0.996658 0.0987411 0.0504463
0.117327 0.639277 0.197452
0.0927291 0.646174 0.146868
0.619089 0.628916 0.0034638
0.950088 0.614466 0.169665
0.999695 0.582712 0.298024
0.301915 0.833906 0.363516
0.306844 0.830228 0.346654
0.310307 0.825986 0.316716
0.841199 0.839521 0.154284
0.999634 0.814878 0.152499
0.319982 0.913939 0.384436
0.326925 0.921355 0.37026
0.331899 0.929824 0.354086
0.521645 0.994919 0.162463
0.998444 0.984695 0.146197
0.00265507 0.00683604 0.549233
0.375967 0.0274205 0.718791
0.72607 0.0465095 0.696483
0.995026 0.0542306 0.656931
0.999939 0.0558785 0.561074
0.124865 0.335225 0.600916
0.26717 0.302434 0.824826
0.741817 0.0770428 0.720272
0.991287 0.0906996 0.608499
0.999649 0.0928664 0.515938
0.261295 0.594919 0.604913
0.151232 0.617456 0.632929
0.593698 0.591028 0.61915
0.986877 0.516915 0.523369
0.999466 0.473198 0.451057
0.349203 0.816953 0.531502
0.36286 0.806912 0.486702
0.355505 0.798093 0.426276
0.831754 0.83209 0.185428
0.999802 0.811017 0.30341
0.334401 0.909117 0.41529
0.343328 0.915434 0.404379
0.350317 0.922881 0.391562
0.520668 0.994568 0.193408
0.997986 0.984329 0.176242
0.00573739 0.0190127 0.712642
0.306783 0.0458991 0.817731
0.713863 0.0512398 0.906188
0.994904 0.0566873 0.918624
0.999939 0.0576181 0.919203
0.102052 0.275273 0.757641
0.156466 0.189883 0.776272
0.66128 0.0884413 0.903899
0.989807 0.092668 0.920516
0.999634 0.0928054 0.896956
0.235813 0.596094 0.806546
0.252949 0.582818 0.806882
0.55169 0.558816 0.996933
0.992065 0.396017 0.995346
0.999451 0.282231 0.856138
0.348409 0.823163 0.832364
0.366857 0.81323 0.823194
0.381842 0.797208 0.808164
0.823178 0.809918 0.845106
0.999298 0.752331 0.765026
0.384771 0.90782 0.748592
0.405875 0.908827 0.741131
0.426139 0.90985 0.728817
0.573114 0.981964 0.673579
0.99881 0.990539 0.37084
0.00634775 0.0210117 0.736385
0.18529 0.0408331 0.797787
0.665919 0.0515297 0.927153
0.99028 0.0570382 0.945937
0.999939 0.0579232 0.946548
0.0236973 0.0719615 0.749569
0.0542763 0.0690013 0.758907
0.609751 0.0892195 0.923812
0.963561 0.0923171 0.949554
0.999634 0.0932021 0.950439
0.215 0.55407 0.819516
0.232868 0.541619 0.821439
0.512169 0.524437 0.999863
0.98819 0.36202 0.999847
0.999435 0.159426 0.955901
0.322652 0.792126 0.875273
0.339773 0.78265 0.87425
0.354635 0.770672 0.872938
0.798611 0.786511 0.999725
0.999283 0.688045 0.999695
0.382391 0.916976 0.912474
0.403998 0.918074 0.913725
0.425132 0.919753 0.915572
0.531212 0.980407 0.975418
0.996674 0.970062 0.964431
