lut/b1d36c9d-1ec9-43df-86dd-66fb3884b544.cube
TITLE "Vibrant Golden Warmth"
LUT_3D_SIZE 5
0 0 0
0.508766 0 0.0109255
1 0 0
1 0 0
1 0 0
0 0 0
0.160449 0.156985 0
0.917281 0.142153 0
1 0.11989 0
1 0.0977035 0
0 0.10547 0
0 0.371511 0
0.369467 0.359411 0
1 0.330877 0
1 0.299351 0
0 0.260487 0
0 0.556435 0
0 0.549172 0
0.526894 0.522118 0
1 0.487984 0
0 0.398398 0
0 0.735683 0
0 0.739055 0
0.0429541 0.714275 0
0.661891 0.679255 0
0.101381 0.0843824 0.603754
0.746563 0.0354925 0.667597
1 0 0.654688
1 0 0.650233
1 0 0.654078
0 0.243732 0.205798
0.283955 0.25684 0.226001
1 0.225269 0.212314
1 0.206439 0.208255
1 0.18677 0.20383
0 0.484947 0
0 0.488777 0
0.477455 0.446937 0
1 0.414359 0
1 0.384146 0
0 0.680827 0
0 0.687221 0
0 0.643687 0
0.624994 0.607355 0
1 0.572839 0
0 0.865309 0
0 0.881804 0
0 0.839094 0
0.135027 0.801312 0
0.753948 0.764843 0
0.176242 0.132067 1
0.861479 0.0759136 1
1 0.0273289 1
1 0.012604 1
1 0.0426184 1
0 0.350896 1
0.385397 0.331792 1
1 0.299245 1
1 0.285466 1
1 0.296178 1
0 0.619226 0.522057
0 0.58677 0.507317
0.585519 0.536355 0.478019
1 0.50518 0.464485
1 0.491249 0.468009
0 0.82887 0.122454
0 0.791592 0.101579
0.0936904 0.735851 0.0794232
0.725719 0.698039 0.0755779
1 0.671077 0.105608
0 1 0
0 0.9888 0
0 0.931853 0
0.241917 0.889967 0
0.84744 0.852125 0
0.238437 0.171664 1
0.93286 0.122988 1
1 0.0835584 1
1 0.104067 1
1 0.219165 1
0 0.410895 1
0.461006 0.387762 1
1 0.359442 1
1 0.370031 1
1 0.493385 1
0 0.683436 1
0 0.641657 1
0.652781 0.59202 1
1 0.573388 1
1 0.604791 1
0 0.909178 0.813199
0 0.862654 0.784665
0.180316 0.805081 0.747189
0.802441 0.771145 0.732326
1 0.770748 0.751263
0 1 0.300755
0 1 0.281743
0 1 0.268254
0.357687 0.957549 0.291707
0.924224 0.924895 0.413077
0.303258 0.216297 1
1 0.173663 1
1 0.166674 1
1 0.25478 1
1 0.936492 1
0 0.467201 1
0.534859 0.44567 1
1 0.440391 1
1 0.560754 1
1 1 1
0 0.736996 1
0 0.693645 1
0.718349 0.653223 1
1 0.679042 1
1 0.962798 1
0 0.961593 1
0 0.910704 1
0.274342 0.853162 1
0.869093 0.841321 1
1 0.985641 1
0 1 1
0 1 1
0 1 1
0.542916 0.992523 0.978286
1 1 1
