lut/b1d36c9d-1ec9-43df-86dd-66fb3884b544.cube
TITLE "Vibrant Golden Warmth"
LUT_3D_SIZE 33
0 0 0
0.0142977 0.00993362 0.0100557
0.0374762 0.0178836 0.0183871
0.0718242 0.0235447 0.0247807
0.122301 0.0261387 0.0286412
0.193256 0.0247654 0.0292515
0.283146 0.019089 0.0262455
0.389639 0.00944533 0.0198978
0.508766 0 0.0109255
0.635004 0 0.000488289
0.760296 0 0
0.878553 0 0
0.984375 0 0
1 0 0
1 0 0
1 0 0
1 0 0
1 0 0
1 0 0
1 0 0
1 0 0
1 0 0
1 0 0
1 0 0
1 0 0
1 0 0
1 0 0
1 0 0
1 0 0
1 0 0
1 0 0
1 0 0
1 0 0
0.000656138 0.000747692 0.000671397
0.0122683 0.0122225 0.00833143
0.032105 0.0216373 0.01355
0.0619821 0.0284886 0.0163272
0.107851 0.0326085 0.0165255
0.173816 0.0329595 0.0131838
0.259205 0.0290227 0.00645457
0.362737 0.021149 0
0.479011 0.00994888 0
0.602319 0 0
0.725444 0 0
0.841978 0 0
0.946731 0 0
1 0 0
1 0 0
1 0 0
1 0 0
1 0 0
1 0 0
1 0 0
1 0 0
1 0 0
1 0 0
1 0 0
1 0 0
1 0 0
1 0 0
1 0 0
1 0 0
1 0 0
1 0 0
1 0 0
1 0 0
0.00111391 0.00207523 0.00128176
0.00946059 0.0146792 0.0059968
0.0253452 0.0252079 0.00790417
0.0514992 0.0336309 0.00741588
0.0936141 0.0395514 0.0039826
0.156222 0.0417487 0
0.238987 0.0396735 0
0.338964 0.033341 0
0.452964 0.0238193 0
0.575402 0.0123293 0
0.698253 0.000564584 0
0.812848 0 0
0.91458 0 0
1 0 0
1 0 0
1 0 0
1 0 0
1 0 0
1 0 0
1 0 0
1 0 0
1 0 0
1 0 0
1 0 0
1 0 0
1 0 0
1 0 0
1 0 0
1 0 0
1 0 0
1 0 0
1 0 0
1 0 0
0.000717174 0.00199893 0.0009308
0.00540169 0.0163119 0.00285344
0.0173648 0.028809 0.00151064
0.0394751 0.0392004 0
0.0775464 0.0471809 0
0.137163 0.0518654 0
0.21738 0.052018 0
0.316274 0.047837 0
0.429084 0.0400702 0
0.549447 0.0302434 0
0.670542 0.0204318 0
0.782162 0.0124056 0
0.881331 0.0069276 0
0.974548 0.00216678 0
1 0 0
1 0 0
1 0 0
1 0 0
1 0 0
1 0 0
1 0 0
1 0 0
1 0 0
1 0 0
1 0 0
1 0 0
1 0 0
1 0 0
1 0 0
1 0 0
1 0 0
1 0 0
1 0 0
0 0 0
0.000686656 0.0149538 0
0.0069276 0.0305638 0
0.0236515 0.0446632 0
0.0567025 0.0561532 0
0.110887 0.0636454 0
0.186572 0.0665293 0
0.282124 0.0649271 0
0.392828 0.0596323 0
0.511757 0.0521706 0
0.629007 0.0441291 0
0.736996 0.0376287 0
0.835264 0.0330053 0
0.928969 0.0288243 0
1 0.0247959 0
1 0.020798 0
1 0.0164797 0
1 0.0122072 0
1 0.00807202 0
1 0.00407416 0
1 0.000350958 0
1 0 0
1 0 0
1 0 0
1 0 0
1 0 0
1 0 0
1 0 0
1 0 0
1 0 0
1 0 0
1 0 0
1 0 0
0 0 0
0 0.012192 0
0 0.0315557 0
0.00540169 0.0493935 0
0.0305028 0.0650645 0
0.0777447 0.0767834 0
0.14725 0.083299 0
0.237079 0.0847028 0
0.343557 0.0820935 0
0.457877 0.0766003 0
0.571908 0.0703136 0
0.677104 0.065156 0
0.774899 0.0610971 0
0.868666 0.0576944 0
0.960311 0.0542763 0
1 0.0506294 0
1 0.0468147 0
1 0.0429694 0
1 0.0392157 0
1 0.0360113 0
1 0.0327153 0
1 0.0298314 0
1 0.0273136 0
1 0.0250706 0
1 0.0230869 0
1 0.0215915 0
1 0.0198978 0
1 0.018265 0
1 0.016495 0
1 0.0147097 0
1 0.0129702 0
1 0.0112917 0
1 0.00918593 0
0 0 0
0 0.0100252 0
0 0.0335546 0
0 0.0554971 0
0.00292973 0.0752117 0
0.0412146 0.0909133 0
0.102968 0.101411 0
0.186419 0.106203 0
0.286427 0.106035 0
0.396033 0.102617 0
0.506615 0.0979324 0
0.609857 0.0938888 0
0.70753 0.0907149 0
0.800366 0.0876936 0
0.89131 0.0846571 0
0.982315 0.0814679 0
1 0.0781872 0
1 0.0747692 0
1 0.0716869 0
1 0.0684367 0
1 0.0653391 0
1 0.0626535 0
1 0.0602579 0
1 0.0580758 0
1 0.0563211 0
1 0.0543374 0
1 0.0524147 0
1 0.0505226 0
1 0.0486152 0
1 0.0468605 0
1 0.0446174 0
1 0.0422675 0
1 0.0398413 0
0 0 0
0 0.00848402 0
0 0.0357061 0
0 0.0619974 0
0 0.0860456 0
0.00256352 0.106096 0
0.0553292 0.120378 0
0.130907 0.128389 0
0.224689 0.131121 0
0.329519 0.1299 0
0.436713 0.126635 0
0.538338 0.123766 0
0.634958 0.120851 0
0.72668 0.118364 0
0.81677 0.115801 0
0.906874 0.112993 0
0.997269 0.110216 0
1 0.107179 0
1 0.104097 0
1 0.101061 0
1 0.098085 0
1 0.0953689 0
1 0.0931106 0
1 0.0908064 0
1 0.0886397 0
1 0.0864729 0
1 0.0842298 0
1 0.0819104 0
1 0.0798657 0
1 0.0775464 0
1 0.0749981 0
1 0.0721904 0
1 0.0692454 0
0 0 0
0 0.00805676 0
0 0.0388495 0
0 0.0693523 0
0 0.0983139 0
0 0.122438 0
0.00593576 0.140246 0
0.0733501 0.151568 0
0.160449 0.156985 0
0.260578 0.157961 0
0.364508 0.156344 0
0.463951 0.153826 0
0.55938 0.151369 0
0.650095 0.149187 0
0.738979 0.146975 0
0.828183 0.144747 0
0.917281 0.142153 0
1 0.139239 0
1 0.136202 0
1 0.133211 0
1 0.130236 0
1 0.127733 0
1 0.125078 0
1 0.122423 0
1 0.11989 0
1 0.117388 0
1 0.11487 0
1 0.11249 0
1 0.109697 0
1 0.106783 0
1 0.103807 0
1 0.10071 0
1 0.0977035 0
0 0 0
0 0.00978103 0
0 0.0446326 0
0 0.0796063 0
0 0.111925 0
0 0.139895 0
0 0.161349 0
0.0153353 0.175753 0
0.0962539 0.183749 0
0.191348 0.186618 0
0.291615 0.18587 0
0.389456 0.18378 0
0.483558 0.18175 0
0.573053 0.179904 0
0.661158 0.178225 0
0.74876 0.175891 0
0.836149 0.173342 0
0.923522 0.170565 0
1 0.16762 0
1 0.164706 0
1 0.1617 0
1 0.158648 0
1 0.155734 0
1 0.15285 0
1 0.149966 0
1 0.147158 0
1 0.144198 0
1 0.141222 0
1 0.138064 0
1 0.134768 0
1 0.13135 0
1 0.128099 0
1 0.124498 0
0 0 0
0 0.016144 0
0 0.0548562 0
0 0.0927901 0
0 0.128634 0
0 0.159838 0
0 0.184176 0
0 0.20145 0
0.0331579 0.211215 0
0.123705 0.215259 0
0.22118 0.215228 0
0.31725 0.213458 0
0.410208 0.211582 0
0.498466 0.210147 0
0.584833 0.208347 0
0.671138 0.206149 0
0.757214 0.203586 0
0.843 0.200732 0
0.928664 0.197833 0
1 0.194827 0
1 0.191562 0
1 0.18822 0
1 0.184848 0
1 0.181613 0
1 0.178561 0
1 0.175311 0
1 0.171954 0
1 0.168444 0
1 0.164904 0
1 0.161456 0
1 0.158129 0
1 0.154467 0
1 0.15079 0
0 0 0
0 0.0278325 0
0 0.0700389 0
0 0.110719 0
0 0.149065 0
0 0.182681 0
0 0.209674 0
0 0.228046 0
0 0.238972 0
0.0595102 0.243656 0
0.154482 0.244038 0
0.249332 0.242466 0
0.341176 0.240848 0
0.427741 0.239139 0
0.512612 0.237232 0
0.597559 0.235019 0
0.682338 0.232517 0
0.767315 0.229847 0
0.851347 0.226566 0
0.934615 0.223178 0
1 0.219623 0
1 0.216098 0
1 0.212665 0
1 0.20911 0
1 0.205432 0
1 0.201892 0
1 0.198306 0
1 0.194675 0
1 0.191241 0
1 0.187686 0
1 0.184085 0
1 0.180346 0
1 0.176547 0
0 0.0018616 0
0 0.0460517 0
0 0.0911879 0
0 0.133913 0
0 0.174594 0
0 0.209171 0
0 0.236347 0
0 0.255573 0
0 0.267033 0
0 0.271916 0
0.0926986 0.272328 0
0.186191 0.270512 0
0.276585 0.268635 0
0.36199 0.266926 0
0.445563 0.264912 0
0.529091 0.262486 0
0.612711 0.259983 0
0.696147 0.256931 0
0.779004 0.253651 0
0.861418 0.250019 0
0.943511 0.246159 0
1 0.242496 0
1 0.238849 0
1 0.235142 0
1 0.231403 0
1 0.22768 0
1 0.224063 0
1 0.220523 0
1 0.216892 0
1 0.213214 0
1 0.209445 0
1 0.205707 0
1 0.201816 0
0 0.0234684 0
0 0.0718242 0
0 0.118364 0
0 0.162737 0
0 0.203174 0
0 0.23798 0
0 0.264973 0
0 0.283803 0
0 0.294957 0
0 0.29984 0
0.0361791 0.299306 0
0.128557 0.297246 0
0.217502 0.295094 0
0.301869 0.293126 0
0.384436 0.291051 0
0.466987 0.288808 0
0.54931 0.285817 0
0.631357 0.282567 0
0.713375 0.279057 0
0.794888 0.275441 0
0.876799 0.271839 0
0.957061 0.26804 0
1 0.26424 0
1 0.260426 0
1 0.256718 0
1 0.25304 0
1 0.249439 0
1 0.245716 0
1 0.241917 0
1 0.238193 0
1 0.234363 0
1 0.230655 0
1 0.22681 0
0 0.0500496 0
0 0.100908 0
0 0.149264 0
0 0.192386 0
0 0.232151 0
0 0.266651 0
0 0.293324 0
0 0.312047 0
0 0.322408 0
0 0.325948 0
0 0.324834 0
0.072755 0.322621 0
0.160723 0.320348 0
0.244175 0.31841 0
0.32549 0.316091 0
0.406836 0.313497 0
0.488334 0.310567 0
0.569818 0.307378 0
0.651102 0.30396 0
0.732494 0.300557 0
0.813458 0.296803 0
0.893446 0.293004 0
0.972625 0.289219 0
1 0.285374 0
1 0.281621 0
1 0.27805 0
1 0.27425 0
1 0.270481 0
1 0.26659 0
1 0.262776 0
1 0.259037 0
1 0.255207 0
1 0.25124 0
0 0.078233 0
0 0.130312 0
0 0.177707 0
0 0.220768 0
0 0.259922 0
0 0.293477 0
0 0.319997 0
0 0.337911 0
0 0.347799 0
0 0.350729 0
0 0.34902 0
0.016556 0.346685 0
0.103868 0.344656 0
0.186358 0.342519 0
0.26688 0.340337 0
0.347616 0.337774 0
0.428336 0.334981 0
0.50927 0.331868 0
0.590234 0.328817 0
0.670832 0.325231 0
0.751446 0.321447 0
0.830961 0.317708 0
0.910033 0.313878 0
0.988663 0.310323 0
1 0.306447 0
1 0.302647 0
1 0.298787 0
1 0.294926 0
1 0.291081 0
1 0.287343 0
1 0.283452 0
1 0.279438 0
1 0.275425 0
0 0.10547 0
0 0.156802 0
0 0.203372 0
0 0.245914 0
0 0.285008 0
0 0.319081 0
0 0.344564 0
0 0.361898 0
0 0.371511 0
0 0.374243 0
0 0.372717 0
0 0.370565 0
0.0474403 0.368307 0
0.129076 0.366354 0
0.209033 0.364279 0
0.289052 0.361883 0
0.369467 0.359411 0
0.44976 0.356405 0
0.530068 0.353124 0
0.610071 0.349676 0
0.690349 0.345922 0
0.769451 0.342184 0
0.848524 0.338582 0
0.926665 0.334768 0
1 0.330877 0
1 0.326986 0
1 0.32311 0
1 0.319203 0
1 0.31548 0
1 0.311513 0
1 0.307561 0
1 0.303471 0
1 0.299351 0
0 0.128481 0
0 0.180194 0
0 0.226612 0
0 0.268956 0
0 0.308049 0
0 0.341512 0
0 0.367453 0
0 0.385168 0
0 0.394873 0
0 0.397665 0
0 0.395987 0
0 0.393912 0
0 0.391852 0
0.0723278 0.390021 0
0.15172 0.388037 0
0.231281 0.386038 0
0.311025 0.383429 0
0.390661 0.380545 0
0.470451 0.37731 0
0.550011 0.373907 0
0.629938 0.370199 0
0.709041 0.366735 0
0.787579 0.36286 0
0.865629 0.358968 0
0.943236 0.355093 0
1 0.351156 0
1 0.347509 0
1 0.343496 0
1 0.339513 0
1 0.3355 0
1 0.331456 0
1 0.327382 0
1 0.323384 0
0 0.148211 0
0 0.199847 0
0 0.247059 0
0 0.290349 0
0 0.329656 0
0 0.363745 0
0 0.390219 0
0 0.408286 0
0 0.418494 0
0 0.420737 0
0 0.419028 0
0 0.417151 0
0 0.415244 0
0.0161898 0.413718 0
0.0950332 0.411963 0
0.173846 0.409796 0
0.252949 0.407294 0
0.332097 0.404517 0
0.411444 0.401343 0
0.490852 0.398169 0
0.570443 0.394537 0
0.649104 0.390799 0
0.727321 0.386984 0
0.805264 0.383047 0
0.882643 0.379156 0
0.960189 0.375402 0
1 0.371481 0
1 0.367437 0
1 0.363378 0
1 0.359319 0
1 0.355215 0
1 0.351324 0
1 0.347066 0
0 0.1664 0
0 0.220035 0
0 0.267643 0
0 0.311131 0
0 0.351324 0
0 0.386069 0
0 0.413184 0
0 0.431846 0
0 0.441596 0
0 0.443595 0
0 0.442023 0
0 0.440269 0
0 0.438666 0
0 0.437186 0
0.0383764 0.435523 0
0.116762 0.433417 0
0.195209 0.431052 0
0.273991 0.42829 0
0.353002 0.425452 0
0.432029 0.422126 0
0.511131 0.418524 0
0.589578 0.414755 0
0.667521 0.410941 0
0.745296 0.407004 0
0.822843 0.403326 0
0.900008 0.399298 0
0.976852 0.395315 0
1 0.391241 0
1 0.387121 0
1 0.383276 0
1 0.379095 0
1 0.374929 0
1 0.370642 0
0 0.185 0
0 0.238834 0
0 0.287434 0
0 0.331701 0
0 0.372702 0
0 0.408408 0
0 0.436347 0
0 0.454841 0
0 0.464561 0
0 0.4663 0
0 0.464881 0
0 0.4636 0
0 0.461952 0
0 0.460487 0
0 0.458946 0
0.0592966 0.456977 0
0.137362 0.454841 0
0.215854 0.452277 0
0.294224 0.449302 0
0.372839 0.445975 0
0.451652 0.442405 0
0.52987 0.438651 0
0.607797 0.435004 0
0.685496 0.431113 0
0.762676 0.427161 0
0.839796 0.423117 0
0.916609 0.419074 0
0.993622 0.414954 0
1 0.410986 0
1 0.406912 0
1 0.402701 0
1 0.398489 0
1 0.394141 0
0 0.203357 0
0 0.258305 0
0 0.307927 0
0 0.353017 0
0 0.395529 0
0 0.431495 0
0 0.459281 0
0 0.47808 0
0 0.487556 0
0 0.489021 0
0 0.487984 0
0 0.486564 0
0 0.485054 0
0 0.483757 0
0 0.482322 0
0.00259403 0.480568 0
0.0802319 0.478569 0
0.158206 0.475944 0
0.236194 0.47303 0
0.314473 0.469734 0
0.393011 0.466178 0
0.471183 0.462593 0
0.548882 0.458869 0
0.626398 0.454871 0
0.703471 0.450889 0
0.780514 0.446799 0
0.857404 0.442695 0
0.934493 0.438834 0
1 0.434592 0
1 0.430457 0
1 0.4262 0
1 0.421958 0
1 0.417777 0
0 0.22208 0
0 0.277989 0
0 0.32842 0
0 0.375372 0
0 0.417639 0
0 0.454154 0
0 0.482261 0
0 0.501152 0
0 0.510521 0
0 0.511894 0
0 0.510765 0
0 0.509499 0
0 0.50811 0
0 0.506966 0
0 0.505959 0
0 0.504173 0
0.0230106 0.502098 0
0.100587 0.499565 0
0.178241 0.496727 0
0.256336 0.493553 0
0.334768 0.490166 0
0.412604 0.486397 0
0.490074 0.482582 0
0.567483 0.478584 0
0.644572 0.47454 0
0.721584 0.470588 0
0.798535 0.466545 0
0.875349 0.462409 0
0.952575 0.458137 0
1 0.453956 0
1 0.449653 0
1 0.445563 0
1 0.441184 0
0 0.240848 0
0 0.298833 0
0 0.350195 0
0 0.39678 0
0 0.439734 0
0 0.476844 0
0 0.505287 0
0 0.524712 0
0 0.533669 0
0 0.534493 0
0 0.533547 0
0 0.532418 0
0 0.531197 0
0 0.530449 0
0 0.529229 0
0 0.527626 0
0 0.525643 0
0.0429389 0.523156 0
0.120333 0.520439 0
0.198245 0.517388 0
0.276341 0.513863 0
0.354009 0.510109 0
0.431327 0.506279 0
0.508629 0.502251 0
0.585763 0.498329 0
0.66273 0.494331 0
0.739559 0.490135 0
0.816358 0.485969 0
0.893584 0.481651 0
0.970367 0.47744 0
1 0.47335 0
1 0.469032 0
1 0.464576 0
0 0.260487 0
0 0.318791 0
0 0.370901 0
0 0.418204 0
0 0.461814 0
0 0.499443 0
0 0.528862 0
0 0.547723 0
0 0.556435 0
0 0.557061 0
0 0.556298 0
0 0.555322 0
0 0.554543 0
0 0.553658 0
0 0.552544 0
0 0.551049 0
0 0.549172 0
0 0.547036 0
0.0623789 0.544274 0
0.139895 0.54107 0
0.217777 0.537575 0
0.295308 0.533822 0
0.372564 0.530053 0
0.449958 0.526192 0
0.526894 0.522118 0
0.603754 0.517952 0
0.680522 0.513771 0
0.757397 0.509529 0
0.834714 0.505302 0
0.91162 0.501183 0
0.98883 0.496818 0
1 0.49247 0
1 0.487984 0
0 0.279454 0
0 0.33843 0
0 0.39144 0
0 0.439567 0
0 0.484535 0
0 0.522789 0
0 0.551736 0
0 0.570596 0
0 0.579095 0
0 0.579614 0
0 0.579324 0
0 0.57847 0
0 0.5776 0
0 0.576867 0
0 0.575906 0
0 0.574502 0
0 0.572976 0
0 0.570642 0
0.00404364 0.567956 0
0.0813153 0.564782 0
0.159014 0.561303 0
0.236439 0.55761 0
0.313756 0.553948 0
0.390936 0.549889 0
0.467781 0.545815 0
0.544671 0.541619 0
0.621485 0.537377 0
0.698375 0.533242 0
0.775738 0.529015 0
0.852552 0.524727 0
0.929793 0.520333 0
1 0.515953 0
1 0.511421 0
0 0.297948 0
0 0.358007 0
0 0.411856 0
0 0.461402 0
0 0.506706 0
0 0.545281 0
0 0.574517 0
0 0.593423 0
0 0.601648 0
0 0.602411 0
0 0.602029 0
0 0.601373 0
0 0.600656 0
0 0.600076 0
0 0.599268 0
0 0.59826 0
0 0.596551 0
0 0.594308 0
0 0.591669 0
0.0224613 0.58854 0
0.100206 0.585336 0
0.177493 0.581582 0
0.25452 0.577722 0
0.33164 0.573648 0
0.408515 0.569543 0
0.485344 0.565377 0
0.562325 0.561318 0
0.63917 0.557046 0
0.716442 0.552651 0
0.793286 0.548348 0
0.870588 0.543908 0
0.948104 0.539574 0
1 0.53518 0
0 0.31574 0
0 0.376974 0
0 0.43299 0
0 0.482582 0
0 0.528237 0
0 0.567452 0
0 0.597116 0
0 0.616419 0
0 0.62446 0
