lut/b1d36c9d-1ec9-43df-86dd-66fb3884b544.cube
TITLE "Vibrant Golden Warmth"
LUT_3D_SIZE 9
0 0 0
0.122301 0.0261387 0.0286412
0.508766 0 0.0109255
0.984375 0 0
1 0 0
1 0 0
1 0 0
1 0 0
1 0 0
0 0 0
0.0567025 0.0561532 0
0.392828 0.0596323 0
0.835264 0.0330053 0
1 0.0164797 0
1 0.000350958 0
1 0 0
1 0 0
1 0 0
0 0 0
0 0.0983139 0
0.160449 0.156985 0
0.55938 0.151369 0
0.917281 0.142153 0
1 0.130236 0
1 0.11989 0
1 0.109697 0
1 0.0977035 0
0 0.0018616 0
0 0.174594 0
0 0.267033 0
0.276585 0.268635 0
0.612711 0.259983 0
0.943511 0.246159 0
1 0.231403 0
1 0.216892 0
1 0.201816 0
0 0.10547 0
0 0.285008 0
0 0.371511 0
0.0474403 0.368307 0
0.369467 0.359411 0
0.690349 0.345922 0
1 0.330877 0
1 0.31548 0
1 0.299351 0
0 0.185 0
0 0.372702 0
0 0.464561 0
0 0.461952 0
0.137362 0.454841 0
0.451652 0.442405 0
0.762676 0.427161 0
1 0.410986 0
1 0.394141 0
0 0.260487 0
0 0.461814 0
0 0.556435 0
0 0.554543 0
0 0.549172 0
0.217777 0.537575 0
0.526894 0.522118 0
0.834714 0.505302 0
1 0.487984 0
0 0.333303 0
0 0.549416 0
0 0.646738 0
0 0.647013 0
0 0.643793 0
0 0.633036 0
0.288304 0.617533 0
0.596185 0.600229 0
0.90634 0.582605 0
0 0.398398 0
0 0.632532 0
0 0.735683 0
0 0.739452 0
0 0.739055 0
0 0.729503 0
0.0429541 0.714275 0
0.350927 0.697002 0
0.661891 0.679255 0
0.0479591 0.0446784 0.124376
0.243305 0.0452125 0.195514
0.652873 0.00492866 0.215915
1 0 0.204685
1 0 0.195895
1 0 0.188434
1 0 0.18497
1 0 0.184466
1 0 0.185107
0 0.0736095 0.0667735
0.11014 0.10277 0.0946517
0.491814 0.0873884 0.0873732
0.913741 0.0640116 0.0747539
1 0.0464027 0.0658732
1 0.0342107 0.0615091
1 0.0274357 0.0618601
1 0.021973 0.0633097
1 0.0157626 0.06421
0 0.103655 0
0 0.188586 0
0.215228 0.202289 0
0.624918 0.188159 0
0.985565 0.17641 0
1 0.165667 0
1 0.156252 0
1 0.1458 0
1 0.133394 0
0 0.179217 0
0 0.296696 0
0 0.321096 0
0.326207 0.309056 0
0.668238 0.295842 0
0.995132 0.280751 0
1 0.266209 0
1 0.251942 0
1 0.236927 0
0 0.307973 0
0 0.412573 0
0 0.424781 0
0.0843061 0.411078 0
0.415579 0.397101 0
0.737774 0.381292 0
1 0.365759 0
1 0.350347 0
1 0.33431 0
0 0.405814 0
0 0.509392 0
0 0.519692 0
0 0.508049 0
0.176013 0.494774 0
0.495186 0.47866 0
0.806012 0.462333 0
1 0.445808 0
1 0.429099 0
0 0.499443 0
0 0.604791 0
0 0.613687 0
0 0.603922 0
0 0.591287 0
0.257633 0.574807 0
0.568139 0.557809 0
0.875715 0.540581 0
1 0.523232 0
0 0.591043 0
0 0.697887 0
0 0.707073 0
0 0.699565 0
0 0.687831 0
0.0171206 0.671214 0
0.327688 0.653788 0
0.635782 0.636133 0
0.9458 0.618372 0
0 0.676875 0
0 0.78822 0
0 0.799771 0
0 0.795254 0
0 0.784878 0
0 0.768505 0
0.0809949 0.750896 0
0.3897 0.733288 0
0.700587 0.715404 0
0.101381 0.0843824 0.603754
0.350362 0.069398 0.667247
0.746563 0.0354925 0.667597
1 0 0.659495
1 0 0.654688
1 0 0.650797
1 0 0.650233
1 0 0.651576
1 0 0.654078
0 0.152651 0.421393
0.175174 0.153292 0.466667
0.577127 0.131945 0.473075
1 0.105257 0.470405
1 0.0915541 0.469932
1 0.0832685 0.470542
1 0.0776837 0.472679
1 0.0730907 0.475105
1 0.0718242 0.477378
0 0.243732 0.205798
0 0.26746 0.22858
0.283955 0.25684 0.226001
0.706996 0.237034 0.216052
1 0.225269 0.212314
1 0.215778 0.210285
1 0.206439 0.208255
1 0.196109 0.205646
1 0.18677 0.20383
0 0.360586 0.0202792
0 0.389349 0.0153964
0 0.381552 0
0.391852 0.361151 0
0.735592 0.344747 0
1 0.329244 0
1 0.314839 0
1 0.300587 0
1 0.28751 0
0 0.484947 0
0 0.500008 0
0 0.488777 0
0.138155 0.465614 0
0.477455 0.446937 0
0.799435 0.43006 0
1 0.414359 0
1 0.39881 0
1 0.384146 0
0 0.585306 0
0 0.598474 0
0 0.588602 0
0 0.56527 0
0.232807 0.545922 0
0.554238 0.527962 0
0.865019 0.511254 0
1 0.494636 0
1 0.478706 0
0 0.680827 0
0 0.695537 0
0 0.687221 0
0 0.663661 0
0 0.643687 0
0.313939 0.624872 0
0.624994 0.607355 0
0.932342 0.589914 0
1 0.572839 0
0 0.774136 0
0 0.791165 0
0 0.784894 0
0 0.761639 0
0 0.741253 0
0.0713359 0.72192 0
0.382589 0.703685 0
0.690867 0.685985 0
0.998566 0.667994 0
0 0.865309 0
0 0.885267 0
0 0.881804 0
0 0.85948 0
0 0.839094 0
0 0.819654 0
0.135027 0.801312 0
0.444205 0.783413 0
0.753948 0.764843 0
0.142473 0.110445 1
0.405692 0.0938582 1
0.816266 0.0554971 1
1 0.0191958 1
1 0 1
1 0 1
1 0 1
1 0 1
1 0 1
0 0.193561 1
0.224186 0.187472 1
0.641367 0.161852 1
1 0.137697 1
1 0.126497 1
1 0.119417 1
1 0.115236 1
1 0.117159 1
1 0.129702 1
0 0.314183 0.653498
0 0.319997 0.685374
0.344686 0.302632 0.69015
0.770825 0.281651 0.680751
1 0.270222 0.677699
1 0.260578 0.675654
1 0.25182 0.672786
1 0.245808 0.667948
1 0.246326 0.662806
0 0.444343 0.37023
0 0.454154 0.382818
0.036347 0.436515 0.374807
0.454673 0.411032 0.360571
0.797864 0.393622 0.352316
1 0.378058 0.345281
1 0.364096 0.339239
1 0.352117 0.335653
1 0.345724 0.337423
0 0.562997 0.194766
0 0.567727 0.192782
0 0.545235 0.175967
0.195911 0.515785 0.159533
0.537346 0.496056 0.1505
0.859236 0.47895 0.143267
1 0.463371 0.137697
1 0.449409 0.135622
1 0.439643 0.14139
0 0.665797 0.0151064
0 0.670588 0.00543221
0 0.647395 0
0 0.616449 0
0.290181 0.59559 0
0.612024 0.577264 0
0.922164 0.56025 0
1 0.544717 0
1 0.532296 0
0 0.766064 0
0 0.771542 0
0 0.747738 0
0 0.715755 0
0.0476997 0.693874 0
0.369696 0.674708 0
0.680613 0.65658 0
0.984604 0.639658 0
1 0.624781 0
0 0.86421 0
0 0.87071 0
0 0.846601 0
0 0.814252 0
0 0.791867 0
0.125872 0.772122 0
0.437675 0.753368 0
0.744503 0.735103 0
1 0.717968 0
0 0.960082 0
0 0.9682 0
0 0.944717 0
0 0.912383 0
0 0.889891 0
0 0.869993 0
0.190509 0.850874 0
0.500282 0.831617 0
0.80528 0.81236 0
0.176242 0.132067 1
0.44799 0.112886 1
0.861479 0.0759136 1
1 0.0441596 1
1 0.0273289 1
1 0.016907 1
1 0.012604 1
1 0.0196231 1
1 0.0426184 1
0 0.220951 1
0.26247 0.213199 1
0.685176 0.188418 1
1 0.166232 1
1 0.155764 1
1 0.150301 1
1 0.152392 1
1 0.165713 1
1 0.188006 1
0 0.350896 1
0 0.352041 1
0.385397 0.331792 1
0.811505 0.310842 1
1 0.299245 1
1 0.290257 1
1 0.285466 1
1 0.287358 1
1 0.296178 1
0 0.492638 0.793301
0 0.49485 0.813123
0.0776226 0.471733 0.799985
0.498146 0.444938 0.779782
0.841138 0.427344 0.768353
1 0.412284 0.758099
1 0.400641 0.748913
1 0.394583 0.740047
1 0.395315 0.734035
0 0.619226 0.522057
0 0.615396 0.524346
0 0.58677 0.507317
0.243549 0.55613 0.488304
0.585519 0.536355 0.478019
0.906615 0.519417 0.469963
1 0.50518 0.464485
1 0.495369 0.463447
1 0.491249 0.468009
0 0.726513 0.308186
0 0.721584 0.305531
0 0.691173 0.290913
0 0.658701 0.275929
0.337881 0.63743 0.267567
0.659602 0.618936 0.261585
0.966079 0.602502 0.259663
1 0.589731 0.26482
1 0.581643 0.27747
0 0.82887 0.122454
0 0.823178 0.116625
0 0.791592 0.101579
0 0.758114 0.0872511
0.0936904 0.735851 0.0794232
0.416434 0.716182 0.0745708
0.725719 0.698039 0.0755779
1 0.682567 0.0861677
1 0.671077 0.105608
0 0.928985 0
0 0.922896 0
0 0.890715 0
0 0.856779 0
0 0.833951 0
0.172854 0.813352 0
0.485435 0.79382 0
0.787732 0.77586 0
1 0.761242 0
0 1 0
0 1 0
0 0.9888 0
0 0.954833 0
0 0.931853 0
0 0.910689 0
0.241917 0.889967 0
0.550652 0.869734 0
0.84744 0.852125 0
0.207279 0.151354 1
0.48452 0.133074 1
0.898161 0.0988937 1
1 0.0694133 1
1 0.0545205 1
1 0.0475166 1
1 0.0528267 1
1 0.0737621 1
1 0.106615 1
0.0126192 0.245899 1
0.299535 0.238682 1
0.724086 0.215503 1
1 0.194003 1
1 0.185275 1
1 0.185565 1
1 0.198703 1
1 0.220813 1
1 0.261799 1
0 0.382315 1
0 0.380804 1
0.423743 0.360037 1
0.849287 0.338491 1
1 0.32781 1
1 0.32282 1
1 0.325322 1
1 0.334005 1
1 0.351125 1
0 0.527504 1
0 0.524193 1
0.112581 0.498787 1
0.533013 0.471366 1
0.874891 0.453803 1
1 0.440772 1
1 0.43415 1
1 0.434592 1
1 0.440635 1
0 0.655085 0.971313
0 0.645945 0.971405
0 0.615747 0.949569
0.279057 0.58497 0.925917
0.621118 0.565377 0.911864
0.939147 0.549706 0.898619
1 0.539055 0.885374
1 0.534524 0.874174
1 0.535286 0.866743
0 0.769512 0.666194
0 0.759014 0.663508
0 0.726864 0.642573
0.0362707 0.694667 0.621317
0.379309 0.673304 0.609583
0.700023 0.655283 0.600992
0.999527 0.641123 0.596262
1 0.632212 0.596551
1 0.628305 0.601404
0 0.87686 0.415457
0 0.865248 0.41181
0 0.831739 0.395789
0 0.798062 0.380011
0.13875 0.775235 0.372137
0.462455 0.754986 0.369085
0.767758 0.737774 0.372793
1 0.725109 0.383108
1 0.71722 0.398672
0 0.977691 0.215
0 0.965469 0.210971
0 0.931334 0.196521
0 0.89691 0.183001
0 0.873106 0.177172
0.222263 0.850919 0.177951
0.533989 0.831189 0.188159
0.828855 0.81529 0.206226
1 0.803937 0.229908
0 1 0.0230716
0 1 0.0181582
0 1 0.00314336
0 0.994614 0
0 0.970245 0
0 0.946654 0
0.298054 0.924514 0.00451667
0.601251 0.905699 0.0297704
0.888518 0.891173 0.0614786
0.238437 0.171664 1
0.518288 0.155077 1
0.93286 0.122988 1
1 0.0950027 1
1 0.0835584 1
1 0.0854505 1
1 0.104067 1
1 0.134417 1
1 0.219165 1
0.045243 0.270985 1
0.336278 0.264988 1
0.761715 0.242573 1
1 0.222385 1
1 0.218967 1
1 0.229587 1
1 0.251026 1
1 0.290517 1
1 0.466026 1
0 0.410895 1
0.0332494 0.408774 1
0.461006 0.387762 1
0.885115 0.366766 1
1 0.359442 1
1 0.361379 1
1 0.370031 1
1 0.387579 1
1 0.493385 1
0 0.557153 1
0 0.551781 1
0.146136 0.525139 1
0.566613 0.497353 1
0.905303 0.481529 1
1 0.473304 1
1 0.472343 1
1 0.477607 1
1 0.525765 1
0 0.683436 1
0 0.672587 1
0 0.641657 1
0.311269 0.610834 1
0.652781 0.59202 1
0.964004 0.579355 1
1 0.573388 1
1 0.573266 1
1 0.604791 1
0 0.798154 1
0 0.786038 1
0 0.753506 1
0.0684672 0.720928 1
0.413169 0.69958 1
0.730404 0.683146 1
1 0.672847 1
1 0.66807 1
1 0.687846 0.982254
0 0.909178 0.813199
0 0.896101 0.808087
0 0.862654 0.784665
0 0.828641 0.760998
0.180316 0.805081 0.747189
0.50367 0.785351 0.737148
0.802441 0.771145 0.732326
1 0.762234 0.73225
1 0.770748 0.751263
0 1 0.529
0 1 0.523934
0 0.968109 0.504326
0 0.932799 0.486061
0 0.907118 0.479133
0.276143 0.88426 0.478935
0.58262 0.866453 0.485527
0.868605 0.853803 0.497658
1 0.850431 0.557549
0 1 0.300755
0 1 0.296544
0 1 0.281743
0 1 0.2692
0 1 0.268254
0.0430457 0.978485 0.276081
0.357687 0.957549 0.291707
0.652796 0.941482 0.314214
0.924224 0.924895 0.413077
0.27039 0.19353 1
0.551415 0.177874 1
0.9673 0.147585 1
1 0.122881 1
1 0.119707 1
1 0.134218 1
1 0.161852 1
1 0.235782 1
1 0.507362 1
0.0805066 0.296803 1
0.373068 0.291768 1
0.798733 0.270359 1
1 0.254536 1
1 0.261036 1
1 0.280598 1
1 0.316777 1
1 0.483726 1
1 0.806287 1
0 0.438865 1
0.0698558 0.436652 1
0.497551 0.415793 1
0.917937 0.397803 1
1 0.397269 1
1 0.405097 1
1 0.422889 1
1 0.526925 1
1 0.75317 1
0 0.585138 1
0 0.579019 1
0.179843 0.551583 1
0.59997 0.524788 1
0.932174 0.513176 1
1 0.51017 1
1 0.513985 1
1 0.56231 1
1 0.707698 1
0 0.710262 1
0 0.69894 1
0 0.667597 1
0.3458 0.637125 1
0.684688 0.620966 1
0.987274 0.612482 1
1 0.610834 1
1 0.641932 1
1 0.750042 1
0 0.824857 1
0 0.812177 1
0 0.779126 1
0.105272 0.745968 1
0.450568 0.725917 1
0.761303 0.71281 1
1 0.706462 1
1 0.724651 1
1 0.802884 1
0 0.935561 1
0 0.921843 1
0 0.887694 1
0 0.85211 1
0.224033 0.828443 1
0.542718 0.81146 1
0.832975 0.800992 1
1 0.806699 1
1 0.857633 1
0 1 0.959518
0 1 0.953063
0 0.994034 0.928618
0 0.956359 0.901152
0 0.929473 0.884001
0.326406 0.908934 0.872801
0.625467 0.894575 0.86717
0.899977 0.886336 0.869551
1 0.909468 0.903075
0 1 0.654169
0 1 0.647883
0 1 0.625742
0 1 0.605631
0 1 0.598733
0.108461 1 0.599588
0.418112 0.986908 0.608103
0.729961 0.962646 0.659724
0.957076 0.956542 0.788952
0.303258 0.216297 1
0.585138 0.201572 1
1 0.173663 1
1 0.157366 1
1 0.166674 1
1 0.190906 1
1 0.25478 1
1 0.506127 1
1 0.936492 1
0.116686 0.323278 1
0.410285 0.319066 1
0.834211 0.300618 1
1 0.294881 1
1 0.310628 1
1 0.343465 1
1 0.501244 1
1 0.814343 1
1 1 1
0 0.467201 1
0.106798 0.46508 1
0.534859 0.44567 1
0.947082 0.434623 1
1 0.440391 1
1 0.457923 1
1 0.560754 1
1 0.779492 1
1 1 1
0 0.613153 1
0 0.606241 1
0.21651 0.578943 1
0.634775 0.555779 1
0.958099 0.54934 1
1 0.550912 1
1 0.599008 1
1 0.738903 1
1 0.967834 1
0 0.736996 1
0 0.725216 1
0 0.693645 1
0.38584 0.665339 1
0.718349 0.653223 1
1 0.649027 1
1 0.679042 1
1 0.781582 1
1 0.962798 1
0 0.851362 1
0 0.837903 1
0 0.803845 1
0.151446 0.771328 1
0.49218 0.754376 1
0.794278 0.745449 1
1 0.761059 1
1 0.832776 1
1 0.972595 1
0 0.961593 1
0 0.94699 1
0 0.910704 1
0 0.874357 1
0.274342 0.853162 1
0.58558 0.840009 1
0.869093 0.841321 1
1 0.884092 1
1 0.985641 1
0 1 1
0 1 1
0 1 1
0 0.975311 1
0.0595712 0.950317 1
0.381033 0.93286 1
0.702937 0.918379 1
0.940047 0.931731 1
1 0.995895 1
0 1 1
0 1 1
0 1 1
0 1 1
0 1 1
0.176913 1 0.999878
0.542916 0.992523 0.978286
0.853178 0.974807 0.970184
1 1 1
