lut/b4a54e39-e576-47bc-8872-4c8f6f7ddcda.cube
TITLE "Cinematic Cool Magenta"
LUT_3D_SIZE 9
0.0190433 0.0158999 0.0136263
0.0873426 0.0114748 0.00978103
0.221042 0 0.000289921
0.359792 0 0
0.498543 0 0
0.632288 0 0
0.7635 0 0
0.890715 0 0
0.974853 0 0
0.0182803 0.0729229 0.016495
0.0865339 0.0705272 0.0144961
0.225605 0.0603952 0.000808728
0.364446 0.0421149 0
0.500526 0.0208896 0
0.633402 0.0184329 0
0.764309 0.0218509 0
0.891569 0.024094 0
0.976043 0.0245975 0
0.00553903 0.191669 0.0196689
0.0940108 0.187182 0.0399023
0.228992 0.187488 0.0171664
0.370153 0.187335 0
0.506645 0.179736 0
0.639139 0.17055 0
0.768093 0.158846 0
0.894636 0.144137 0
0.979217 0.138445 0
0.00277714 0.320836 0.0408331
0.0561074 0.3187 0.0484932
0.235966 0.313558 0.0666667
0.386481 0.316838 0.0290532
0.511604 0.323247 0
0.640772 0.320256 0
0.770932 0.315053 0
0.899092 0.31014 0
0.985336 0.307073 0
0.00341802 0.454292 0.0839857
0.0174716 0.454047 0.0780194
0.251957 0.445487 0.129854
0.395834 0.443 0.0982681
0.533379 0.446052 0.0531777
0.646693 0.454368 0
0.768597 0.456153 0
0.898909 0.453498 0
0.990066 0.451331 0
0.00373846 0.578317 0.13814
0.0078584 0.578134 0.134127
0.250126 0.570153 0.177279
0.398978 0.566613 0.163882
0.538262 0.564187 0.13579
0.668727 0.567666 0.076463
0.780545 0.581353 0.00337224
0.898756 0.588983 0
0.991989 0.590127 0
0.0120851 0.693751 0.199069
0.0113985 0.693751 0.195117
0.205936 0.691341 0.194965
0.401221 0.684001 0.225071
0.536202 0.681392 0.198978
0.674693 0.677684 0.166491
0.803403 0.686229 0.0948806
0.915129 0.70695 0.00683604
0.99736 0.718166 0
0.0228122 0.80325 0.259556
0.0217288 0.80322 0.255924
0.12845 0.805997 0.238285
0.380621 0.79707 0.277928
0.521279 0.792874 0.255741
0.6636 0.788815 0.22678
0.807599 0.787686 0.190723
0.936934 0.805127 0.109621
1 0.828321 0.0250553
0.0290837 0.886671 0.305074
0.0280003 0.886763 0.301793
0.0496834 0.890181 0.288121
0.312459 0.888075 0.286534
0.497581 0.880018 0.296635
0.647684 0.874556 0.270268
0.797803 0.87219 0.239719
0.943099 0.877485 0.196231
1 0.8981 0.149981
0.00143435 0.0265354 0.0645609
0.0748455 0.0166934 0.0649424
0.221637 0 0.0501869
0.3635 0 0.0198215
0.500755 0 0.00573739
0.635126 0 0.00714122
0.766094 0 0.00486763
0.893645 0 0.00350958
0.976699 0 0.00189212
0.0216831 0.0745251 0.0658885
0.0782483 0.074052 0.0652781
0.227665 0.0572519 0.050782
0.370245 0.02916 0.018555
0.504356 0.0114595 0.00605783
0.636439 0.0108339 0.00581369
0.767056 0.0155795 0.00553903
0.893812 0.0187533 0.00329595
0.977035 0.0202335 0.00128176
0.00386053 0.193088 0.0714733
0.0597696 0.193133 0.0695048
0.225254 0.190692 0.0652934
0.372137 0.187228 0.0390784
0.50956 0.177325 0.0145571
0.641505 0.166232 0.0125429
0.770062 0.153643 0.0112306
0.896208 0.13872 0.00808728
0.979965 0.135012 0.00538643
0.00271611 0.321324 0.078706
0.0168002 0.322362 0.0731365
0.226383 0.316854 0.0949111
0.383978 0.319402 0.0662547
0.511849 0.324102 0.0370184
0.641871 0.319707 0.0231632
0.771832 0.31426 0.0203098
0.899687 0.309087 0.0156863
0.985519 0.306172 0.0117342
0.00329595 0.454536 0.112398
0.00650034 0.455329 0.107973
0.237278 0.448402 0.147173
0.389899 0.446433 0.12134
0.531212 0.44828 0.086656
0.646067 0.455299 0.043122
0.768811 0.456291 0.0314336
0.899138 0.453407 0.0260471
0.990112 0.451148 0.0208133
0.00814832 0.577691 0.164492
0.00781262 0.578134 0.1608
0.219348 0.574289 0.178424
0.392966 0.569512 0.184558
0.534005 0.567391 0.158709
0.666865 0.569512 0.109071
0.779675 0.582223 0.0490578
0.898405 0.589197 0.0348669
0.99176 0.590234 0.0334325
0.0213779 0.692012 0.226581
0.0201419 0.692103 0.223102
0.178225 0.694621 0.206653
0.395636 0.686534 0.245365
0.531624 0.684459 0.220066
0.671336 0.679805 0.187808
0.801801 0.687266 0.125353
0.914229 0.70779 0.0538643
0.996979 0.718563 0.0332952
0.0330358 0.801373 0.286336
0.0316777 0.801404 0.282918
0.110872 0.807309 0.262989
0.367941 0.800061 0.291341
0.516289 0.795834 0.275547
0.659663 0.790753 0.245258
0.804913 0.789151 0.20943
0.935653 0.805783 0.139178
1 0.828977 0.0703899
0.0388037 0.884749 0.330114
0.037644 0.884901 0.327062
0.0469062 0.887526 0.316014
0.293034 0.891676 0.297673
0.492195 0.88249 0.314794
0.643534 0.876432 0.286915
0.794873 0.873579 0.255283
0.941375 0.878264 0.213733
1 0.898695 0.177783
0 0.0541848 0.161959
0.0116884 0.054078 0.177615
0.19823 0.0177157 0.179583
0.350759 0 0.173983
0.493629 0 0.160678
0.630381 0 0.127291
0.763348 0 0.0796674
0.891768 0 0.0772259
0.976349 0 0.0843214
0.00814832 0.0974899 0.156374
0.0126345 0.100099 0.172686
0.204883 0.0730297 0.184192
0.368154 0.0187839 0.176501
0.501595 0 0.160693
0.63473 0 0.127092
0.7664 0 0.080705
0.894499 0 0.0772717
0.978347 0 0.0839094
0.0505379 0.188678 0.176669
0.0534829 0.19057 0.178607
0.210483 0.197086 0.181415
0.375448 0.185565 0.180941
0.51519 0.16965 0.165469
0.646906 0.149844 0.137957
0.775082 0.124758 0.0943618
0.900343 0.107729 0.0861677
0.982513 0.107286 0.0901503
0.0227665 0.317632 0.200595
0.0223545 0.319738 0.200046
0.184802 0.331823 0.188251
0.375341 0.328496 0.191699
0.509773 0.327565 0.183734
0.643458 0.319387 0.163226
0.775326 0.310124 0.126894
0.90367 0.302113 0.105303
0.988251 0.297902 0.108446
0.0227359 0.448569 0.213962
0.0230411 0.45005 0.212482
0.142977 0.463203 0.193927
0.373724 0.457313 0.208911
0.523781 0.456489 0.194766
0.643046 0.45864 0.17612
0.770504 0.455802 0.152346
0.901625 0.451545 0.129549
0.99173 0.449195 0.127703
0.036408 0.568811 0.23743
0.0350958 0.56997 0.23508
0.110765 0.581857 0.214343
0.372122 0.576471 0.244999
0.521324 0.576379 0.223804
0.661479 0.574685 0.187564
0.777829 0.584451 0.158846
0.89868 0.589868 0.150942
0.992844 0.589487 0.149172
0.0484932 0.684794 0.292058
0.0475166 0.685374 0.290135
0.107637 0.69633 0.269718
0.367102 0.692546 0.292546
0.516991 0.692012 0.276173
0.66096 0.686137 0.244114
0.797391 0.690578 0.194202
0.912428 0.709651 0.157244
0.996475 0.719829 0.153903
0.0601358 0.79472 0.34992
0.0591287 0.79527 0.347768
0.0802625 0.800809 0.335515
0.307515 0.809155 0.311833
0.500999 0.802686 0.328359
0.647807 0.796338 0.296818
0.796582 0.793164 0.260838
0.931868 0.807935 0.207095
1 0.830793 0.169512
0.0647746 0.87866 0.39115
0.0637827 0.878996 0.388861
0.0617685 0.880461 0.382559
0.254459 0.896681 0.347173
0.475166 0.889174 0.364935
0.630777 0.881682 0.335149
0.78555 0.877562 0.300862
0.935729 0.880705 0.263096
1 0.900587 0.237873
0 0.0939345 0.267597
0 0.0979171 0.285084
0.12311 0.0775616 0.300542
0.332341 0.0243534 0.305715
0.478462 0 0.303044
0.614466 0 0.295903
0.74905 0 0.284291
0.881086 0 0.266911
0.971557 0 0.249348
0 0.130282 0.269841
0 0.133013 0.284886
0.114137 0.120348 0.307668
0.339254 0.0691844 0.313344
0.491325 0 0.308309
0.619333 0 0.297581
0.752926 0 0.284566
0.884459 0 0.266667
0.973541 0 0.250172
0.0858778 0.198383 0.232242
0.0837415 0.200473 0.238682
0.0991836 0.221469 0.295186
0.3523 0.197177 0.328679
0.520195 0.158648 0.323445
0.649302 0.130282 0.306737
0.774426 0.0991379 0.290272
0.898192 0.067277 0.274067
0.980072 0.0725567 0.262119
0.076585 0.313268 0.296468
0.076997 0.314153 0.297765
0.11783 0.324575 0.310277
0.35993 0.33843 0.319203
0.519341 0.32726 0.324437
0.649302 0.316213 0.312078
0.77554 0.30692 0.299886
0.902083 0.296574 0.28629
0.98677 0.290089 0.277028
0.0415198 0.443122 0.338781
0.04094 0.444556 0.338567
0.0769207 0.455634 0.342336
0.328054 0.475563 0.330007
0.51606 0.467872 0.339681
0.639384 0.462898 0.323003
0.769497 0.457145 0.310887
0.900236 0.451713 0.299489
0.991409 0.447517 0.291234
0.0256657 0.565667 0.364462
0.0255283 0.566522 0.363195
0.0443427 0.5738 0.361227
0.30106 0.595407 0.337972
0.509316 0.589212 0.354467
0.652232 0.584604 0.333501
0.771206 0.589487 0.316396
0.896223 0.591165 0.307271
0.992828 0.589029 0.301396
0.0256199 0.680293 0.390158
0.0260014 0.680613 0.38793
0.0347295 0.684733 0.384817
0.278614 0.707256 0.358846
0.498207 0.7019 0.381048
0.645228 0.697948 0.354879
0.78819 0.697108 0.322164
0.906233 0.71368 0.306737
0.994675 0.721889 0.299443
0.0325628 0.789441 0.418708
0.0337377 0.789776 0.416281
0.0357671 0.791974 0.41352
0.244419 0.814817 0.388159
0.470954 0.81146 0.401846
0.629206 0.806439 0.380118
0.782513 0.800244 0.345769
0.924941 0.811872 0.307225
1 0.833951 0.294026
0.0329595 0.87274 0.453422
0.0333104 0.873304 0.452415
0.035462 0.875532 0.450034
0.208194 0.894514 0.432258
0.421057 0.900343 0.414511
0.609979 0.890669 0.408057
0.770153 0.884169 0.371298
0.926009 0.885115 0.334615
1 0.903639 0.315175
0 0.135271 0.375402
0 0.138003 0.38677
0.00320439 0.143175 0.417227
0.266438 0.107195 0.421027
0.464851 0.0345922 0.431312
0.601862 0 0.425101
0.732418 0 0.420264
0.863432 0 0.417975
0.960571 0 0.415305
0 0.165881 0.377691
0 0.168139 0.387991
0 0.173693 0.419669
0.267582 0.139254 0.432151
0.469459 0.0732128 0.436271
0.611414 0 0.430396
0.736217 0 0.422446
0.866957 0 0.419394
0.963409 0 0.416907
0.0459144 0.235279 0.340185
0.0439307 0.237629 0.346792
0.03505 0.246815 0.375265
0.253895 0.239933 0.459876
0.492393 0.19762 0.461875
0.643503 0.139437 0.450294
0.763867 0.0695811 0.433753
0.883253 0.0381933 0.424582
0.972534 0.0708629 0.426551
0.138125 0.320409 0.345541
0.13994 0.321508 0.347662
0.14725 0.326177 0.35668
0.234852 0.368261 0.444907
0.499367 0.344961 0.474845
0.656077 0.315358 0.462364
0.781125 0.296788 0.44831
0.902373 0.28542 0.437613
0.980804 0.289265 0.437217
0.105608 0.438758 0.41709
0.105882 0.439384 0.417975
0.107271 0.443565 0.422904
0.276753 0.471839 0.456748
0.505028 0.479225 0.463279
0.649653 0.464439 0.459586
0.776226 0.454078 0.448966
0.901991 0.447135 0.441657
0.988479 0.444099 0.440085
0.0733654 0.557824 0.462867
0.0728618 0.558312 0.462623
0.0720989 0.564004 0.465705
0.260105 0.591638 0.482628
0.470268 0.606394 0.477165
0.645853 0.595193 0.476677
0.767483 0.592752 0.455726
0.897093 0.589792 0.447105
0.991272 0.587655 0.444053
0.036759 0.674144 0.494697
0.0362097 0.674647 0.493904
0.034638 0.678996 0.493782
0.230762 0.702708 0.496406
0.438727 0.719142 0.483085
0.634562 0.709209 0.488365
0.776455 0.705684 0.463859
0.899672 0.716747 0.449119
0.991455 0.722835 0.446342
0.0103609 0.783902 0.521843
0.0102083 0.784405 0.520745
0.00958267 0.786587 0.519203
0.18085 0.8047 0.51696
0.406104 0.825406 0.500267
0.610391 0.819181 0.50811
0.764553 0.812345 0.477882
0.913314 0.817487 0.449683
0.998276 0.837324 0.444236
0 0.867369 0.5449
0 0.86772 0.543526
0 0.869078 0.541787
0.0905776 0.87924 0.53901
0.377096 0.907012 0.523079
0.573312 0.907591 0.514092
0.748012 0.896574 0.486168
0.910109 0.893523 0.463188
1 0.908064 0.451331
0 0.177798 0.478782
0 0.180438 0.487358
0 0.189944 0.517342
0.151171 0.174975 0.540505
0.418616 0.128008 0.53637
0.596139 0.0345617 0.542031
0.724849 0 0.535698
0.849271 0 0.536538
0.947677 0 0.540688
0 0.205646 0.481315
0 0.20795 0.489219
0 0.217334 0.518624
0.128573 0.20856 0.551736
0.423072 0.157092 0.547356
0.599817 0.0773022 0.545342
0.733562 0 0.541299
0.852674 0 0.539117
0.950805 0 0.543343
0.0185855 0.276463 0.45388
0.0171969 0.278584 0.460395
0.0125887 0.287816 0.486473
0.0557717 0.300511 0.558404
0.430762 0.258198 0.577676
0.621942 0.197803 0.56846
0.756497 0.117037 0.555795
0.873777 0.0331121 0.548638
0.965164 0.0892195 0.555917
0.148058 0.346273 0.41326
0.14728 0.347585 0.416297
0.146883 0.352651 0.425147
0.147646 0.37116 0.467033
0.417334 0.379095 0.59646
0.628824 0.35021 0.585016
0.777264 0.311101 0.576837
0.898848 0.281834 0.569268
0.97409 0.297169 0.57116
0.166674 0.445426 0.465476
0.16791 0.44593 0.46656
0.173037 0.448798 0.471763
0.229068 0.460853 0.488746
0.392508 0.50808 0.586694
0.631861 0.483635 0.58761
0.778744 0.45771 0.583154
0.900923 0.444205 0.578378
0.980896 0.445289 0.579995
0.130739 0.555505 0.528313
0.130938 0.555917 0.528969
0.13164 0.55761 0.531304
0.166354 0.567956 0.544427
0.431891 0.605997 0.589975
0.640162 0.603494 0.579339
0.773816 0.592767 0.583398
0.900175 0.585489 0.57998
0.990341 0.582605 0.578775
0.104829 0.667536 0.574639
0.104662 0.667735 0.574655
0.104189 0.670588 0.576379
0.175616 0.681849 0.587213
0.412512 0.715526 0.612436
0.599069 0.721645 0.59997
0.766369 0.711849 0.598093
0.894362 0.718257 0.584482
0.990784 0.720043 0.581064
0.0508888 0.777127 0.608484
0.0505379 0.777279 0.608148
0.0494698 0.77911 0.608484
0.100633 0.78529 0.612451
0.377386 0.818235 0.623575
0.560357 0.831678 0.6103
0.748363 0.82211 0.604074
0.897932 0.823972 0.589044
0.993072 0.839658 0.582574
0.0101778 0.861326 0.632715
0.00987259 0.861402 0.632181
0.00895705 0.862409 0.631617
0.0217288 0.865003 0.632532
0.343557 0.896986 0.63743
0.537285 0.914183 0.630838
0.720851 0.910536 0.617288
0.888395 0.904112 0.594598
0.99852 0.91252 0.586313
0 0.224048 0.582269
0 0.226734 0.589624
0 0.236423 0.614481
0.00302129 0.245808 0.647654
0.363958 0.19678 0.655833
0.570031 0.14548 0.648875
0.726268 0.0428016 0.647639
0.847196 0 0.645304
0.937514 0 0.649531
0 0.25095 0.585534
0 0.253376 0.592065
0 0.262745 0.615747
0 0.27332 0.649805
0.361593 0.228153 0.665934
0.573236 0.173083 0.656184
0.729335 0.0921798 0.650294
0.856474 0 0.651301
0.941527 0 0.652857
0.0030518 0.320592 0.568215
0.00238041 0.322408 0.573312
0.000503548 0.330541 0.593347
0 0.343587 0.631113
0.339834 0.317784 0.686076
0.584924 0.276371 0.682795
0.741665 0.198932 0.663493
0.871015 0.126528 0.660288
0.960342 0.137972 0.665888
0.118105 0.384985 0.507073
0.117403 0.386084 0.50959
0.115053 0.391196 0.520333
0.107134 0.401907 0.545907
0.28658 0.432486 0.70045
0.579293 0.39379 0.696818
0.755276 0.356329 0.683528
0.890776 0.313313 0.680751
0.966781 0.320027 0.680781
0.21619 0.460639 0.510567
0.216907 0.46125 0.511925
0.219608 0.46389 0.517388
0.224125 0.469657 0.527062
0.307774 0.525963 0.645533
0.569818 0.510048 0.701701
0.752331 0.487739 0.690181
0.892607 0.459266 0.691203
0.972335 0.457603 0.695781
0.18706 0.562692 0.576516
0.187976 0.563088 0.57731
0.19147 0.564446 0.580209
0.200458 0.569085 0.588327
0.427466 0.601846 0.625803
0.531426 0.634455 0.712108
0.755077 0.607416 0.691691
0.888747 0.590463 0.702068
0.979706 0.58529 0.707271
0.153857 0.66775 0.634211
0.154055 0.667948 0.63473
0.15462 0.669261 0.636622
0.155978 0.67219 0.641062
0.376669 0.702235 0.677073
0.573739 0.723354 0.706188
0.756497 0.716243 0.68983
0.892973 0.714549 0.709468
0.991226 0.712978 0.708934
0.126299 0.772915 0.677897
0.12636 0.773037 0.678019
0.125948 0.773999 0.678538
0.128573 0.775784 0.681483
0.367285 0.80499 0.710506
0.540597 0.828077 0.728237
0.7131 0.830167 0.720226
0.879545 0.828824 0.719707
0.987701 0.840879 0.714229
0.075288 0.855482 0.706355
0.0751354 0.855756 0.706432
0.0747845 0.856397 0.706706
0.075761 0.857496 0.708415
0.323873 0.883833 0.728283
0.518074 0.907454 0.741161
0.690761 0.915999 0.736996
0.864591 0.912612 0.725628
0.986603 0.916915 0.717998
0.0016022 0.274479 0.689387
0.00213626 0.2766 0.694972
0.00393683 0.285695 0.715801
0.00608835 0.301701 0.751812
0.253498 0.27895 0.770596
0.540658 0.225605 0.764294
0.713832 0.167041 0.754864
0.851286 0.0805829 0.751919
0.942168 1.5259e-05 0.754376
0 0.300938 0.692439
0 0.302968 0.697551
0 0.311681 0.716854
0 0.327932 0.752087
0.232731 0.310735 0.777371
0.539773 0.258625 0.770947
0.716182 0.1991 0.759701
0.853742 0.132464 0.753735
0.946624 0.0634775 0.756619
0 0.367651 0.680034
0 0.369146 0.684092
0 0.376333 0.700328
0 0.390295 0.73225
0.166491 0.38941 0.78616
0.532174 0.339925 0.782712
0.724193 0.291905 0.776272
0.860945 0.228229 0.761425
0.952987 0.21445 0.7635
0.086305 0.426825 0.608545
0.0852522 0.427832 0.611337
0.0829175 0.4327 0.621836
0.0773022 0.442893 0.64445
0.130419 0.469001 0.739391
0.516854 0.436255 0.791424
0.723812 0.405356 0.790402
0.871809 0.367681 0.777203
0.957519 0.360845 0.775357
0.218647 0.48864 0.575463
0.21854 0.489326 0.576715
0.218647 0.491859 0.580896
0.218219 0.497246 0.590341
0.234241 0.524834 0.651011
0.480446 0.549386 0.805646
0.71603 0.518334 0.799558
0.870146 0.495079 0.785641
0.960296 0.484245 0.790707
0.247272 0.575067 0.619242
0.248081 0.57528 0.619928
0.251102 0.577127 0.623285
0.256916 0.580255 0.629541
0.3729 0.603387 0.657145
0.456153 0.656703 0.785611
0.708125 0.627344 0.811856
0.861769 0.613855 0.794705
0.962707 0.600809 0.806271
0.202075 0.675013 0.681971
0.202808 0.675349 0.682597
0.205707 0.676371 0.684794
0.211337 0.67895 0.689586
0.325032 0.69366 0.708446
0.569741 0.724788 0.745159
0.667796 0.745098 0.817105
0.857359 0.723964 0.812329
0.96762 0.715511 0.821698
0.174975 0.774578 0.734462
0.175128 0.774716 0.734874
0.17557 0.775708 0.736355
0.176379 0.777401 0.738949
0.242603 0.786465 0.751064
0.527886 0.82269 0.79501
0.701335 0.834073 0.817533
0.852354 0.832471 0.825879
0.977005 0.836789 0.834638
0.156695 0.854139 0.769116
0.156817 0.854292 0.769299
0.156847 0.854948 0.769863
0.157656 0.856046 0.771374
0.247578 0.866148 0.783062
0.5196 0.900511 0.821607
0.671031 0.918105 0.842145
0.833753 0.918547 0.843458
0.964462 0.921477 0.841947
0.00613413 0.3149 0.772488
0.00628672 0.316945 0.77734
0.00689708 0.324849 0.794018
0.00788891 0.338323 0.822019
0.115892 0.330251 0.843626
0.508461 0.275486 0.835996
0.697719 0.235096 0.831113
0.842283 0.176715 0.828122
0.937713 0.122499 0.82707
0 0.341192 0.774838
0 0.342901 0.778943
0.000503548 0.350622 0.79469
0.00231937 0.363806 0.821347
0.0987869 0.359121 0.842802
0.503624 0.304463 0.839155
0.698207 0.266239 0.834607
0.843976 0.214069 0.830014
0.939132 0.170275 0.828138
0 0.403662 0.762112
0 0.405127 0.765576
0 0.411032 0.777981
0 0.42266 0.801419
0.0542153 0.426139 0.833173
0.489799 0.375753 0.846693
0.697475 0.345556 0.845029
0.849348 0.30042 0.836973
0.943587 0.277546 0.833783
0.06598 0.45893 0.684565
0.0652476 0.459861 0.687037
0.0638285 0.46421 0.696117
0.0609293 0.472984 0.714549
0.059678 0.484718 0.749447
0.461112 0.473075 0.854612
0.690303 0.441733 0.856077
0.85391 0.410376 0.850416
0.945251 0.400031 0.842298
0.203769 0.513878 0.632624
0.203387 0.514412 0.63389
0.202914 0.517052 0.638697
0.201144 0.522896 0.65005
0.196475 0.530129 0.667216
0.41117 0.57908 0.866987
0.678721 0.542077 0.879011
0.852827 0.519615 0.8654
0.945266 0.512016 0.856458
0.277928 0.58819 0.651606
0.278492 0.588449 0.652384
0.280827 0.590234 0.655985
0.283696 0.59292 0.661021
0.292119 0.597314 0.667262
0.406882 0.671183 0.82887
0.649973 0.652399 0.888502
0.846586 0.626627 0.886488
0.944854 0.620417 0.872984
0.255787 0.681605 0.713375
0.25658 0.68191 0.714031
0.259419 0.68304 0.716472
0.264729 0.685252 0.721141
0.293248 0.689067 0.727993
0.544747 0.732616 0.781582
0.613474 0.764553 0.885374
0.832898 0.735531 0.901152
0.944427 0.727687 0.890715
0.193179 0.780041 0.772351
0.193851 0.780301 0.772839
0.195987 0.781247 0.774517
0.199863 0.783123 0.777722
0.21181 0.785092 0.782589
0.522515 0.821988 0.826535
0.701625 0.838224 0.851637
0.807385 0.849653 0.906737
0.941634 0.837324 0.908812
0.190448 0.855482 0.809979
0.190631 0.855833 0.810498
0.191028 0.856779 0.811841
0.191669 0.858213 0.814008
0.195605 0.860197 0.818051
0.491279 0.896666 0.860868
0.673884 0.917891 0.89247
0.833097 0.922408 0.912001
0.940154 0.923644 0.922927
