lut/b4a54e39-e576-47bc-8872-4c8f6f7ddcda.cube
TITLE "Cinematic Cool Magenta"
LUT_3D_SIZE 5
0.0190433 0.0158999 0.0136263
0.221042 0 0.000289921
0.498543 0 0
0.7635 0 0
0.974853 0 0
0.00553903 0.191669 0.0196689
0.228992 0.187488 0.0171664
0.506645 0.179736 0
0.768093 0.158846 0
0.979217 0.138445 0
0.00341802 0.454292 0.0839857
0.251957 0.445487 0.129854
0.533379 0.446052 0.0531777
0.768597 0.456153 0
0.990066 0.451331 0
0.0120851 0.693751 0.199069
0.205936 0.691341 0.194965
0.536202 0.681392 0.198978
0.803403 0.686229 0.0948806
0.99736 0.718166 0
0.0290837 0.886671 0.305074
0.0496834 0.890181 0.288121
0.497581 0.880018 0.296635
0.797803 0.87219 0.239719
1 0.8981 0.149981
0 0.0541848 0.161959
0.19823 0.0177157 0.179583
0.493629 0 0.160678
0.763348 0 0.0796674
0.976349 0 0.0843214
0.0505379 0.188678 0.176669
0.210483 0.197086 0.181415
0.51519 0.16965 0.165469
0.775082 0.124758 0.0943618
0.982513 0.107286 0.0901503
0.0227359 0.448569 0.213962
0.142977 0.463203 0.193927
0.523781 0.456489 0.194766
0.770504 0.455802 0.152346
0.99173 0.449195 0.127703
0.0484932 0.684794 0.292058
0.107637 0.69633 0.269718
0.516991 0.692012 0.276173
0.797391 0.690578 0.194202
0.996475 0.719829 0.153903
0.0647746 0.87866 0.39115
0.0617685 0.880461 0.382559
0.475166 0.889174 0.364935
0.78555 0.877562 0.300862
1 0.900587 0.237873
0 0.135271 0.375402
0.00320439 0.143175 0.417227
0.464851 0.0345922 0.431312
0.732418 0 0.420264
0.960571 0 0.415305
0.0459144 0.235279 0.340185
0.03505 0.246815 0.375265
0.492393 0.19762 0.461875
0.763867 0.0695811 0.433753
0.972534 0.0708629 0.426551
0.105608 0.438758 0.41709
0.107271 0.443565 0.422904
0.505028 0.479225 0.463279
0.776226 0.454078 0.448966
0.988479 0.444099 0.440085
0.036759 0.674144 0.494697
0.034638 0.678996 0.493782
0.438727 0.719142 0.483085
0.776455 0.705684 0.463859
0.991455 0.722835 0.446342
0 0.867369 0.5449
0 0.869078 0.541787
0.377096 0.907012 0.523079
0.748012 0.896574 0.486168
1 0.908064 0.451331
0 0.224048 0.582269
0 0.236423 0.614481
0.363958 0.19678 0.655833
0.726268 0.0428016 0.647639
0.937514 0 0.649531
0.0030518 0.320592 0.568215
0.000503548 0.330541 0.593347
0.339834 0.317784 0.686076
0.741665 0.198932 0.663493
0.960342 0.137972 0.665888
0.21619 0.460639 0.510567
0.219608 0.46389 0.517388
0.307774 0.525963 0.645533
0.752331 0.487739 0.690181
0.972335 0.457603 0.695781
0.153857 0.66775 0.634211
0.15462 0.669261 0.636622
0.376669 0.702235 0.677073
0.756497 0.716243 0.68983
0.991226 0.712978 0.708934
0.075288 0.855482 0.706355
0.0747845 0.856397 0.706706
0.323873 0.883833 0.728283
0.690761 0.915999 0.736996
0.986603 0.916915 0.717998
0.00613413 0.3149 0.772488
0.00689708 0.324849 0.794018
0.115892 0.330251 0.843626
0.697719 0.235096 0.831113
0.937713 0.122499 0.82707
0 0.403662 0.762112
0 0.411032 0.777981
0.0542153 0.426139 0.833173
0.697475 0.345556 0.845029
0.943587 0.277546 0.833783
0.203769 0.513878 0.632624
0.202914 0.517052 0.638697
0.196475 0.530129 0.667216
0.678721 0.542077 0.879011
0.945266 0.512016 0.856458
0.255787 0.681605 0.713375
0.259419 0.68304 0.716472
0.293248 0.689067 0.727993
0.613474 0.764553 0.885374
0.944427 0.727687 0.890715
0.190448 0.855482 0.809979
0.191028 0.856779 0.811841
0.195605 0.860197 0.818051
0.673884 0.917891 0.89247
0.940154 0.923644 0.922927
