lut/b4a54e39-e576-47bc-8872-4c8f6f7ddcda.cube
TITLE "Cinematic Cool Magenta"
LUT_3D_SIZE 33
0.0190433 0.0158999 0.0136263
0.0190433 0.0158999 0.0136263
0.0247501 0.0155795 0.0132296
0.054963 0.0138094 0.01149
0.0873426 0.0114748 0.00978103
0.120485 0.0084535 0.00666819
0.153872 0.00479133 0.00315862
0.187335 0.000900282 0.000915541
0.221042 0 0.000289921
0.254475 0 0
0.289082 0 0
0.324666 0 0
0.359792 0 0
0.394766 0 0
0.429892 0 0
0.464469 0 0
0.498543 0 0
0.532235 0 0
0.565744 0 0
0.599023 0 0
0.632288 0 0
0.66537 0 0
0.698405 0 0
0.731106 0 0
0.7635 0 0
0.795453 0 0
0.827298 0 0
0.859068 0 0
0.890715 0 0
0.921813 0 0
0.950134 0 0
0.973342 0 0
0.974853 0 0
0.0190433 0.0158999 0.0136263
0.0190433 0.0158999 0.0136263
0.0247501 0.0155795 0.0132296
0.054963 0.0138094 0.01149
0.0873426 0.0114748 0.00978103
0.120485 0.0084535 0.00666819
0.153872 0.00479133 0.00315862
0.187335 0.000900282 0.000915541
0.221042 0 0.000289921
0.254475 0 0
0.289082 0 0
0.324666 0 0
0.359792 0 0
0.394766 0 0
0.429892 0 0
0.464469 0 0
0.498543 0 0
0.532235 0 0
0.565744 0 0
0.599023 0 0
0.632288 0 0
0.66537 0 0
0.698405 0 0
0.731106 0 0
0.7635 0 0
0.795453 0 0
0.827298 0 0
0.859068 0 0
0.890715 0 0
0.921813 0 0
0.950134 0 0
0.973342 0 0
0.974853 0 0
0.0188144 0.0207218 0.013962
0.0188144 0.0207218 0.013962
0.024506 0.0204013 0.0135958
0.0548104 0.0186465 0.0118868
0.0872206 0.0163424 0.0101015
0.120531 0.0132296 0.0069276
0.154116 0.00941482 0.0033875
0.187793 0.00534066 0.0010071
0.221592 0.00134279 0.000289921
0.255146 0 0
0.289708 0 0
0.32517 0 0
0.36022 0 0
0.395117 0 0
0.430121 0 0
0.464668 0 0
0.498711 0 0
0.532403 0 0
0.565896 0 0
0.599161 0 0
0.63241 0 0
0.665492 0 0
0.698512 0 0
0.731228 0 0
0.763607 0 0
0.79556 0 0
0.827405 0 0
0.859174 0 0
0.890822 0 0
0.92192 0 0
0.950225 0 0
0.973465 0 0
0.97499 0 0
0.0188602 0.0461585 0.0151522
0.0188602 0.0461585 0.0151522
0.0243687 0.0458991 0.0150149
0.0542458 0.044419 0.014023
0.0864424 0.0426032 0.011902
0.120241 0.0396735 0.00851453
0.154894 0.0357519 0.00482185
0.189639 0.0313878 0.00172427
0.224125 0.0267185 0.000366217
0.258335 0.0225681 0
0.29279 0.0185397 0
0.327718 0.0137484 0
0.362432 0.00891127 0
0.396963 0.00462348 0
0.431388 0.00112917 0
0.46569 0 0
0.49958 0 0
0.53315 0.000579843 0
0.566583 0.00138857 0
0.599771 0.00213626 0
0.632959 0.00332647 0
0.665995 0.0043183 0
0.699031 0.00468452 0
0.731716 0.00502022 0
0.76405 0.00547799 0
0.796002 0.00601205 0
0.827863 0.0062562 0
0.859648 0.00608835 0
0.891295 0.00567636 0
0.922408 0.00543221 0
0.950668 0.00529488 0
0.974044 0.00494392 0
0.975586 0.00491341 0
0.0182803 0.0729229 0.016495
0.0182803 0.0729229 0.016495
0.0242161 0.0726329 0.0165713
0.0552682 0.0713664 0.0165713
0.0865339 0.0705272 0.0144961
0.119493 0.0689708 0.0108339
0.154543 0.0666819 0.00703441
0.190158 0.0637827 0.00337224
0.225605 0.0603952 0.000808728
0.260578 0.056611 0
0.295232 0.0525368 0
0.3299 0.0474861 0
0.364446 0.0421149 0
0.398749 0.0364843 0
0.432914 0.0307012 0
0.466896 0.0252384 0
0.500526 0.0208896 0
0.533913 0.0190433 0
0.567178 0.0180056 0
0.60029 0.0176089 0
0.633402 0.0184329 0
0.666362 0.0192416 0
0.699321 0.0198825 0
0.731975 0.0208133 0
0.764309 0.0218509 0
0.796262 0.0229191 0
0.828138 0.0236973 0
0.859907 0.0240177 0
0.891569 0.024094 0
0.922683 0.0243839 0
0.950957 0.0247501 0
0.974487 0.0245975 0
0.976043 0.0245975 0
0.0179294 0.100679 0.0183871
0.0179294 0.100679 0.0183871
0.0243534 0.100343 0.0188602
0.0575113 0.0989548 0.0204471
0.0879835 0.0986801 0.0185245
0.119615 0.0980392 0.0144045
0.154284 0.0969711 0.0100862
0.190204 0.0954757 0.00587472
0.226307 0.0933089 0.00218204
0.261936 0.0906233 6.10361e-05
0.297124 0.0874342 0
0.331838 0.0837568 0
0.366491 0.0792401 0
0.400763 0.0745098 0
0.434852 0.0696574 0
0.468635 0.0638437 0
0.502113 0.0580148 0
0.535317 0.0530861 0
0.568338 0.0480049 0
0.601312 0.0441901 0
0.634272 0.0420691 0
0.667109 0.0402075 0
0.699947 0.0395514 0
0.732494 0.0392157 0
0.764767 0.0395514 0
0.796689 0.0408331 0
0.828565 0.0418402 0
0.860349 0.0427253 0
0.891997 0.0435798 0
0.923079 0.04477 0
0.951308 0.0460059 0
0.975036 0.0470283 0
0.976593 0.0471046 0
0.0154116 0.129885 0.0194705
0.0154116 0.129885 0.0194705
0.0222934 0.129488 0.0205081
0.0581521 0.127825 0.0248722
0.0907301 0.127413 0.0243992
0.120958 0.127474 0.0201572
0.154818 0.127138 0.0149233
0.190539 0.126528 0.00972
0.226642 0.125612 0.00485237
0.262531 0.124086 0.00111391
0.298161 0.121981 0
0.333227 0.119554 0
0.368124 0.116548 0
0.402533 0.113329 0
0.436713 0.109712 0
0.470466 0.105837 0
0.503914 0.101472 0
0.537057 0.0966812 0
0.570001 0.0913405 0
0.602914 0.0862593 0
0.635691 0.0809491 0
0.668437 0.0760204 0
0.701076 0.0721447 0
0.733486 0.0680095 0
0.76556 0.0651408 0
0.797452 0.064683 0
0.829221 0.0648203 0
0.86096 0.0657511 0
0.892592 0.0673228 0
0.923644 0.0692149 0
0.951812 0.0715496 0
0.975708 0.073579 0
0.977295 0.0737163 0
0.0103456 0.160403 0.0193942
0.0103456 0.160403 0.0193942
0.0174868 0.159976 0.0209812
0.0560311 0.157931 0.0287633
0.0931106 0.156954 0.0319524
0.123491 0.157076 0.0280003
0.155779 0.157183 0.0222171
0.191379 0.156985 0.0159762
0.227512 0.156893 0.00949111
0.263325 0.156542 0.00399786
0.29897 0.155688 0.00030518
0.334173 0.154253 0
0.369207 0.152346 0
0.4038 0.150011 0
0.438117 0.147463 0
0.471977 0.144717 0
0.505486 0.141695 0
0.538705 0.138659 0
0.57174 0.1355 0
0.6047 0.132158 0
0.637446 0.128359 0
0.670161 0.124453 0
0.702617 0.119936 0
0.73489 0.115496 0
0.766781 0.111025 0
0.798535 0.1066 0
0.830198 0.102419 0
0.861845 0.100694 0
0.893477 0.100328 0
0.924437 0.100328 0
0.95256 0.102037 0
0.976562 0.103807 0
0.978149 0.103929 0
0.00553903 0.191669 0.0196689
0.00553903 0.191669 0.0196689
0.0122072 0.191272 0.0213169
0.0508736 0.18909 0.0311894
0.0940108 0.187182 0.0399023
0.126421 0.186999 0.0376898
0.157336 0.18732 0.0312505
0.192233 0.187304 0.0247349
0.228992 0.187488 0.0171664
0.265187 0.188159 0.00962844
0.300679 0.18851 0.00357061
0.33547 0.188235 0
0.370153 0.187335 0
0.404654 0.185748 0
0.439002 0.183932 0
0.472999 0.181903 0
0.506645 0.179736 0
0.540047 0.177569 0
0.573236 0.175341 0
0.606317 0.173098 0
0.639139 0.17055 0
0.671839 0.167773 0
0.704189 0.164996 0
0.736294 0.162066 0
0.768093 0.158846 0
0.799847 0.155322 0
0.831495 0.151415 0
0.863096 0.147845 0
0.894636 0.144137 0
0.92549 0.140856 0
0.953536 0.139269 0
0.97763 0.138506 0
0.979217 0.138445 0
0.00242618 0.223285 0.021973
0.00242618 0.223285 0.021973
0.00740063 0.223026 0.0228122
0.0411994 0.221164 0.0311742
0.0913863 0.218387 0.0463111
0.129107 0.217411 0.0486763
0.159716 0.217731 0.0419623
0.193301 0.217914 0.0348669
0.23032 0.218006 0.0276646
0.267796 0.218708 0.0188602
0.303609 0.220096 0.0099794
0.338155 0.221088 0.00341802
0.371984 0.221393 0
0.405798 0.22089 0
0.439704 0.219837 0
0.473655 0.218433 0
0.507439 0.216953 0
0.541009 0.215228 0
0.574319 0.213474 0
0.607477 0.211673 0
0.640406 0.209735 0
0.673136 0.207675 0
0.705379 0.205509 0
0.737484 0.203525 0
0.769345 0.201358 0
0.801144 0.199023 0
0.832822 0.196506 0
0.864424 0.193988 0
0.895979 0.191363 0
0.926802 0.188663 0
0.954803 0.186007 0
0.979004 0.183307 0
0.980606 0.183124 0
0.00231937 0.255283 0.0265507
0.00231937 0.255283 0.0265507
0.00453193 0.255207 0.0261997
0.027924 0.254032 0.0300908
0.0830091 0.250996 0.0488594
0.130266 0.249088 0.0591135
0.162921 0.248981 0.0547951
0.195315 0.249226 0.0467079
0.231159 0.249241 0.0394446
0.269841 0.24947 0.031342
0.307286 0.250843 0.0210269
0.342214 0.253132 0.0108644
0.375479 0.254505 0.00363165
0.408347 0.254994 0
0.441215 0.255009 0
0.474479 0.254276 0
0.50808 0.253223 0
0.541619 0.251835 0
0.575006 0.250355 0
0.608179 0.24892 0
0.641093 0.247318 0
0.673777 0.245808 0
0.706035 0.244022 0
0.738277 0.242283 0
0.77026 0.240482 0
0.802197 0.238865 0
0.833967 0.23714 0
0.865629 0.235416 0
0.897246 0.23357 0
0.9281 0.231632 0
0.956115 0.23003 0
0.980545 0.228534 0
0.982177 0.228443 0
0.00256352 0.28777 0.0328679
0.00256352 0.28777 0.0328679
0.00306706 0.287755 0.0322728
0.0174868 0.287205 0.0329747
0.0703899 0.284688 0.0489052
0.127962 0.281819 0.0674601
0.166293 0.280964 0.0684672
0.198276 0.28101 0.0603342
0.233082 0.281056 0.0521248
0.271031 0.280995 0.0447547
0.310307 0.281468 0.0361944
0.347066 0.283742 0.0246433
0.380591 0.286152 0.0129549
0.41294 0.288075 0.00471504
0.4448 0.289097 0
0.476661 0.289235 0
0.50898 0.288884 0
0.541909 0.28809 0
0.575143 0.286992 0
0.608255 0.285512 0
0.641215 0.284123 0
0.673838 0.282567 0
0.706386 0.281163 0
0.738628 0.279713 0
0.770855 0.278248 0
0.802899 0.276753 0
0.834836 0.275319 0
0.86659 0.273945 0
0.898314 0.272679 0
0.929274 0.271321 0
0.957412 0.270085 0
0.982208 0.26891 0
0.983856 0.268833 0
0.00277714 0.320836 0.0408331
0.00277714 0.320836 0.0408331
0.00282292 0.320836 0.0402686
0.0115511 0.320562 0.0385138
0.0561074 0.3187 0.0484932
0.121035 0.315511 0.0718395
0.168643 0.313726 0.0809644
0.202075 0.313573 0.0751659
0.235966 0.313558 0.0666667
0.272938 0.313405 0.0587015
0.312032 0.313436 0.0513313
0.351034 0.314275 0.0419928
0.386481 0.316838 0.0290532
0.419059 0.319722 0.0163272
0.450126 0.321752 0.00660716
0.480751 0.32285 0
0.511604 0.323247 0
0.543038 0.32314 0
0.575265 0.322469 0
0.607889 0.321431 0
0.640772 0.320256 0
0.673472 0.31873 0
0.706127 0.317617 0
0.738567 0.316335 0
0.770932 0.315053 0
0.803128 0.313756 0
0.835218 0.312535 0
0.867201 0.31133 0
0.899092 0.31014 0
0.930266 0.308797 0
0.958541 0.307881 0
0.983658 0.307134 0
0.985336 0.307073 0
0.00297551 0.354238 0.0499123
0.00297551 0.354238 0.0499123
0.00297551 0.354238 0.0493782
0.00801099 0.35407 0.0464485
0.0428473 0.352865 0.0514076
0.11104 0.349813 0.0747692
0.169436 0.347127 0.0923018
0.206561 0.346578 0.0905165
0.23978 0.346578 0.0821698
0.275868 0.346593 0.0737316
0.31397 0.346334 0.066041
0.353368 0.346212 0.0584878
0.391241 0.347265 0.0480507
0.425437 0.350195 0.0346227
0.456565 0.353109 0.0208591
0.486336 0.355123 0.00883497
0.515892 0.356237 0.000808728
0.545892 0.356786 0
0.576577 0.356863 0
0.60798 0.356573 0
0.640253 0.355596 0
0.672816 0.354376 0
0.705562 0.353445 0
0.738109 0.352224 0
0.770626 0.351064 0
0.802945 0.349935 0
0.835203 0.348898 0
0.867384 0.347768 0
0.899474 0.346639 0
0.930892 0.345541 0
0.959518 0.344808 0
0.985107 0.343938 0
0.986816 0.343877 0
0.00314336 0.387976 0.0603952
0.00314336 0.387976 0.0603952
0.00315862 0.387961 0.0599222
0.0052491 0.3879 0.0568399
0.0305333 0.387381 0.0572976
0.0983291 0.384741 0.0766003
0.16701 0.381338 0.101106
0.210513 0.380087 0.10544
0.244144 0.380118 0.0983139
0.27921 0.379919 0.0897231
0.316609 0.379522 0.0812695
0.354925 0.379095 0.0739757
0.393866 0.378912 0.0659953
0.430274 0.380133 0.0549477
0.462913 0.382834 0.0407263
0.492668 0.385672 0.0252079
0.521447 0.387717 0.0116579
0.550317 0.388983 0.00254826
0.579721 0.389715 0
0.609812 0.38999 0
0.640696 0.38999 0
0.672419 0.389425 0
0.704753 0.388647 0
0.737301 0.387732 0
0.769955 0.386679 0
0.802441 0.385611 0
0.834882 0.384649 0
0.867247 0.383688 0
0.89955 0.382666 0
0.931243 0.38172 0
0.960266 0.380926 0
0.986374 0.380133 0
0.988113 0.380072 0
0.00329595 0.42153 0.0718395
0.00329595 0.42153 0.0718395
0.00329595 0.421515 0.0714122
0.00386053 0.421424 0.0688182
0.0217594 0.421103 0.0666361
0.084184 0.419318 0.0782177
0.159976 0.415732 0.10547
0.212665 0.413504 0.118715
0.248325 0.413138 0.114351
0.282612 0.412833 0.10605
0.319097 0.412375 0.0975357
0.356741 0.411673 0.0894942
0.394934 0.411063 0.0823377
0.432532 0.410864 0.0737316
0.467414 0.4121 0.0618296
0.49868 0.414679 0.0466163
0.527672 0.417517 0.0304265
0.555962 0.419745 0.01561
0.584375 0.421195 0.00492866
0.613336 0.422095 0
0.642954 0.422812 0
0.673472 0.423133 0
0.704631 0.42298 0
0.736629 0.422644 0
0.76907 0.421805 0
0.801648 0.420844 0
0.834257 0.419959 0
0.866835 0.419059 0
0.899367 0.418204 0
0.931304 0.417533 0
0.960739 0.41677 0
0.987396 0.416007 0
0.989181 0.415961 0
0.00341802 0.454292 0.0839857
0.00341802 0.454292 0.0839857
0.00341802 0.454292 0.0836042
0.00367742 0.454246 0.0809796
0.0174716 0.454047 0.0780194
0.072343 0.452811 0.0841077
0.150454 0.449485 0.109438
0.21236 0.446448 0.130007
0.251957 0.445487 0.129854
0.285954 0.44509 0.122301
0.321492 0.444572 0.114061
0.358373 0.443748 0.105821
0.395834 0.443 0.0982681
0.433158 0.442435 0.0910201
0.469505 0.442283 0.0818341
0.502953 0.443473 0.0690471
0.533379 0.446052 0.0531777
0.561929 0.44892 0.0361639
0.589868 0.451209 0.0198062
0.618051 0.452949 0.00704967
0.646693 0.454368 0
0.676051 0.45536 0
0.706065 0.456077 0
0.736996 0.456336 0
0.768597 0.456153 0
0.800855 0.45568 0
0.833448 0.455039 0
0.866194 0.454261 0
0.898909 0.453498 0
0.93106 0.452796 0
0.960952 0.452079 0
0.988235 0.451377 0
0.990066 0.451331 0
0.00350958 0.486259 0.0971237
0.00350958 0.486259 0.0971237
0.00352483 0.486244 0.0967575
0.00360113 0.486183 0.0946365
0.013962 0.486107 0.0914626
0.0609293 0.485298 0.0929122
0.137987 0.482536 0.112505
0.20827 0.479026 0.137682
0.254353 0.477272 0.144183
0.289097 0.476768 0.138293
0.323842 0.476158 0.130434
0.359899 0.47541 0.122362
0.396796 0.474601 0.114565
0.433371 0.473945 0.107561
0.469795 0.473396 0.100053
0.504829 0.473259 0.0902113
0.537377 0.474571 0.0763714
0.567346 0.477028 0.0598306
0.595636 0.479866 0.0418097
0.623514 0.482399 0.0241703
0.651514 0.484535 0.00923171
0.680003 0.486244 0
0.70901 0.487739 0
0.738842 0.488701 0
0.769421 0.489387 0
0.800793 0.489662 0
0.832822 0.489509 0
0.86537 0.489067 0
0.898161 0.488426 0
0.930526 0.487739 0
0.960922 0.487175 0
0.988907 0.486458 0
0.990784 0.486397 0
0.00360113 0.517555 0.110353
0.00360113 0.517555 0.110353
0.00361639 0.51754 0.110018
0.00366217 0.517464 0.108141
0.0121004 0.517403 0.105165
0.0528725 0.516899 0.103792
0.126177 0.514702 0.117449
0.201373 0.51107 0.143389
0.254826 0.508659 0.156603
0.291951 0.507836 0.153735
0.326116 0.507256 0.146578
0.361532 0.506569 0.138796
0.397635 0.505852 0.131106
0.433875 0.505165 0.123796
0.469459 0.504601 0.117052
0.504921 0.503944 0.109117
0.539055 0.503929 0.0988632
0.571145 0.505058 0.0840467
0.600931 0.507485 0.0660258
0.629206 0.51043 0.0470893
0.656962 0.513237 0.0282597
0.684962 0.515801 0.0115663
0.713314 0.517983 0.000991836
0.742214 0.519738 0
0.771786 0.521248 0
0.802136 0.522362 0
0.833158 0.522942 0
0.864958 0.523186 0
0.897398 0.523033 0
0.929854 0.522393 0
0.960662 0.521904 0
0.989349 0.521202 0
0.991272 0.521141 0
0.00367742 0.548165 0.123995
0.00367742 0.548165 0.123995
0.00369268 0.548196 0.123705
0.0037232 0.548272 0.122072
0.0104829 0.548196 0.119554
0.0450904 0.54789 0.115984
0.112978 0.546365 0.122606
0.191684 0.54287 0.147677
0.253681 0.539544 0.168048
0.294347 0.538262 0.168795
0.328206 0.53782 0.162432
0.362905 0.537118 0.154986
0.398398 0.536461 0.147555
0.434089 0.535866 0.140276
0.469413 0.535241 0.133303
0.504143 0.534676 0.126558
0.53904 0.533974 0.118273
0.572869 0.533806 0.106996
0.604837 0.535027 0.0909895
0.634607 0.537621 0.0717174
0.662959 0.540825 0.0518196
0.69073 0.544106 0.0320592
0.718608 0.547112 0.0143435
0.746914 0.549706 0.00227359
0.775586 0.551965 0
0.804929 0.55378 0
0.834989 0.555108 0
0.865812 0.556039 0
0.897398 0.556542 0
0.929351 0.556588 0
0.960311 0.556344 0
0.989731 0.555886 0
0.991699 0.555856 0
0.00373846 0.578317 0.13814
0.00373846 0.578317 0.13814
0.00373846 0.578302 0.13785
0.00376898 0.578225 0.136248
0.0078584 0.578134 0.134127
0.0364691 0.577966 0.130037
0.100847 0.57702 0.130571
0.180301 0.574014 0.150927
0.250126 0.570153 0.177279
0.295903 0.568368 0.183291
0.330175 0.567697 0.177783
0.364141 0.567254 0.170977
0.398978 0.566613 0.163882
0.43418 0.566079 0.156756
0.4692 0.565484 0.149706
0.503853 0.564935 0.142794
0.538262 0.564187 0.13579
0.573022 0.563333 0.126879
0.606882 0.563317 0.114458
0.638849 0.564782 0.0972915
0.668727 0.567666 0.076463
0.696971 0.571313 0.0561227
0.724651 0.574899 0.0355383
0.752407 0.578347 0.0168154
0.780545 0.581353 0.00337224
0.809079 0.583963 0
0.838224 0.58613 0
0.868132 0.587808 0
0.898756 0.588983 0
0.92987 0.589853 0
0.960342 0.590188 0
0.98999 0.590127 0
0.991989 0.590127 0
0.00445563 0.607858 0.152422
0.00445563 0.607858 0.152422
0.00444038 0.607858 0.152132
0.00436408 0.607828 0.150546
0.00724804 0.607736 0.148577
0.0322728 0.607569 0.145083
0.0914473 0.606928 0.142092
0.16759 0.60473 0.154925
0.242847 0.600595 0.182986
0.296284 0.597925 0.196689
0.332128 0.597192 0.192706
0.365515 0.596765 0.186374
0.399725 0.596307 0.179767
0.434516 0.595819 0.172869
0.46923 0.595438 0.165972
0.503807 0.594888 0.158984
0.538109 0.594186 0.151965
0.572641 0.593332 0.144472
0.607492 0.592523 0.135103
0.641352 0.592691 0.121538
0.673274 0.594446 0.103334
0.702922 0.597665 0.0819409
0.730999 0.601633 0.0601511
0.758465 0.605798 0.0389715
0.786114 0.609522 0.0189822
0.814069 0.612787 0.00404364
0.842542 0.615808 0
0.871595 0.618296 0
0.901366 0.620295 0
0.93167 0.621866 0
0.961364 0.623056 0
0.990524 0.623575 0
0.992508 0.623606 0
0.00662242 0.636942 0.16733
0.00662242 0.636942 0.16733
0.00653086 0.636927 0.167025
0.00611887 0.63682 0.165331
0.00708019 0.636774 0.163302
0.0269474 0.636774 0.160204
0.0822309 0.636408 0.155962
0.155444 0.634791 0.161883
0.231998 0.631205 0.186526
0.293873 0.627848 0.207446
0.333562 0.626657 0.207279
0.367132 0.626291 0.201541
0.400824 0.62594 0.195361
0.435096 0.625544 0.18883
0.46952 0.625147 0.182147
0.503914 0.624521 0.175158
0.53814 0.623728 0.167941
0.572351 0.622889 0.160616
0.607126 0.621912 0.152544
0.641932 0.621225 0.142306
0.675715 0.621729 0.127794
0.707347 0.623774 0.108919
0.736736 0.627314 0.0865187
0.764599 0.6318 0.0639506
0.792096 0.636332 0.0419471
0.819684 0.640513 0.0211948
0.847669 0.644282 0.00505074
0.876112 0.647517 0
0.905135 0.650339 0
0.934691 0.652766 0
0.9635 0.654826 0
0.99173 0.656168 0
0.993637 0.65626 0
0.00924697 0.665614 0.183062
0.00924697 0.665614 0.183062
0.00915541 0.665583 0.182742
0.00863661 0.665507 0.181048
0.00872816 0.665537 0.179065
0.0238804 0.665675 0.175982
0.0741894 0.665583 0.171267
0.144579 0.664454 0.171633
0.219883 0.661402 0.190143
0.288121 0.657816 0.215335
0.334051 0.655879 0.221363
0.368322 0.655482 0.216342
0.40174 0.655131 0.210468
0.435447 0.654734 0.204257
0.469505 0.654215 0.197711
0.503502 0.653696 0.190967
0.537575 0.652918 0.18381
0.571786 0.652033 0.176349
0.606088 0.651072 0.168643
0.641138 0.650065 0.159838
0.676005 0.649607 0.148745
0.709484 0.650324 0.133608
0.740841 0.652842 0.113802
0.770092 0.656855 0.0909133
0.798093 0.661662 0.0670634
0.825574 0.666545 0.044358
0.853254 0.671244 0.0230411
0.881331 0.675547 0.00593576
0.909865 0.679301 0
0.938643 0.682506 0
0.966445 0.685344 0
0.993484 0.687495 0
0.995315 0.687633 0
0.0120851 0.693751 0.199069
0.0120851 0.693751 0.199069
0.0120089 0.693736 0.198764
0.0115663 0.693706 0.19707
0.0113985 0.693751 0.195117
0.0222019 0.694163 0.191836
0.0662089 0.69424 0.186908
0.133639 0.693523 0.183902
0.205936 0.691341 0.194965
0.277714 0.68777 0.220264
0.331823 0.685084 0.234211
0.367864 0.684276 0.230594
0.401221 0.684001 0.225071
0.434577 0.683711 0.219196
0.46836 0.683131 0.212848
0.502235 0.682414 0.206149
0.536202 0.681392 0.198978
0.570397 0.680323 0.191516
0.604776 0.679347 0.183795
0.639353 0.678553 0.175875
0.674693 0.677684 0.166491
0.709545 0.677348 0.154833
0.742763 0.67863 0.138857
0.77409 0.681636 0.118288
0.803403 0.686229 0.0948806
0.831464 0.691539 0.06981
0.859098 0.697017 0.046952
0.8869 0.702205 0.0250248
0.915129 0.70695 0.00683604
0.943374 0.711116 0
0.970077 0.714824 0
0.995621 0.717968 0
0.99736 0.718166 0
0.0150149 0.721538 0.214557
0.0150149 0.721538 0.214557
0.0149386 0.721523 0.214252
0.0145266 0.721508 0.212604
0.0139925 0.721538 0.210727
0.0200961 0.722042 0.207507
0.0556649 0.722545 0.202609
0.119646 0.722133 0.197894
0.189227 0.720714 0.201526
0.261219 0.717586 0.222004
0.323964 0.714214 0.242908
0.365057 0.712795 0.244343
0.398962 0.712474 0.239109
0.432227 0.712047 0.233448
0.465934 0.711345 0.227283
0.499855 0.710475 0.220676
0.533883 0.709392 0.213642
0.568154 0.708278 0.206287
0.60264 0.707332 0.198703
0.63743 0.706477 0.190829
0.672343 0.705699 0.182574
0.707958 0.704982 0.172824
0.742687 0.705165 0.160571
0.775967 0.70695 0.143862
0.807279 0.710552 0.122881
0.836728 0.715663 0.0986801
0.864897 0.721538 0.0728008
0.892699 0.72752 0.0492409
0.920714 0.733272 0.0265202
0.948547 0.738521 0.00694286
0.974289 0.743206 0
0.998016 0.74725 0
0.999619 0.747509 0
0.0178073 0.748989 0.229694
0.0178073 0.748989 0.229694
0.0177157 0.748974 0.229404
0.0172885 0.748928 0.227787
0.0167239 0.748989 0.22594
0.0185397 0.749264 0.223301
0.0422217 0.75024 0.21825
0.101549 0.750454 0.212802
0.170687 0.749615 0.2112
0.240421 0.747204 0.223423
0.309285 0.743511 0.246784
0.359411 0.741238 0.256886
0.394995 0.740612 0.252644
0.428595 0.740108 0.247227
0.462348 0.73933 0.241276
0.496406 0.738338 0.234821
0.530709 0.737133 0.227878
0.565194 0.735973 0.220661
0.599878 0.735012 0.21326
0.634852 0.734218 0.205615
0.669871 0.733501 0.197696
0.705409 0.732891 0.189059
0.741054 0.732403 0.178912
0.775937 0.733028 0.166018
0.809232 0.735378 0.148775
0.840604 0.73962 0.127108
0.870069 0.745235 0.102144
0.898421 0.75169 0.0754559
0.926436 0.758297 0.0510719
0.953933 0.764569 0.026978
0.978759 0.770306 0.00512703
1 0.775448 0
1 0.775799 0
0.0203708 0.776181 0.2448
0.0203708 0.776181 0.2448
0.0202792 0.776165 0.244495
0.0198215 0.776074 0.242863
0.0193027 0.776135 0.241062
0.0189212 0.776257 0.238911
0.0324712 0.777417 0.234028
0.0827344 0.778317 0.228183
0.15111 0.77789 0.223804
