lut/baf1e2a0-bee4-4fa1-b910-7642a64e848d.cube
TITLE "Punchy Monochrome"
LUT_3D_SIZE 9
0.000000 0.000000 0.000000
0.007843 0.007843 0.007843
0.062745 0.062745 0.062745
0.188235 0.188235 0.188235
0.286275 0.286275 0.286275
0.372549 0.372549 0.372549
0.443137 0.443137 0.443137
0.494118 0.494118 0.494118
0.541176 0.541176 0.541176
0.019608 0.019608 0.019608
0.035294 0.035294 0.035294
0.105882 0.105882 0.105882
0.219608 0.219608 0.219608
0.309804 0.309804 0.309804
0.388235 0.388235 0.388235
0.450980 0.450980 0.450980
0.505882 0.505882 0.505882
0.549020 0.549020 0.549020
0.160784 0.160784 0.160784
0.176471 0.176471 0.176471
0.211765 0.211765 0.211765
0.286275 0.286275 0.286275
0.356863 0.356863 0.356863
0.427451 0.427451 0.427451
0.478431 0.478431 0.478431
0.525490 0.525490 0.525490
0.568627 0.568627 0.568627
0.309804 0.309804 0.309804
0.317647 0.317647 0.317647
0.341176 0.341176 0.341176
0.380392 0.380392 0.380392
0.431373 0.431373 0.431373
0.482353 0.482353 0.482353
0.525490 0.525490 0.525490
0.564706 0.564706 0.564706
0.600000 0.600000 0.600000
0.431373 0.431373 0.431373
0.439216 0.439216 0.439216
0.454902 0.454902 0.454902
0.482353 0.482353 0.482353
0.521569 0.521569 0.521569
0.556863 0.556863 0.556863
0.588235 0.588235 0.588235
0.615686 0.615686 0.615686
0.643137 0.643137 0.643137
0.533333 0.533333 0.533333
0.537255 0.537255 0.537255
0.549020 0.549020 0.549020
0.568627 0.568627 0.568627
0.596078 0.596078 0.596078
0.627451 0.627451 0.627451
0.658824 0.658824 0.658824
0.678431 0.678431 0.678431
0.698039 0.698039 0.698039
0.619608 0.619608 0.619608
0.623529 0.623529 0.623529
0.631373 0.631373 0.631373
0.643137 0.643137 0.643137
0.662745 0.662745 0.662745
0.686275 0.686275 0.686275
0.717647 0.717647 0.717647
0.745098 0.745098 0.745098
0.756863 0.756863 0.756863
0.690196 0.690196 0.690196
0.694118 0.694118 0.694118
0.698039 0.698039 0.698039
0.709804 0.709804 0.709804
0.721569 0.721569 0.721569
0.741176 0.741176 0.741176
0.764706 0.764706 0.764706
0.788235 0.788235 0.788235
0.811765 0.811765 0.811765
0.752941 0.752941 0.752941
0.756863 0.756863 0.756863
0.760784 0.760784 0.760784
0.768627 0.768627 0.768627
0.776471 0.776471 0.776471
0.792157 0.792157 0.792157
0.807843 0.807843 0.807843
0.831373 0.831373 0.831373
0.850980 0.854902 0.854902
0.015686 0.015686 0.015686
0.027451 0.027451 0.027451
0.086275 0.086275 0.086275
0.192157 0.192157 0.192157
0.282353 0.282353 0.282353
0.368627 0.368627 0.372549
0.439216 0.439216 0.439216
0.498039 0.498039 0.498039
0.545098 0.545098 0.545098
0.043137 0.043137 0.043137
0.054902 0.054902 0.054902
0.113725 0.113725 0.113725
0.215686 0.215686 0.215686
0.305882 0.305882 0.305882
0.388235 0.388235 0.388235
0.450980 0.450980 0.450980
0.505882 0.505882 0.505882
0.552941 0.552941 0.552941
0.164706 0.164706 0.164706
0.180392 0.180392 0.180392
0.219608 0.223529 0.223529
0.290196 0.290196 0.290196
0.360784 0.360784 0.360784
0.427451 0.427451 0.427451
0.482353 0.482353 0.482353
0.529412 0.529412 0.529412
0.572549 0.572549 0.576471
0.313725 0.313725 0.313725
0.321569 0.321569 0.321569
0.349020 0.349020 0.349020
0.388235 0.388235 0.388235
0.439216 0.439216 0.439216
0.490196 0.490196 0.490196
0.533333 0.533333 0.533333
0.572549 0.572549 0.572549
0.607843 0.607843 0.607843
0.443137 0.443137 0.443137
0.447059 0.447059 0.447059
0.466667 0.466667 0.466667
0.494118 0.494118 0.494118
0.529412 0.529412 0.529412
0.564706 0.564706 0.564706
0.596078 0.596078 0.596078
0.623529 0.623529 0.623529
0.654902 0.654902 0.654902
0.545098 0.545098 0.545098
0.549020 0.549020 0.549020
0.560784 0.560784 0.560784
0.580392 0.580392 0.580392
0.603922 0.603922 0.603922
0.639216 0.639216 0.639216
0.666667 0.666667 0.666667
0.686275 0.686275 0.686275
0.705882 0.705882 0.705882
0.627451 0.627451 0.627451
0.631373 0.631373 0.631373
0.639216 0.639216 0.639216
0.650980 0.650980 0.650980
0.670588 0.670588 0.670588
0.694118 0.694118 0.694118
0.725490 0.725490 0.725490
0.749020 0.749020 0.749020
0.760784 0.760784 0.760784
0.698039 0.701961 0.701961
0.701961 0.701961 0.701961
0.705882 0.705882 0.705882
0.717647 0.717647 0.717647
0.729412 0.729412 0.729412
0.749020 0.749020 0.749020
0.768627 0.768627 0.772549
0.796078 0.796078 0.796078
0.819608 0.819608 0.819608
0.760784 0.760784 0.760784
0.764706 0.764706 0.764706
0.768627 0.768627 0.768627
0.772549 0.772549 0.772549
0.784314 0.784314 0.784314
0.800000 0.800000 0.800000
0.815686 0.815686 0.815686
0.835294 0.835294 0.835294
0.858824 0.858824 0.858824
0.145098 0.145098 0.145098
0.156863 0.156863 0.156863
0.184314 0.184314 0.184314
0.254902 0.254902 0.254902
0.325490 0.325490 0.325490
0.400000 0.400000 0.400000
0.470588 0.470588 0.470588
0.525490 0.525490 0.525490
0.576471 0.576471 0.576471
0.156863 0.156863 0.156863
0.164706 0.164706 0.164706
0.200000 0.200000 0.200000
0.266667 0.266667 0.266667
0.341176 0.341176 0.341176
0.415686 0.415686 0.415686
0.482353 0.482353 0.482353
0.537255 0.537255 0.537255
0.584314 0.584314 0.584314
0.231373 0.231373 0.231373
0.243137 0.243137 0.243137
0.278431 0.278431 0.278431
0.333333 0.333333 0.333333
0.396078 0.396078 0.396078
0.458824 0.458824 0.458824
0.513725 0.513725 0.513725
0.560784 0.560784 0.560784
0.603922 0.603922 0.603922
0.356863 0.356863 0.356863
0.364706 0.364706 0.368627
0.388235 0.388235 0.388235
0.427451 0.427451 0.427451
0.470588 0.470588 0.470588
0.517647 0.517647 0.517647
0.560784 0.560784 0.560784
0.600000 0.600000 0.600000
0.635294 0.635294 0.635294
0.478431 0.478431 0.478431
0.482353 0.482353 0.482353
0.498039 0.498039 0.498039
0.521569 0.521569 0.521569
0.556863 0.556863 0.556863
0.592157 0.592157 0.592157
0.619608 0.619608 0.619608
0.647059 0.647059 0.647059
0.678431 0.678431 0.678431
0.572549 0.572549 0.572549
0.576471 0.576471 0.576471
0.588235 0.588235 0.588235
0.603922 0.603922 0.603922
0.627451 0.627451 0.627451
0.658824 0.658824 0.658824
0.686275 0.686275 0.686275
0.705882 0.705882 0.705882
0.725490 0.725490 0.725490
0.650980 0.650980 0.650980
0.654902 0.654902 0.654902
0.662745 0.662745 0.662745
0.674510 0.674510 0.674510
0.690196 0.690196 0.690196
0.713725 0.713725 0.713725
0.741176 0.741176 0.741176
0.764706 0.764706 0.764706
0.776471 0.776471 0.776471
0.721569 0.721569 0.721569
0.721569 0.721569 0.721569
0.725490 0.729412 0.729412
0.737255 0.737255 0.737255
0.749020 0.749020 0.749020
0.764706 0.764706 0.764706
0.788235 0.788235 0.788235
0.811765 0.811765 0.811765
0.831373 0.831373 0.831373
0.780392 0.780392 0.780392
0.780392 0.780392 0.780392
0.784314 0.784314 0.784314
0.792157 0.792157 0.792157
0.800000 0.800000 0.800000
0.815686 0.815686 0.815686
0.831373 0.831373 0.831373
0.850980 0.850980 0.850980
0.870588 0.870588 0.870588
0.282353 0.282353 0.282353
0.290196 0.290196 0.290196
0.309804 0.309804 0.309804
0.345098 0.345098 0.345098
0.396078 0.396078 0.396078
0.458824 0.458824 0.458824
0.513725 0.513725 0.513725
0.568627 0.568627 0.568627
0.619608 0.619608 0.619608
0.286275 0.286275 0.286275
0.294118 0.294118 0.294118
0.317647 0.317647 0.317647
0.356863 0.356863 0.356863
0.411765 0.411765 0.411765
0.474510 0.474510 0.474510
0.529412 0.529412 0.529412
0.580392 0.580392 0.580392
0.631373 0.631373 0.631373
0.333333 0.333333 0.333333
0.345098 0.345098 0.345098
0.368627 0.368627 0.368627
0.407843 0.407843 0.407843
0.458824 0.458824 0.458824
0.509804 0.509804 0.509804
0.560784 0.560784 0.560784
0.607843 0.607843 0.607843
0.650980 0.650980 0.650980
0.427451 0.427451 0.427451
0.435294 0.435294 0.435294
0.454902 0.454902 0.454902
0.482353 0.482353 0.486275
0.525490 0.525490 0.525490
0.564706 0.564706 0.564706
0.603922 0.603922 0.603922
0.643137 0.643137 0.643137
0.678431 0.678431 0.678431
0.525490 0.525490 0.525490
0.533333 0.533333 0.533333
0.545098 0.545098 0.545098
0.568627 0.568627 0.568627
0.600000 0.600000 0.600000
0.627451 0.627451 0.627451
0.658824 0.658824 0.658824
0.686275 0.686275 0.686275
0.713725 0.713725 0.713725
0.615686 0.615686 0.615686
0.619608 0.619608 0.619608
0.627451 0.627451 0.627451
0.643137 0.643137 0.643137
0.666667 0.666667 0.666667
0.690196 0.690196 0.690196
0.713725 0.717647 0.717647
0.737255 0.737255 0.737255
0.756863 0.756863 0.756863
0.690196 0.690196 0.690196
0.694118 0.694118 0.694118
0.698039 0.698039 0.698039
0.709804 0.709804 0.709804
0.725490 0.725490 0.725490
0.745098 0.745098 0.745098
0.768627 0.768627 0.768627
0.788235 0.788235 0.788235
0.803922 0.803922 0.803922
0.752941 0.752941 0.752941
0.756863 0.756863 0.756863
0.760784 0.760784 0.760784
0.768627 0.768627 0.768627
0.780392 0.780392 0.780392
0.796078 0.796078 0.796078
0.811765 0.811765 0.811765
0.835294 0.835294 0.835294
0.850980 0.850980 0.850980
0.807843 0.807843 0.807843
0.807843 0.807843 0.807843
0.811765 0.811765 0.811765
0.819608 0.819608 0.819608
0.827451 0.827451 0.827451
0.839216 0.839216 0.839216
0.854902 0.854902 0.854902
0.870588 0.870588 0.870588
0.890196 0.890196 0.890196
0.396078 0.396078 0.396078
0.400000 0.400000 0.400000
0.415686 0.415686 0.415686
0.439216 0.439216 0.439216
0.478431 0.478431 0.478431
0.529412 0.529412 0.529412
0.568627 0.568627 0.568627
0.611765 0.611765 0.611765
0.654902 0.654902 0.654902
0.396078 0.396078 0.396078
0.403922 0.403922 0.403922
0.419608 0.419608 0.419608
0.450980 0.450980 0.450980
0.494118 0.494118 0.494118
0.541176 0.541176 0.541176
0.580392 0.580392 0.580392
0.623529 0.623529 0.623529
0.662745 0.662745 0.662745
0.435294 0.435294 0.435294
0.443137 0.443137 0.443137
0.458824 0.458824 0.458824
0.490196 0.490196 0.490196
0.529412 0.529412 0.529412
0.572549 0.572549 0.572549
0.607843 0.607843 0.607843
0.647059 0.647059 0.647059
0.690196 0.690196 0.690196
0.505882 0.505882 0.505882
0.509804 0.509804 0.509804
0.525490 0.525490 0.525490
0.552941 0.552941 0.552941
0.584314 0.584314 0.584314
0.619608 0.619608 0.619608
0.654902 0.654902 0.654902
0.690196 0.690196 0.690196
0.729412 0.729412 0.729412
0.588235 0.588235 0.588235
0.592157 0.592157 0.592157
0.603922 0.603922 0.603922
0.623529 0.623529 0.623529
0.650980 0.650980 0.650980
0.678431 0.678431 0.678431
0.705882 0.705882 0.705882
0.733333 0.733333 0.733333
0.760784 0.760784 0.760784
0.658824 0.658824 0.658824
0.662745 0.662745 0.662745
0.674510 0.674510 0.674510
0.690196 0.690196 0.690196
0.709804 0.709804 0.709804
0.733333 0.733333 0.733333
0.752941 0.752941 0.752941
0.776471 0.776471 0.776471
0.796078 0.796078 0.796078
0.729412 0.729412 0.729412
0.733333 0.733333 0.733333
0.741176 0.741176 0.741176
0.752941 0.752941 0.752941
0.764706 0.764706 0.764706
0.780392 0.780392 0.780392
0.800000 0.800000 0.800000
0.819608 0.819608 0.819608
0.835294 0.835294 0.835294
0.792157 0.792157 0.792157
0.792157 0.792157 0.792157
0.796078 0.796078 0.796078
0.803922 0.803922 0.803922
0.811765 0.811765 0.811765
0.827451 0.827451 0.827451
0.843137 0.843137 0.843137
0.858824 0.858824 0.858824
0.874510 0.874510 0.874510
0.839216 0.839216 0.839216
0.843137 0.843137 0.843137
0.843137 0.843137 0.843137
0.850980 0.850980 0.850980
0.854902 0.858824 0.858824
0.866667 0.866667 0.866667
0.878431 0.878431 0.878431
0.894118 0.894118 0.894118
0.909804 0.909804 0.909804
0.478431 0.478431 0.478431
0.482353 0.482353 0.482353
0.494118 0.494118 0.494118
0.513725 0.513725 0.513725
0.545098 0.545098 0.545098
0.588235 0.588235 0.588235
0.635294 0.635294 0.635294
0.662745 0.662745 0.662745
0.694118 0.694118 0.694118
0.482353 0.482353 0.482353
0.486275 0.486275 0.486275
0.498039 0.498039 0.498039
0.521569 0.521569 0.521569
0.556863 0.556863 0.556863
0.600000 0.600000 0.600000
0.643137 0.643137 0.643137
0.674510 0.674510 0.674510
0.705882 0.705882 0.705882
0.517647 0.517647 0.517647
0.521569 0.521569 0.521569
0.533333 0.533333 0.533333
0.556863 0.556863 0.556863
0.588235 0.588235 0.588235
0.627451 0.627451 0.627451
0.666667 0.666667 0.666667
0.694118 0.694118 0.694118
0.725490 0.725490 0.725490
0.572549 0.572549 0.572549
0.576471 0.576471 0.576471
0.592157 0.592157 0.592157
0.611765 0.611765 0.611765
0.639216 0.639216 0.639216
0.670588 0.670588 0.670588
0.701961 0.701961 0.701961
0.729412 0.729412 0.729412
0.760784 0.760784 0.760784
0.635294 0.635294 0.635294
0.643137 0.643137 0.643137
0.654902 0.654902 0.654902
0.674510 0.674510 0.674510
0.698039 0.698039 0.698039
0.721569 0.721569 0.721569
0.745098 0.745098 0.745098
0.772549 0.772549 0.772549
0.796078 0.796078 0.800000
0.709804 0.709804 0.709804
0.713725 0.713725 0.713725
0.721569 0.721569 0.721569
0.733333 0.733333 0.733333
0.749020 0.749020 0.752941
0.772549 0.772549 0.772549
0.792157 0.792157 0.792157
0.811765 0.811765 0.811765
0.831373 0.831373 0.835294
0.764706 0.768627 0.768627
0.768627 0.768627 0.768627
0.776471 0.776471 0.776471
0.784314 0.788235 0.788235
0.800000 0.800000 0.800000
0.815686 0.815686 0.815686
0.835294 0.835294 0.835294
0.850980 0.850980 0.850980
0.866667 0.866667 0.866667
0.819608 0.819608 0.819608
0.819608 0.823529 0.823529
0.827451 0.827451 0.827451
0.835294 0.835294 0.835294
0.847059 0.847059 0.847059
0.858824 0.858824 0.858824
0.870588 0.870588 0.870588
0.886275 0.886275 0.886275
0.901961 0.901961 0.901961
0.870588 0.870588 0.870588
0.870588 0.870588 0.870588
0.874510 0.874510 0.874510
0.882353 0.882353 0.882353
0.886275 0.886275 0.886275
0.894118 0.894118 0.894118
0.905882 0.905882 0.905882
0.921569 0.921569 0.921569
0.933333 0.933333 0.937255
0.545098 0.545098 0.545098
0.549020 0.549020 0.549020
0.556863 0.556863 0.556863
0.572549 0.572549 0.572549
0.600000 0.600000 0.600000
0.635294 0.635294 0.635294
0.674510 0.674510 0.674510
0.721569 0.721569 0.721569
0.745098 0.745098 0.745098
0.549020 0.549020 0.549020
0.552941 0.552941 0.552941
0.564706 0.564706 0.564706
0.584314 0.584314 0.584314
0.611765 0.611765 0.611765
0.647059 0.647059 0.647059
0.686275 0.686275 0.686275
0.729412 0.729412 0.729412
0.749020 0.749020 0.749020
0.584314 0.584314 0.584314
0.588235 0.588235 0.588235
0.596078 0.596078 0.596078
0.615686 0.615686 0.615686
0.639216 0.639216 0.639216
0.670588 0.670588 0.670588
0.705882 0.705882 0.705882
0.745098 0.745098 0.745098
0.768627 0.768627 0.768627
0.635294 0.635294 0.635294
0.639216 0.639216 0.639216
0.647059 0.647059 0.647059
0.662745 0.662745 0.662745
0.682353 0.682353 0.686275
0.709804 0.709804 0.709804
0.741176 0.741176 0.741176
0.776471 0.776471 0.776471
0.796078 0.796078 0.796078
0.686275 0.686275 0.686275
0.694118 0.694118 0.694118
0.705882 0.705882 0.705882
0.721569 0.721569 0.721569
0.741176 0.741176 0.741176
0.760784 0.760784 0.760784
0.784314 0.784314 0.784314
0.807843 0.807843 0.807843
0.827451 0.827451 0.827451
0.749020 0.749020 0.749020
0.749020 0.749020 0.749020
0.756863 0.756863 0.756863
0.772549 0.772549 0.772549
0.788235 0.788235 0.788235
0.807843 0.807843 0.807843
0.823529 0.823529 0.827451
0.843137 0.843137 0.843137
0.862745 0.862745 0.862745
0.803922 0.803922 0.803922
0.807843 0.807843 0.807843
0.811765 0.811765 0.811765
0.823529 0.823529 0.823529
0.835294 0.835294 0.835294
0.847059 0.847059 0.847059
0.862745 0.866667 0.866667
0.882353 0.882353 0.882353
0.898039 0.898039 0.898039
0.850980 0.850980 0.850980
0.854902 0.854902 0.854902
0.858824 0.858824 0.858824
0.866667 0.866667 0.866667
0.874510 0.874510 0.874510
0.886275 0.886275 0.886275
0.901961 0.901961 0.901961
0.913725 0.913725 0.913725
0.929412 0.929412 0.929412
0.894118 0.894118 0.894118
0.894118 0.894118 0.894118
0.898039 0.898039 0.898039
0.905882 0.905882 0.905882
0.913725 0.913725 0.913725
0.925490 0.925490 0.925490
0.933333 0.933333 0.933333
0.945098 0.945098 0.945098
0.956863 0.960784 0.960784
0.600000 0.600000 0.600000
0.603922 0.603922 0.603922
0.607843 0.607843 0.607843
0.623529 0.623529 0.623529
0.647059 0.647059 0.647059
0.674510 0.674510 0.674510
0.709804 0.709804 0.709804
0.749020 0.749020 0.749020
0.792157 0.792157 0.792157
0.607843 0.607843 0.607843
0.611765 0.611765 0.611765
0.619608 0.619608 0.619608
0.635294 0.635294 0.635294
0.658824 0.658824 0.658824
0.686275 0.686275 0.686275
0.721569 0.721569 0.721569
0.756863 0.756863 0.756863
0.796078 0.796078 0.796078
0.639216 0.639216 0.639216
0.643137 0.643137 0.643137
0.650980 0.650980 0.650980
0.662745 0.662745 0.662745
0.682353 0.686275 0.686275
0.709804 0.709804 0.709804
0.741176 0.741176 0.741176
0.776471 0.776471 0.776471
0.811765 0.811765 0.811765
0.686275 0.686275 0.686275
0.690196 0.690196 0.690196
0.698039 0.698039 0.698039
0.709804 0.709804 0.709804
0.725490 0.725490 0.725490
0.749020 0.749020 0.749020
0.776471 0.776471 0.776471
0.803922 0.803922 0.803922
0.835294 0.835294 0.835294
0.737255 0.737255 0.737255
0.741176 0.741176 0.741176
0.752941 0.752941 0.752941
0.764706 0.764706 0.764706
0.776471 0.776471 0.776471
0.796078 0.796078 0.796078
0.815686 0.815686 0.815686
0.839216 0.839216 0.839216
0.862745 0.862745 0.862745
0.784314 0.784314 0.784314
0.788235 0.788235 0.788235
0.796078 0.796078 0.796078
0.807843 0.807843 0.807843
0.823529 0.823529 0.823529
0.839216 0.839216 0.839216
0.854902 0.854902 0.854902
0.874510 0.874510 0.874510
0.894118 0.894118 0.894118
0.835294 0.835294 0.835294
0.835294 0.835294 0.835294
0.843137 0.843137 0.843137
0.850980 0.850980 0.850980
0.862745 0.862745 0.862745
0.878431 0.878431 0.878431
0.894118 0.894118 0.894118
0.905882 0.905882 0.909804
0.921569 0.921569 0.921569
0.882353 0.882353 0.882353
0.882353 0.882353 0.882353
0.886275 0.886275 0.886275
0.894118 0.894118 0.894118
0.901961 0.901961 0.901961
0.913725 0.913725 0.913725
0.925490 0.925490 0.925490
0.937255 0.937255 0.937255
0.952941 0.952941 0.952941
0.921569 0.921569 0.921569
0.921569 0.921569 0.921569
0.925490 0.925490 0.925490
0.929412 0.929412 0.929412
0.937255 0.937255 0.937255
0.949020 0.949020 0.949020
0.956863 0.956863 0.956863
0.968627 0.968627 0.968627
0.980392 0.980392 0.980392
0.647059 0.647059 0.647059
0.647059 0.647059 0.647059
0.654902 0.654902 0.654902
0.666667 0.666667 0.666667
0.686275 0.686275 0.686275
0.713725 0.713725 0.713725
0.741176 0.741176 0.741176
0.776471 0.776471 0.776471
0.811765 0.811765 0.811765
0.654902 0.654902 0.654902
0.658824 0.658824 0.658824
0.666667 0.666667 0.666667
0.678431 0.678431 0.678431
0.698039 0.698039 0.698039
0.721569 0.721569 0.721569
0.752941 0.752941 0.752941
0.784314 0.784314 0.784314
0.819608 0.819608 0.819608
0.686275 0.686275 0.686275
0.686275 0.686275 0.686275
0.694118 0.694118 0.694118
0.705882 0.705882 0.705882
0.721569 0.721569 0.721569
0.745098 0.745098 0.745098
0.772549 0.772549 0.772549
0.803922 0.803922 0.803922
0.835294 0.835294 0.835294
0.729412 0.729412 0.729412
0.733333 0.733333 0.733333
0.737255 0.737255 0.737255
0.749020 0.749020 0.749020
0.764706 0.764706 0.764706
0.784314 0.784314 0.784314
0.803922 0.803922 0.803922
0.831373 0.831373 0.831373
0.858824 0.858824 0.858824
0.784314 0.784314 0.784314
0.788235 0.788235 0.788235
0.792157 0.792157 0.792157
0.800000 0.800000 0.800000
0.811765 0.811765 0.811765
0.827451 0.827451 0.827451
0.843137 0.843137 0.843137
0.862745 0.862745 0.862745
0.886275 0.886275 0.886275
0.823529 0.823529 0.823529
0.827451 0.827451 0.827451
0.831373 0.831373 0.831373
0.843137 0.843137 0.843137
0.854902 0.854902 0.854902
0.866667 0.866667 0.866667
0.882353 0.882353 0.882353
0.898039 0.898039 0.898039
0.917647 0.917647 0.917647
0.862745 0.862745 0.866667
0.866667 0.866667 0.866667
0.870588 0.870588 0.870588
0.878431 0.878431 0.878431
0.890196 0.890196 0.890196
0.905882 0.905882 0.905882
0.917647 0.917647 0.917647
0.933333 0.933333 0.933333
0.949020 0.949020 0.949020
0.905882 0.905882 0.905882
0.909804 0.909804 0.909804
0.913725 0.913725 0.913725
0.917647 0.917647 0.917647
0.925490 0.925490 0.925490
0.937255 0.937255 0.937255
0.949020 0.949020 0.949020
0.960784 0.960784 0.960784
0.976471 0.976471 0.976471
0.949020 0.949020 0.949020
0.949020 0.949020 0.949020
0.952941 0.952941 0.952941
0.956863 0.956863 0.956863
0.964706 0.964706 0.964706
0.972549 0.972549 0.972549
0.980392 0.980392 0.980392
0.992157 0.992157 0.992157
1.000000 1.000000 1.000000
