lut/baf1e2a0-bee4-4fa1-b910-7642a64e848d.cube
TITLE "Punchy Monochrome"
LUT_3D_SIZE 5
0.000000 0.000000 0.000000
0.062745 0.062745 0.062745
0.286275 0.286275 0.286275
0.443137 0.443137 0.443137
0.541176 0.541176 0.541176
0.160784 0.160784 0.160784
0.211765 0.211765 0.211765
0.356863 0.356863 0.356863
0.478431 0.478431 0.478431
0.568627 0.568627 0.568627
0.431373 0.431373 0.431373
0.454902 0.454902 0.454902
0.521569 0.521569 0.521569
0.588235 0.588235 0.588235
0.643137 0.643137 0.643137
0.619608 0.619608 0.619608
0.631373 0.631373 0.631373
0.662745 0.662745 0.662745
0.717647 0.717647 0.717647
0.756863 0.756863 0.756863
0.752941 0.752941 0.752941
0.760784 0.760784 0.760784
0.776471 0.776471 0.776471
0.807843 0.807843 0.807843
0.850980 0.854902 0.854902
0.145098 0.145098 0.145098
0.184314 0.184314 0.184314
0.325490 0.325490 0.325490
0.470588 0.470588 0.470588
0.576471 0.576471 0.576471
0.231373 0.231373 0.231373
0.278431 0.278431 0.278431
0.396078 0.396078 0.396078
0.513725 0.513725 0.513725
0.603922 0.603922 0.603922
0.478431 0.478431 0.478431
0.498039 0.498039 0.498039
0.556863 0.556863 0.556863
0.619608 0.619608 0.619608
0.678431 0.678431 0.678431
0.650980 0.650980 0.650980
0.662745 0.662745 0.662745
0.690196 0.690196 0.690196
0.741176 0.741176 0.741176
0.776471 0.776471 0.776471
0.780392 0.780392 0.780392
0.784314 0.784314 0.784314
0.800000 0.800000 0.800000
0.831373 0.831373 0.831373
0.870588 0.870588 0.870588
0.396078 0.396078 0.396078
0.415686 0.415686 0.415686
0.478431 0.478431 0.478431
0.568627 0.568627 0.568627
0.654902 0.654902 0.654902
0.435294 0.435294 0.435294
0.458824 0.458824 0.458824
0.529412 0.529412 0.529412
0.607843 0.607843 0.607843
0.690196 0.690196 0.690196
0.588235 0.588235 0.588235
0.603922 0.603922 0.603922
0.650980 0.650980 0.650980
0.705882 0.705882 0.705882
0.760784 0.760784 0.760784
0.729412 0.729412 0.729412
0.741176 0.741176 0.741176
0.764706 0.764706 0.764706
0.800000 0.800000 0.800000
0.835294 0.835294 0.835294
0.839216 0.839216 0.839216
0.843137 0.843137 0.843137
0.854902 0.858824 0.858824
0.878431 0.878431 0.878431
0.909804 0.909804 0.909804
0.545098 0.545098 0.545098
0.556863 0.556863 0.556863
0.600000 0.600000 0.600000
0.674510 0.674510 0.674510
0.745098 0.745098 0.745098
0.584314 0.584314 0.584314
0.596078 0.596078 0.596078
0.639216 0.639216 0.639216
0.705882 0.705882 0.705882
0.768627 0.768627 0.768627
0.686275 0.686275 0.686275
0.705882 0.705882 0.705882
0.741176 0.741176 0.741176
0.784314 0.784314 0.784314
0.827451 0.827451 0.827451
0.803922 0.803922 0.803922
0.811765 0.811765 0.811765
0.835294 0.835294 0.835294
0.862745 0.866667 0.866667
0.898039 0.898039 0.898039
0.894118 0.894118 0.894118
0.898039 0.898039 0.898039
0.913725 0.913725 0.913725
0.933333 0.933333 0.933333
0.956863 0.960784 0.960784
0.647059 0.647059 0.647059
0.654902 0.654902 0.654902
0.686275 0.686275 0.686275
0.741176 0.741176 0.741176
0.811765 0.811765 0.811765
0.686275 0.686275 0.686275
0.694118 0.694118 0.694118
0.721569 0.721569 0.721569
0.772549 0.772549 0.772549
0.835294 0.835294 0.835294
0.784314 0.784314 0.784314
0.792157 0.792157 0.792157
0.811765 0.811765 0.811765
0.843137 0.843137 0.843137
0.886275 0.886275 0.886275
0.862745 0.862745 0.866667
0.870588 0.870588 0.870588
0.890196 0.890196 0.890196
0.917647 0.917647 0.917647
0.949020 0.949020 0.949020
0.949020 0.949020 0.949020
0.952941 0.952941 0.952941
0.964706 0.964706 0.964706
0.980392 0.980392 0.980392
1.000000 1.000000 1.000000
