lut/d3a14ab5-922d-4422-9e56-0d2bee7c6e47.cube
TITLE "Gritty Warmth"
LUT_3D_SIZE 16
-0.068685 -0.061467 -0.054586
0.020260 -0.061395 -0.054500
0.113921 -0.061182 -0.054247
0.188967 -0.060696 -0.053668
0.260584 -0.059875 -0.052694
0.330576 -0.058650 -0.051221
0.399685 -0.056942 -0.049140
0.468240 -0.054640 -0.046275
0.536488 -0.051582 -0.042332
0.604429 -0.047521 -0.036763
0.671251 -0.042077 -0.028239
0.736945 -0.034296 0.000739
0.801163 -0.020567 0.009553
0.864165 0.019623 0.014289
0.925182 0.031288 0.018238
0.984596 0.039804 0.021796
-0.068529 0.015384 -0.054371
0.020975 0.015671 -0.054280
0.113986 -0.030134 -0.054082
0.189009 -0.027897 -0.053500
0.260602 -0.023354 -0.052509
0.330577 -0.015271 -0.051027
0.399727 0.011775 -0.048933
0.468255 0.020393 -0.046048
0.536506 0.027005 -0.042069
0.604436 0.032922 -0.036442
0.671258 0.038362 -0.027769
0.736968 0.043515 0.001750
0.801171 0.048453 0.009733
0.864173 0.053239 0.014419
0.925191 0.057853 0.018341
0.984605 0.062308 0.021882
-0.068058 0.090949 -0.053708
-0.032976 0.090972 -0.053645
0.114264 0.091083 -0.053364
0.189135 0.092118 -0.052764
0.260696 0.093915 -0.051736
0.330657 0.095600 -0.050203
0.399730 0.097262 -0.048039
0.468268 0.098963 -0.045057
0.536497 0.100792 -0.040934
0.604463 0.102723 -0.035020
0.671289 0.104602 -0.025617
0.737068 0.106472 0.003915
0.801203 0.108295 0.010475
0.864208 0.110130 0.014955
0.925229 0.111902 0.018782
0.984539 0.113630 0.022261
-0.066973 0.154820 -0.052191
-0.028704 0.154828 -0.052121
0.115793 0.154906 -0.051827
0.189409 0.155033 -0.051219
0.260872 0.157130 -0.050101
0.330783 0.159007 -0.048466
0.399860 0.160655 -0.046153
0.468397 0.162251 -0.042951
0.536608 0.163824 -0.038468
0.604528 0.165402 -0.031851
0.671301 0.166734 -0.020206
0.737131 0.167916 0.006530
0.801232 0.168907 0.011853
0.864207 0.169787 0.016000
0.925307 0.170463 0.019655
0.984625 0.171004 0.023009
-0.065118 0.217056 -0.049514
-0.018123 0.217065 -0.049432
0.118362 0.217097 -0.049105
0.192113 0.217188 -0.048431
0.261171 0.217310 -0.047327
0.331000 0.219501 -0.045478
0.400016 0.221432 -0.042887
0.468519 0.223187 -0.039244
0.536727 0.224828 -0.033988
0.604621 0.226442 -0.025589
0.671499 0.227652 0.002578
0.737094 0.228619 0.009455
0.801338 0.229249 0.013817
0.864260 0.229664 0.017573
0.925362 0.229784 0.020983
0.984544 0.229626 0.024173
-0.062272 0.278776 -0.045208
0.019842 0.278754 -0.045114
0.120994 0.278804 -0.044737
0.194559 0.278853 -0.043951
0.263893 0.278947 -0.042649
0.331300 0.279084 -0.040704
0.400238 0.281309 -0.037537
0.468688 0.283300 -0.032934
0.536914 0.285145 -0.025648
0.604763 0.286924 -0.004829
0.671557 0.288158 0.008326
0.737324 0.289018 0.012623
0.801462 0.289460 0.016265
0.864422 0.289579 0.019614
0.925444 0.289312 0.022753
0.984728 0.288677 0.025745
-0.058125 0.340389 -0.038283
0.032693 0.340393 -0.038171
0.123770 0.340413 -0.037684
0.196914 0.340442 -0.036660
0.266356 0.340522 -0.034934
0.334013 0.340622 -0.032258
0.400576 0.340774 -0.028146
0.468934 0.343073 -0.020146
0.537082 0.345176 0.003933
0.604925 0.347120 0.008969
0.671645 0.348479 0.012681
0.737485 0.349304 0.015999
0.801514 0.349650 0.019095
0.864526 0.349501 0.022077
0.925553 0.348904 0.024938
0.984735 0.347857 0.027712
-0.052104 0.402183 -0.025338
0.042896 0.402130 -0.025131
0.126796 0.402203 -0.024226
0.199257 0.402209 -0.022218
0.268682 0.402262 -0.018350
0.336502 0.402316 -0.008808
0.403275 0.402452 0.004872
0.469232 0.402554 0.008008
0.537335 0.404987 0.011116
0.605130 0.407138 0.014040
0.671888 0.408550 0.016829
0.737463 0.409404 0.019560
0.801679 0.409577 0.022236
0.864682 0.409315 0.024889
0.925659 0.408479 0.027493
0.984843 0.407126 0.030046
-0.042924 0.464115 0.008142
0.052236 0.464121 0.008225
0.130120 0.464146 0.008551
0.201722 0.464197 0.009193
0.271014 0.464252 0.010138
0.338949 0.464315 0.011376
0.405839 0.464422 0.012852
0.472054 0.464519 0.014537
0.537627 0.464650 0.016395
0.605390 0.467044 0.018657
0.672044 0.468640 0.020960
0.737677 0.469516 0.023291
0.801818 0.469655 0.025634
0.864731 0.469223 0.028012
0.925789 0.468154 0.030369
0.985025 0.466371 0.032714
-0.025472 0.526342 0.015592
0.061166 0.526349 0.015641
0.133724 0.526295 0.015836
0.204314 0.526357 0.016229
0.273340 0.526401 0.016841
0.341268 0.526442 0.017680
0.408252 0.526513 0.018746
0.474645 0.526612 0.020022
0.540460 0.526702 0.021493
0.605699 0.526895 0.023143
0.672379 0.528548 0.025124
0.738025 0.529536 0.027172
0.802134 0.529601 0.029256
0.864936 0.529081 0.031392
0.925948 0.527762 0.033535
0.985137 0.525698 0.035679
0.030882 0.587849 0.021553
0.069718 0.587851 0.021590
0.137443 0.587862 0.021737
0.206752 0.587883 0.022046
0.275326 0.587938 0.022525
0.343091 0.587995 0.023196
0.410147 0.588060 0.024060
0.476506 0.588133 0.025118
0.542318 0.588243 0.026360
0.607716 0.588361 0.027781
0.672569 0.588499 0.029363
0.738078 0.589480 0.031191
0.802249 0.589536 0.033067
0.865170 0.588886 0.034999
0.926179 0.587360 0.036948
0.985360 0.584973 0.038900
0.048518 0.648771 0.027012
0.078024 0.648773 0.027043
0.141256 0.648785 0.027166
0.209105 0.648809 0.027422
0.277078 0.648803 0.027828
0.344514 0.648890 0.028395
0.411433 0.648963 0.029135
0.477747 0.648973 0.030037
0.543571 0.649080 0.031123
0.608943 0.649232 0.032375
0.673863 0.649309 0.033785
0.738501 0.649452 0.035352
0.802545 0.649516 0.037059
0.865399 0.648749 0.038808
0.926411 0.647016 0.040589
0.985579 0.644336 0.042374
0.061698 0.708582 0.032186
0.086065 0.708591 0.032211
0.145146 0.708629 0.032324
0.211321 0.708558 0.032541
0.278525 0.708638 0.032898
0.345580 0.708627 0.033395
0.412219 0.708713 0.034036
0.478303 0.708817 0.034841
0.543987 0.708800 0.035805
0.609330 0.708920 0.036923
0.674142 0.709139 0.038201
0.738656 0.709162 0.039626
0.802929 0.709309 0.041187
0.865695 0.708426 0.042796
0.926614 0.706490 0.044425
0.985665 0.703538 0.046038
0.073071 0.767377 0.037222
0.093979 0.767380 0.037241
0.149135 0.767393 0.037339
0.213509 0.767418 0.037536
0.279803 0.767449 0.037850
0.346261 0.767508 0.038293
0.412539 0.767585 0.038871
0.478371 0.767654 0.039593
0.543891 0.767763 0.040457
0.608970 0.767906 0.041475
0.673630 0.767927 0.042631
0.738092 0.767866 0.043938
0.802164 0.768076 0.045378
0.865997 0.768291 0.046959
0.926820 0.766081 0.048439
0.985978 0.762902 0.049921
0.083303 0.824612 0.042106
0.101613 0.824615 0.042122
0.153118 0.824629 0.042209
0.215576 0.824656 0.042380
0.280834 0.824699 0.042669
0.346611 0.824762 0.043067
0.412386 0.824807 0.043591
0.477859 0.824864 0.044245
0.542996 0.824932 0.045042
0.607843 0.825083 0.045959
0.672252 0.825175 0.047021
0.736483 0.825182 0.048223
0.800231 0.825242 0.049558
0.863958 0.825405 0.051025
0.927189 0.825634 0.052622
0.986183 0.822075 0.053963
0.092767 0.880377 0.046874
0.109037 0.880381 0.046889
0.157087 0.880395 0.046967
0.217539 0.880424 0.047133
0.281577 0.880471 0.047382
0.346587 0.880474 0.047746
0.411758 0.880561 0.048228
0.476714 0.880551 0.048822
0.541464 0.880686 0.049549
0.605866 0.880764 0.050395
0.669904 0.880810 0.051383
0.733725 0.881027 0.052489
0.797196 0.880990 0.053719
0.860656 0.881105 0.055083
0.923507 0.881266 0.056579
0.986617 0.881361 0.058197
-0.068677 -0.061453 0.004634
0.020314 -0.061382 0.004782
0.113924 -0.061170 -0.026993
0.188966 -0.060686 -0.024617
0.260586 -0.059863 -0.019608
0.330577 -0.058638 -0.007380
0.399688 -0.056931 0.005601
0.468241 -0.054624 0.008877
0.536490 -0.051568 0.011799
0.604430 -0.047504 0.014612
0.671251 -0.042055 0.017327
0.736947 -0.034270 0.020002
0.801164 -0.020511 0.022632
0.864165 0.019660 0.025253
0.925183 0.031311 0.027825
0.984597 0.039809 0.030354
-0.068518 0.015438 0.005009
0.021021 0.015725 0.005150
0.114013 0.016514 0.005550
0.189034 0.018146 0.006372
0.260615 0.020545 0.007573
0.330581 0.023547 0.009075
0.399740 0.027003 0.010825
0.468259 0.030801 0.012764
0.536511 0.034875 0.014875
0.604437 0.039152 0.017128
0.671260 0.043535 0.019473
0.736974 0.047988 0.021893
0.801173 0.052455 0.024363
0.864175 0.056937 0.026866
0.925194 0.061364 0.029378
0.984608 0.065725 0.031885
-0.068044 0.090937 -0.025522
0.022972 0.090994 0.006135
0.114277 0.091090 0.006485
0.189154 0.094265 0.007271
0.260705 0.096305 0.008393
0.330697 0.097934 0.009807
0.399742 0.099473 0.011471
0.468273 0.101054 0.013341
0.536502 0.102725 0.015392
0.604464 0.104526 0.017596
0.671291 0.106314 0.019899
0.737074 0.108111 0.022281
0.801205 0.109909 0.024717
0.864210 0.111730 0.027196
0.925233 0.113545 0.029681
0.984541 0.115341 0.032164
-0.066966 0.154824 -0.019597
0.026747 0.154840 0.007971
0.118330 0.154905 0.008272
0.189415 0.155039 0.008859
0.260879 0.157919 0.009879
0.330786 0.159989 0.011162
0.399871 0.161680 0.012696
0.468401 0.163249 0.014451
0.536613 0.164796 0.016400
0.604529 0.166315 0.018511
0.671303 0.167658 0.020730
0.737137 0.168843 0.023046
0.801234 0.169824 0.025422
0.864209 0.170724 0.027850
0.925311 0.171445 0.030282
0.984627 0.172018 0.032720
-0.065105 0.217063 0.003758
0.031884 0.217064 0.010419
0.121194 0.217111 0.010667
0.192997 0.217200 0.011165
0.261174 0.217304 0.011927
0.331002 0.219901 0.013089
0.400026 0.221942 0.014480
0.468523 0.223749 0.016093
0.536732 0.225418 0.017910
0.604623 0.227029 0.019901
0.671500 0.228237 0.022016
0.737100 0.229196 0.024232
0.801340 0.229842 0.026514
0.864262 0.230257 0.028856
0.925364 0.230397 0.031223
0.984547 0.230299 0.033600
-0.062262 0.278745 0.009109
0.037908 0.278760 0.013294
0.123738 0.278810 0.013508
0.195693 0.278858 0.013929
0.264341 0.278951 0.014582
0.331294 0.279087 0.015467
0.400245 0.281518 0.016731
0.468692 0.283597 0.018211
0.536918 0.285509 0.019889
0.604764 0.287281 0.021749
0.671559 0.288530 0.023733
0.737329 0.289405 0.025835
0.801464 0.289846 0.028006
0.864424 0.289979 0.030255
0.925447 0.289720 0.032526
0.984731 0.289104 0.034816
-0.058113 0.340390 0.013435
0.044522 0.340396 0.016499
0.126344 0.340416 0.016681
0.198055 0.340445 0.017042
0.266941 0.340523 0.017607
0.334254 0.340624 0.018387
0.400580 0.340775 0.019378
0.468937 0.343210 0.020726
0.537086 0.345328 0.022281
0.604926 0.347346 0.024009
0.671647 0.348740 0.025869
0.737490 0.349562 0.027839
0.801516 0.349898 0.029893
0.864488 0.349795 0.032020
0.925555 0.349222 0.034189
0.984738 0.348204 0.036379
-0.052091 0.402186 0.017595
0.051554 0.402137 0.019974
0.129158 0.402171 0.020133
0.200422 0.402216 0.020450
0.269322 0.402269 0.020945
0.336868 0.402321 0.021629
0.403390 0.402457 0.022518
0.469234 0.402557 0.023590
0.537337 0.404992 0.025027
0.605131 0.407241 0.026637
0.671889 0.408750 0.028370
0.737468 0.409573 0.030216
0.801680 0.409852 0.032140
0.864684 0.409555 0.034149
0.925661 0.408735 0.036195
0.984846 0.407427 0.038265
-0.042904 0.464117 0.021776
0.058897 0.464124 0.023688
0.132292 0.464149 0.023825
0.202880 0.464199 0.024106
0.271678 0.464254 0.024546
0.339301 0.464318 0.025158
0.406075 0.464424 0.025955
0.472149 0.464521 0.026926
0.537628 0.464651 0.028077
0.605391 0.467086 0.029585
0.672045 0.468705 0.031203
0.737681 0.469617 0.032926
0.801819 0.469815 0.034726
0.864732 0.469415 0.036607
0.925791 0.468338 0.038536
0.985028 0.466576 0.040494
-0.025432 0.526343 0.026032
0.066463 0.526351 0.027607
0.135733 0.526298 0.027732
0.205392 0.526360 0.027976
0.273978 0.526403 0.028378
0.341644 0.526444 0.028926
0.408534 0.526515 0.029645
0.474818 0.526614 0.030532
0.540455 0.526703 0.031589
0.605700 0.526897 0.032812
0.672380 0.528618 0.034325
0.738029 0.529581 0.035936
0.802135 0.529714 0.037617
0.864937 0.529200 0.039377
0.925950 0.527900 0.041180
0.985139 0.525811 0.043009
0.030906 0.587849 0.030311
0.074110 0.587852 0.031661
0.139303 0.587863 0.031773
0.207760 0.587884 0.031996
0.275960 0.587939 0.032355
0.343474 0.587996 0.032852
0.410430 0.588060 0.033508
0.476682 0.588134 0.034320
0.542425 0.588244 0.035288
0.607820 0.588362 0.036416
0.672570 0.588499 0.037702
0.738080 0.589513 0.039207
0.802250 0.589593 0.040772
0.865171 0.588935 0.042421
0.926181 0.587457 0.044103
0.985362 0.585108 0.045809
0.048538 0.648771 0.034632
0.081807 0.648775 0.035827
0.143044 0.648786 0.035933
0.210111 0.648811 0.036132
0.277689 0.648805 0.036456
0.344970 0.648891 0.036917
0.411649 0.648964 0.037511
0.477935 0.648973 0.038259
0.543737 0.649081 0.039152
0.609041 0.649233 0.040192
0.673952 0.649309 0.041389
0.738503 0.649453 0.042730
0.802546 0.649551 0.044193
0.865400 0.648774 0.045724
0.926413 0.647061 0.047296
0.985581 0.644417 0.048882
0.061704 0.708584 0.038966
0.089441 0.708594 0.040059
0.146868 0.708632 0.040153
0.212343 0.708562 0.040335
0.279178 0.708641 0.040632
0.346010 0.708630 0.041054
0.412491 0.708717 0.041605
0.478539 0.708821 0.042285
0.544214 0.708803 0.043109
0.609422 0.708923 0.044085
0.674160 0.709142 0.045187
0.738717 0.709056 0.046441
0.802930 0.709310 0.047831
0.865696 0.708535 0.049259
0.926616 0.706555 0.050712
0.985666 0.703571 0.052193
0.073081 0.767377 0.043336
0.097092 0.767381 0.044365
0.150820 0.767393 0.044438
0.214526 0.767419 0.044617
0.280459 0.767450 0.044888
0.346722 0.767509 0.045273
0.412841 0.767587 0.045781
0.478634 0.767655 0.046413
0.544051 0.767764 0.047178
0.609072 0.767907 0.048072
0.673781 0.767911 0.049107
0.738088 0.767867 0.050282
0.802124 0.768077 0.051584
0.865997 0.768292 0.053014
0.926822 0.766116 0.054364
0.985984 0.762861 0.055724
0.083322 0.824613 0.047675
0.104547 0.824617 0.048657
0.154808 0.824630 0.048735
0.216621 0.824657 0.048897
0.281520 0.824701 0.049145
0.347135 0.824763 0.049504
0.412729 0.824808 0.049975
0.478114 0.824865 0.050561
0.543188 0.824933 0.051272
0.607987 0.825084 0.052108
0.672395 0.825176 0.053069
0.736477 0.825183 0.054172
0.800315 0.825243 0.055381
0.863916 0.825406 0.056735
0.927190 0.825635 0.058200
0.986184 0.822111 0.059458
0.092764 0.880378 0.051971
0.111892 0.880382 0.052949
0.158818 0.880396 0.053017
0.218611 0.880425 0.053166
0.282308 0.880472 0.053401
0.347132 0.880475 0.053726
0.412168 0.880562 0.054177
0.477034 0.880553 0.054716
0.541672 0.880687 0.055372
0.606053 0.880765 0.056149
0.670111 0.880812 0.057055
0.733880 0.881029 0.058077
0.797291 0.880991 0.059223
0.860745 0.881106 0.060497
0.923560 0.881267 0.061888
0.986618 0.881362 0.063394
-0.068641 -0.061411 0.039985
-0.034542 -0.061358 0.040000
0.113960 -0.061126 0.040078
0.188987 -0.060639 0.040673
0.260595 -0.059813 0.041671
0.330577 -0.058587 0.042658
0.399702 -0.056877 0.043659
0.468246 -0.054566 0.044719
0.536496 -0.051502 0.045878
0.604432 -0.047431 0.047140
0.671253 -0.041970 0.048404
0.736955 -0.034154 0.049699
0.801166 -0.020274 0.050994
0.864168 0.019815 0.052325
0.925186 0.031397 0.053658
0.984600 0.039878 0.054972
-0.068522 -0.030748 0.040032
0.021178 0.015882 0.040073
0.114022 0.016662 0.040147
0.189027 0.018293 0.041841
0.260624 0.020680 0.042982
0.330585 0.023657 0.043947
0.399753 0.027102 0.044883
0.468242 0.030890 0.045876
0.536472 0.034953 0.046957
0.604439 0.039217 0.048144
0.671263 0.043592 0.049363
0.736982 0.048036 0.050618
0.801175 0.052503 0.051900
0.864178 0.056985 0.053229
0.925197 0.061405 0.054573
0.984611 0.065761 0.055926
-0.068010 0.090974 0.040242
0.023114 0.090998 0.040267
0.114289 0.091109 0.040338
0.189155 0.091354 0.040500
0.260701 0.091750 0.040792
0.330657 0.092338 0.041182
0.399782 0.093120 0.041730
0.468267 0.094107 0.042414
0.536495 0.095288 0.043246
0.604461 0.096720 0.044229
0.671287 0.098364 0.045360
0.737061 0.100187 0.046624
0.801201 0.102187 0.048002
0.864206 0.104332 0.049497
0.925227 0.106604 0.051067
0.984537 0.108950 0.052719
-0.066923 0.154829 0.041089
0.026870 0.154857 0.042210
0.114855 0.154906 0.040771
0.189434 0.155041 0.040939
0.260880 0.156463 0.041232
0.330785 0.157651 0.041632
0.399861 0.158769 0.042168
0.468396 0.159911 0.042857
0.536606 0.161089 0.043687
0.604527 0.162341 0.044672
0.671299 0.163526 0.045796
0.737125 0.164614 0.047059
0.801230 0.165619 0.048425
0.864205 0.166620 0.049906
0.925305 0.167519 0.051459
0.984623 0.168365 0.053088
-0.065064 0.217066 0.042506
0.031986 0.217058 0.043757
0.115802 0.217119 0.041488
0.191321 0.217170 0.041649
0.261174 0.217324 0.041921
0.331002 0.218999 0.042334
0.400020 0.220475 0.042879
0.468520 0.221883 0.043558
0.536726 0.223265 0.044390
0.604621 0.224613 0.045365
0.671497 0.225681 0.046489
0.737088 0.226558 0.047731
0.801336 0.227155 0.049084
0.864258 0.227608 0.050541
0.925360 0.227829 0.052077
0.984543 0.227858 0.053693
-0.062214 0.278754 0.044081
0.037996 0.278784 0.045289
0.117159 0.278812 0.042498
0.193007 0.278861 0.042666
0.263317 0.278957 0.042933
0.331297 0.279096 0.043317
0.400247 0.280910 0.043856
0.468690 0.282606 0.044545
0.536914 0.284216 0.045369
0.604763 0.285714 0.046344
0.671556 0.286864 0.047450
0.737319 0.287622 0.048667
0.801461 0.288014 0.050009
0.864420 0.288153 0.051443
0.925444 0.287940 0.052951
0.984727 0.287378 0.054533
-0.058059 0.340394 0.045835
0.044590 0.340400 0.046979
0.118949 0.340416 0.043838
0.194759 0.340446 0.044001
0.265288 0.340525 0.044269
0.333573 0.340626 0.044643
0.400555 0.340778 0.045144
0.468937 0.342741 0.045819
0.537084 0.344613 0.046652
0.604925 0.346355 0.047613
0.671645 0.347564 0.048702
0.737482 0.348261 0.049911
0.801513 0.348518 0.051209
0.864525 0.348469 0.052620
0.925552 0.347893 0.054098
0.984734 0.346872 0.055634
-0.052028 0.402131 0.047840
0.051615 0.402153 0.048898
0.121194 0.402172 0.045508
0.196596 0.402217 0.045676
0.267222 0.402271 0.045938
0.335753 0.402327 0.046305
0.402960 0.402465 0.046791
0.469238 0.402590 0.047396
0.537338 0.404687 0.048222
0.605131 0.406664 0.049177
0.671888 0.407957 0.050250
0.737461 0.408759 0.051421
0.801678 0.408844 0.052702
0.864681 0.408486 0.054073
0.925658 0.407783 0.055516
0.984842 0.406405 0.056998
-0.042820 0.464121 0.050094
0.058947 0.464129 0.051078
0.123895 0.464149 0.047523
0.198667 0.464200 0.047678
0.269228 0.464254 0.047934
0.337848 0.464319 0.048297
0.405258 0.464426 0.048767
0.471763 0.464524 0.049361
0.537633 0.464655 0.050086
0.605392 0.466862 0.051036
0.672045 0.468255 0.052077
0.737677 0.469053 0.053237
0.801817 0.469123 0.054478
0.864730 0.468700 0.055811
0.925789 0.467583 0.057200
0.985025 0.465825 0.058643
-0.025259 0.526349 0.052632
0.066512 0.526357 0.053529
0.127060 0.526298 0.049856
0.200913 0.526360 0.050012
0.271272 0.526404 0.050254
0.339913 0.526445 0.050614
0.407455 0.526517 0.051068
0.474173 0.526617 0.051657
0.540204 0.526707 0.052347
0.605701 0.526902 0.053179
0.672381 0.528464 0.054218
0.738027 0.529254 0.055334
0.802134 0.529241 0.056541
0.864936 0.528692 0.057830
0.925948 0.527413 0.059164
0.985137 0.525291 0.060553
0.031027 0.587851 0.055321
0.074157 0.587854 0.056145
0.130605 0.587863 0.052466
0.203122 0.587884 0.052617
0.273076 0.587939 0.052856
0.341615 0.587996 0.053201
0.409182 0.588061 0.053648
0.475839 0.588134 0.054215
0.541982 0.588245 0.054891
0.607574 0.588363 0.055691
0.672572 0.588501 0.056622
0.738082 0.589330 0.057707
0.802250 0.589314 0.058883
0.865171 0.588603 0.060110
0.926180 0.587054 0.061398
0.985360 0.584664 0.062725
0.048607 0.648773 0.058151
0.081847 0.648777 0.058940
0.134501 0.648786 0.055325
0.205398 0.648810 0.055479
0.274731 0.648804 0.055711
0.342958 0.648891 0.056040
0.410321 0.648964 0.056471
0.477001 0.648974 0.057012
0.543106 0.649081 0.057670
0.608639 0.649234 0.058453
0.673805 0.649311 0.059337
0.738509 0.649455 0.060363
0.802547 0.649385 0.061479
0.865400 0.648596 0.062671
0.926412 0.646754 0.063903
0.985580 0.644064 0.065158
0.061754 0.708591 0.061102
0.089505 0.708602 0.061860
0.138684 0.708632 0.058398
0.207694 0.708561 0.058548
0.276192 0.708641 0.058769
0.343972 0.708630 0.059084
0.411031 0.708717 0.059492
0.477498 0.708822 0.060016
0.543520 0.708805 0.060647
0.608899 0.708925 0.061387
0.673938 0.709145 0.062250
0.738628 0.709061 0.063232
0.802932 0.709317 0.064329
0.865697 0.708452 0.065468
0.926616 0.706285 0.066637
0.985666 0.703392 0.067830
0.073127 0.767380 0.064176
0.097095 0.767383 0.064929
0.143107 0.767393 0.061670
0.210022 0.767419 0.061797
0.277498 0.767450 0.062010
0.344698 0.767509 0.062308
0.411400 0.767587 0.062714
0.477526 0.767655 0.063196
0.543241 0.767764 0.063806
0.608515 0.767907 0.064523
0.673361 0.767913 0.065355
0.737965 0.767868 0.066289
0.802039 0.768079 0.067342
0.866000 0.768294 0.068524
0.926823 0.765992 0.069632
0.985985 0.762872 0.070747
0.083349 0.824615 0.067305
0.104577 0.824619 0.068061
0.147680 0.824630 0.065046
0.212351 0.824657 0.065172
0.278671 0.824701 0.065372
0.345133 0.824763 0.065661
0.411241 0.824809 0.066037
0.477061 0.824865 0.066512
0.542407 0.824934 0.067089
0.607343 0.825085 0.067772
0.671877 0.825106 0.068552
0.736245 0.825184 0.069465
0.800099 0.825245 0.070472
0.863814 0.825408 0.071591
0.927192 0.825600 0.072826
0.986185 0.821984 0.073876
0.092801 0.880381 0.070477
0.111902 0.880385 0.071248
0.152380 0.880396 0.068521
0.214649 0.880425 0.068634
0.279649 0.880472 0.068833
0.345220 0.880475 0.069105
0.410720 0.880562 0.069465
0.475951 0.880553 0.069920
0.540840 0.880688 0.070466
0.605423 0.880765 0.071112
0.669555 0.880813 0.071864
0.733546 0.881030 0.072728
0.797154 0.880992 0.073684
0.860523 0.881108 0.074760
0.923591 0.881269 0.075933
0.986620 0.881364 0.077213
-0.068555 -0.061319 0.076195
-0.033426 -0.061264 0.076204
0.114959 -0.061026 0.076256
0.189012 -0.060545 0.076356
0.260604 -0.059716 0.077693
0.330578 -0.058483 0.078885
0.399729 -0.056767 0.079984
0.468256 -0.054448 0.081074
0.536507 -0.051371 0.082175
0.604436 -0.047285 0.083293
0.671258 -0.041793 0.084299
0.736970 -0.033917 0.085231
0.801171 -0.019777 0.086062
0.864174 0.020114 0.086838
0.925192 0.031565 0.087525
0.984606 0.040018 0.088127
-0.068433 -0.029676 0.076222
0.021521 0.016216 0.076253
0.117598 0.017035 0.076296
0.189037 0.018574 0.076393
0.260632 0.020934 0.078204
0.330592 0.023883 0.079529
0.399728 0.027297 0.080656
0.468252 0.031064 0.081739
0.536498 0.035102 0.082808
0.604443 0.039352 0.083907
0.671267 0.043715 0.084906
0.736997 0.048149 0.085820
0.801180 0.052596 0.086654
0.864183 0.057072 0.087443
0.925202 0.061493 0.088144
0.984617 0.065839 0.088782
-0.067915 0.091821 0.076347
0.023553 0.093978 0.076371
0.114326 0.091164 0.076405
0.189190 0.091416 0.076507
0.260719 0.091806 0.077415
0.330702 0.092382 0.078212
0.399727 0.093157 0.078985
0.468277 0.094137 0.079791
0.536507 0.095351 0.080642
0.604465 0.096774 0.081572
0.671292 0.098404 0.082464
0.737076 0.100229 0.083330
0.801206 0.102227 0.084172
0.864212 0.104384 0.085021
0.925235 0.106638 0.085836
0.984543 0.108998 0.086618
-0.066843 0.154872 0.076608
0.027119 0.154880 0.076625
0.114906 0.154931 0.076668
0.189469 0.155068 0.076765
0.260880 0.155284 0.076944
0.330788 0.155563 0.077180
0.399866 0.155976 0.077502
0.468396 0.156494 0.077929
0.536604 0.157112 0.078450
0.604525 0.157900 0.079070
0.671297 0.158766 0.079789
0.737119 0.159748 0.080592
0.801228 0.160861 0.081488
0.864203 0.162083 0.082486
0.925304 0.163367 0.083527
0.984623 0.164747 0.084650
-0.064974 0.217068 0.078203
0.032200 0.217062 0.078686
0.115848 0.217115 0.077847
0.189928 0.217211 0.077202
0.261192 0.217325 0.077365
0.331007 0.218238 0.077617
0.399992 0.219099 0.077949
0.468521 0.220019 0.078369
0.536726 0.220977 0.078882
0.604620 0.221955 0.079514
0.671496 0.222817 0.080240
0.737083 0.223542 0.081046
0.801334 0.224181 0.081932
0.864257 0.224737 0.082905
0.925359 0.225168 0.083958
0.984542 0.225525 0.085055
-0.062120 0.278788 0.079766
0.038170 0.278803 0.080381
0.117197 0.278832 0.079002
0.190586 0.278876 0.077829
0.262431 0.278986 0.077999
0.331320 0.279101 0.078231
0.400213 0.280396 0.078569
0.468693 0.281610 0.078992
0.536916 0.282842 0.079524
0.604762 0.284053 0.080148
0.671555 0.284931 0.080857
0.737315 0.285606 0.081664
0.801460 0.285960 0.082552
0.864419 0.286151 0.083523
0.925442 0.286079 0.084566
0.984727 0.285706 0.085646
-0.057953 0.340401 0.081353
0.044743 0.340407 0.081985
0.118997 0.340424 0.080272
0.191497 0.340438 0.078665
0.263700 0.340531 0.078831
0.332959 0.340632 0.079076
0.400543 0.340776 0.079391
0.468943 0.342326 0.079816
0.537088 0.343868 0.080345
0.604926 0.345293 0.080981
0.671644 0.346257 0.081680
0.737480 0.346863 0.082489
0.801512 0.347125 0.083354
0.864524 0.346991 0.084312
0.925551 0.346525 0.085341
0.984734 0.345677 0.086429
