lut/d3a14ab5-922d-4422-9e56-0d2bee7c6e47.cube
TITLE "Gritty Warmth"
LUT_3D_SIZE 6
-0.068685 -0.061467 -0.054586
0.188967 -0.060696 -0.053668
0.399685 -0.056942 -0.049140
0.604429 -0.047521 -0.036763
0.801163 -0.020567 0.009553
0.984596 0.039804 0.021796
-0.066973 0.154820 -0.052191
0.189409 0.155033 -0.051219
0.399860 0.160655 -0.046153
0.604528 0.165402 -0.031851
0.801232 0.168907 0.011853
0.984625 0.171004 0.023009
-0.058125 0.340389 -0.038283
0.196914 0.340442 -0.036660
0.400576 0.340774 -0.028146
0.604925 0.347120 0.008969
0.801514 0.349650 0.019095
0.984735 0.347857 0.027712
-0.025472 0.526342 0.015592
0.204314 0.526357 0.016229
0.408252 0.526513 0.018746
0.605699 0.526895 0.023143
0.802134 0.529601 0.029256
0.985137 0.525698 0.035679
0.061698 0.708582 0.032186
0.211321 0.708558 0.032541
0.412219 0.708713 0.034036
0.609330 0.708920 0.036923
0.802929 0.709309 0.041187
0.985665 0.703538 0.046038
0.092767 0.880377 0.046874
0.217539 0.880424 0.047133
0.411758 0.880561 0.048228
0.605866 0.880764 0.050395
0.797196 0.880990 0.053719
0.986617 0.881361 0.058197
-0.068555 -0.061319 0.076195
0.189012 -0.060545 0.076356
0.399729 -0.056767 0.079984
0.604436 -0.047285 0.083293
0.801171 -0.019777 0.086062
0.984606 0.040018 0.088127
-0.066843 0.154872 0.076608
0.189469 0.155068 0.076765
0.399866 0.155976 0.077502
0.604525 0.157900 0.079070
0.801228 0.160861 0.081488
0.984623 0.164747 0.084650
-0.057953 0.340401 0.081353
0.191497 0.340438 0.078665
0.400543 0.340776 0.079391
0.604926 0.345293 0.080981
0.801512 0.347125 0.083354
0.984734 0.345677 0.086429
-0.024902 0.526360 0.086873
0.195799 0.526290 0.082567
0.406249 0.526524 0.083286
0.605705 0.526871 0.084726
0.802136 0.528785 0.087061
0.985138 0.524680 0.089931
0.061857 0.708606 0.092986
0.202426 0.708567 0.088486
0.409486 0.708724 0.089170
0.608378 0.708935 0.090542
0.802936 0.709260 0.092716
0.985669 0.703161 0.095324
0.092848 0.880386 0.099286
0.210727 0.880428 0.095919
0.409362 0.880565 0.096554
0.604838 0.880769 0.097816
0.796833 0.880996 0.099789
0.986626 0.881369 0.102556
-0.067964 -0.060624 0.205756
0.194666 -0.059787 0.205831
0.399742 -0.056001 0.206194
0.604464 -0.046250 0.211294
0.801206 -0.015746 0.213518
0.984541 0.040905 0.212524
-0.066114 0.159793 0.205972
0.189620 0.155241 0.206033
0.399888 0.156129 0.206347
0.604560 0.158038 0.210045
0.801262 0.161027 0.211741
0.984665 0.164887 0.210995
-0.057213 0.340445 0.206826
0.191648 0.340520 0.206898
0.400581 0.340809 0.207193
0.604942 0.341512 0.207903
0.801529 0.342575 0.209006
0.984772 0.344003 0.210499
-0.022208 0.526360 0.212982
0.195940 0.526393 0.211617
0.402083 0.526590 0.208994
0.605733 0.526954 0.209714
0.802159 0.527223 0.210816
0.985174 0.524023 0.212226
0.062562 0.708562 0.216901
0.202539 0.708627 0.215053
0.404423 0.708808 0.211860
0.606687 0.708954 0.212548
0.802930 0.709361 0.213637
0.985707 0.702861 0.214967
0.093286 0.880425 0.218189
0.210906 0.880467 0.216591
0.407501 0.880530 0.215606
0.604013 0.880711 0.216291
0.796594 0.881009 0.217307
0.986677 0.881407 0.218824
-0.066680 -0.059108 0.362909
0.198388 -0.058206 0.362921
0.406188 -0.054103 0.363214
0.604533 -0.044054 0.363597
0.801238 0.008164 0.366298
0.984632 0.042657 0.362920
-0.064700 0.163095 0.363039
0.189951 0.155600 0.363065
0.404259 0.156540 0.363274
0.604619 0.158414 0.363750
0.801333 0.161357 0.365614
0.984541 0.165229 0.362188
-0.055070 0.346240 0.363587
0.192063 0.344512 0.363630
0.400699 0.340952 0.363779
0.604984 0.341638 0.364279
0.801599 0.342687 0.364707
0.984742 0.344146 0.362047
-0.014475 0.526431 0.364680
0.196286 0.526463 0.364744
0.402177 0.526627 0.364981
0.605787 0.526991 0.365490
0.802116 0.527605 0.366161
0.985197 0.528367 0.367127
0.063955 0.708610 0.368467
0.202873 0.708573 0.367751
0.404521 0.708828 0.366552
0.607026 0.709060 0.367271
0.802871 0.709368 0.367993
0.985824 0.704657 0.368872
0.094133 0.880504 0.366705
0.211168 0.880484 0.365877
0.407594 0.880561 0.365450
0.608767 0.880758 0.369707
0.798430 0.881028 0.370426
0.986548 0.881489 0.371428
-0.064558 -0.056575 0.537893
0.199771 -0.055605 0.537937
0.407983 -0.051159 0.538091
0.606976 -0.039894 0.538428
0.801350 0.018658 0.538907
0.984559 0.045283 0.533368
-0.062462 0.164420 0.537997
0.190452 0.156213 0.538029
0.405272 0.157131 0.538167
0.606107 0.159025 0.538477
0.801445 0.161949 0.539026
0.984683 0.165771 0.533022
-0.052115 0.347895 0.538407
0.192609 0.345491 0.538442
0.400856 0.341154 0.538555
0.604777 0.341837 0.538919
0.801625 0.342942 0.539433
0.984791 0.344317 0.533120
0.018245 0.528671 0.539290
0.196817 0.527804 0.539287
0.402396 0.526485 0.539421
0.605867 0.527092 0.539783
0.802229 0.527714 0.540311
0.985126 0.528497 0.535646
0.066114 0.708731 0.540618
0.203314 0.708666 0.540622
0.404714 0.708791 0.540822
0.607171 0.709101 0.541151
0.802984 0.709443 0.541692
0.985816 0.710008 0.542380
0.095456 0.880567 0.536095
0.211617 0.880540 0.535774
0.407816 0.880687 0.535633
0.608841 0.880885 0.537721
0.804136 0.881115 0.543526
0.986600 0.881477 0.544203
-0.061556 -0.052916 0.718135
0.198558 -0.051874 0.718128
0.404623 -0.047031 0.718298
0.601954 -0.034066 0.718423
0.794678 0.025410 0.718936
0.984615 0.048746 0.719436
-0.059360 0.163535 0.718194
0.191194 0.157023 0.718241
0.402376 0.157903 0.718300
0.600966 0.159726 0.718583
0.794281 0.162584 0.718926
0.984729 0.166527 0.719516
-0.048308 0.344981 0.718428
0.193231 0.342883 0.718445
0.401081 0.341475 0.718515
0.600511 0.342104 0.718883
0.794240 0.343163 0.719186
0.984919 0.344613 0.719832
0.026780 0.524054 0.719089
0.197376 0.523187 0.719141
0.402555 0.522604 0.719170
0.606002 0.527281 0.719515
0.796507 0.527877 0.720019
0.985326 0.528624 0.720600
0.067774 0.702495 0.720159
0.203708 0.702110 0.720138
0.404798 0.701987 0.720308
0.607244 0.703999 0.720667
0.803003 0.709594 0.721051
0.985844 0.710082 0.721642
0.097314 0.880627 0.721669
0.212244 0.880669 0.721685
0.408022 0.880690 0.721773
0.608969 0.880939 0.722069
0.804121 0.881206 0.722487
0.986644 0.881651 0.722987
