lut/d899cde2-b368-45a9-a9da-e1d463090de3.cube
TITLE "Washed Out Rain"
LUT_3D_SIZE 5
0.000000 0.003922 0.000000
0.043137 0.003922 0.000000
0.215686 0.007843 0.000000
0.450980 0.015686 0.000000
0.917647 0.000000 0.039216
0.000000 0.054902 0.000000
0.043137 0.050980 0.000000
0.239216 0.011765 0.003922
0.490196 0.003922 0.011765
0.878431 0.000000 0.058824
0.011765 0.290196 0.000000
0.054902 0.235294 0.000000
0.294118 0.196078 0.000000
0.498039 0.250980 0.000000
0.925490 0.286275 0.054902
0.000000 0.533333 0.000000
0.039216 0.560784 0.000000
0.352941 0.576471 0.054902
0.643137 0.517647 0.000000
0.952941 0.549020 0.047059
0.074510 0.949020 0.000000
0.000000 0.984314 0.000000
0.352941 0.968627 0.000000
0.729412 0.984314 0.027451
1.000000 0.941176 0.000000
0.027451 0.000000 0.109804
0.078431 0.000000 0.098039
0.247059 0.000000 0.098039
0.501961 0.019608 0.039216
0.921569 0.000000 0.066667
0.000000 0.058824 0.000000
0.047059 0.066667 0.043137
0.235294 0.015686 0.027451
0.490196 0.000000 0.000000
0.854902 0.000000 0.066667
0.000000 0.290196 0.000000
0.058824 0.247059 0.019608
0.313725 0.184314 0.000000
0.525490 0.250980 0.000000
0.937255 0.301961 0.047059
0.000000 0.572549 0.000000
0.090196 0.533333 0.000000
0.364706 0.552941 0.000000
0.690196 0.498039 0.000000
0.933333 0.513725 0.066667
0.062745 0.949020 0.000000
0.000000 0.976471 0.000000
0.313725 0.964706 0.000000
0.745098 0.960784 0.023529
1.000000 0.941176 0.000000
0.011765 0.007843 0.321569
0.031373 0.000000 0.321569
0.274510 0.003922 0.329412
0.427451 0.031373 0.337255
0.964706 0.000000 0.321569
0.003922 0.062745 0.231373
0.000000 0.043137 0.266667
0.250980 0.011765 0.282353
0.513725 0.007843 0.333333
0.968627 0.000000 0.356863
0.000000 0.211765 0.211765
0.019608 0.231373 0.278431
0.250980 0.211765 0.254902
0.568627 0.172549 0.227451
0.929412 0.152941 0.203922
0.035294 0.592157 0.058824
0.000000 0.596078 0.082353
0.145098 0.600000 0.078431
0.662745 0.509804 0.000000
1.000000 0.537255 0.011765
0.031373 0.968627 0.000000
0.000000 1.000000 0.007843
0.105882 0.952941 0.000000
0.725490 0.988235 0.000000
1.000000 0.925490 0.000000
0.007843 0.000000 0.631373
0.027451 0.007843 0.643137
0.349020 0.031373 0.635294
0.678431 0.007843 0.627451
1.000000 0.000000 0.729412
0.000000 0.074510 0.666667
0.043137 0.000000 0.666667
0.419608 0.000000 0.725490
0.658824 0.000000 0.623529
0.988235 0.000000 0.725490
0.000000 0.278431 0.584314
0.000000 0.262745 0.686275
0.098039 0.200000 0.631373
0.619608 0.027451 0.627451
0.960784 0.035294 0.560784
0.039216 0.580392 0.580392
0.035294 0.588235 0.698039
0.011765 0.568627 0.615686
0.607843 0.537255 0.623529
1.000000 0.447059 0.564706
0.023529 0.984314 0.345098
0.000000 1.000000 0.388235
0.000000 0.976471 0.117647
0.345098 0.980392 0.023529
1.000000 0.929412 0.000000
0.000000 0.027451 0.992157
0.066667 0.027451 1.000000
0.443137 0.011765 0.980392
0.752941 0.000000 0.984314
0.972549 0.000000 1.000000
0.015686 0.086275 0.949020
0.031373 0.000000 0.960784
0.435294 0.000000 1.000000
0.698039 0.003922 1.000000
1.000000 0.000000 1.000000
0.015686 0.200000 0.960784
0.000000 0.145098 1.000000
0.113725 0.039216 0.976471
0.639216 0.019608 0.980392
1.000000 0.003922 1.000000
0.000000 0.560784 0.976471
0.003922 0.635294 0.992157
0.011765 0.545098 0.968627
0.384314 0.494118 0.988235
0.964706 0.450980 1.000000
0.019608 1.000000 0.949020
0.043137 0.972549 0.996078
0.027451 1.000000 1.000000
0.101961 0.972549 0.992157
1.000000 0.980392 1.000000
