lut/d899cde2-b368-45a9-a9da-e1d463090de3.cube
TITLE "Washed Out Rain"
LUT_3D_SIZE 25
0.000000 0.003922 0.000000
0.000000 0.007843 0.000000
0.000000 0.015686 0.000000
0.000000 0.015686 0.000000
0.000000 0.011765 0.000000
0.019608 0.011765 0.000000
0.043137 0.003922 0.000000
0.066667 0.000000 0.000000
0.105882 0.000000 0.000000
0.125490 0.000000 0.000000
0.156863 0.003922 0.000000
0.184314 0.011765 0.000000
0.215686 0.007843 0.000000
0.247059 0.019608 0.000000
0.282353 0.031373 0.000000
0.305882 0.047059 0.000000
0.352941 0.003922 0.000000
0.392157 0.011765 0.000000
0.450980 0.015686 0.000000
0.517647 0.015686 0.000000
0.588235 0.003922 0.000000
0.654902 0.000000 0.000000
0.717647 0.007843 0.000000
0.752941 0.015686 0.000000
0.917647 0.000000 0.039216
0.000000 0.011765 0.000000
0.015686 0.000000 0.031373
0.019608 0.015686 0.000000
0.007843 0.019608 0.000000
0.019608 0.000000 0.023529
0.035294 0.000000 0.027451
0.054902 0.011765 0.000000
0.082353 0.000000 0.000000
0.109804 0.000000 0.000000
0.141176 0.007843 0.000000
0.172549 0.011765 0.000000
0.203922 0.003922 0.000000
0.235294 0.003922 0.000000
0.262745 0.007843 0.000000
0.282353 0.011765 0.000000
0.345098 0.003922 0.027451
0.380392 0.007843 0.031373
0.431373 0.015686 0.031373
0.494118 0.011765 0.023529
0.552941 0.003922 0.015686
0.623529 0.000000 0.015686
0.674510 0.007843 0.011765
0.717647 0.015686 0.027451
0.835294 0.003922 0.000000
0.894118 0.000000 0.098039
0.000000 0.039216 0.000000
0.015686 0.019608 0.035294
0.007843 0.007843 0.015686
0.000000 0.003922 0.000000
0.007843 0.003922 0.000000
0.015686 0.000000 0.007843
0.039216 0.007843 0.000000
0.050980 0.003922 0.003922
0.074510 0.003922 0.003922
0.101961 0.000000 0.000000
0.145098 0.007843 0.000000
0.184314 0.011765 0.007843
0.215686 0.019608 0.015686
0.239216 0.027451 0.019608
0.305882 0.000000 0.019608
0.321569 0.007843 0.019608
0.352941 0.015686 0.019608
0.400000 0.015686 0.011765
0.454902 0.007843 0.003922
0.529412 0.003922 0.000000
0.596078 0.007843 0.003922
0.647059 0.007843 0.011765
0.776471 0.011765 0.035294
0.839216 0.003922 0.000000
0.925490 0.000000 0.050980
0.000000 0.027451 0.000000
0.007843 0.000000 0.031373
0.027451 0.000000 0.000000
0.027451 0.000000 0.000000
0.003922 0.000000 0.000000
0.058824 0.003922 0.003922
0.070588 0.007843 0.007843
0.094118 0.011765 0.007843
0.117647 0.007843 0.003922
0.141176 0.003922 0.000000
0.168627 0.007843 0.000000
0.203922 0.015686 0.000000
0.223529 0.031373 0.015686
0.274510 0.007843 0.011765
0.294118 0.003922 0.007843
0.329412 0.000000 0.000000
0.384314 0.000000 0.003922
0.447059 0.000000 0.000000
0.501961 0.000000 0.003922
0.549020 0.007843 0.007843
0.572549 0.007843 0.007843
0.643137 0.015686 0.015686
0.717647 0.011765 0.000000
0.796078 0.000000 0.000000
0.870588 0.000000 0.007843
0.000000 0.019608 0.000000
0.011765 0.007843 0.027451
0.027451 0.003922 0.019608
0.043137 0.007843 0.000000
0.000000 0.019608 0.000000
0.000000 0.019608 0.000000
0.035294 0.023529 0.000000
0.078431 0.019608 0.000000
0.113725 0.015686 0.000000
0.152941 0.007843 0.000000
0.172549 0.000000 0.000000
0.184314 0.000000 0.000000
0.250980 0.000000 0.000000
0.270588 0.000000 0.000000
0.305882 0.000000 0.000000
0.345098 0.000000 0.000000
0.384314 0.000000 0.000000
0.427451 0.000000 0.000000
0.470588 0.007843 0.000000
0.498039 0.019608 0.007843
0.611765 0.000000 0.039216
0.662745 0.000000 0.031373
0.745098 0.003922 0.031373
0.815686 0.007843 0.023529
0.866667 0.007843 0.023529
0.035294 0.023529 0.050980
0.023529 0.027451 0.043137
0.015686 0.031373 0.043137
0.011765 0.035294 0.035294
0.027451 0.035294 0.031373
0.050980 0.035294 0.031373
0.078431 0.031373 0.039216
0.101961 0.027451 0.035294
0.152941 0.003922 0.054902
0.168627 0.003922 0.058824
0.196078 0.000000 0.047059
0.215686 0.000000 0.043137
0.243137 0.000000 0.027451
0.278431 0.000000 0.027451
0.313725 0.000000 0.043137
0.341176 0.000000 0.050980
0.419608 0.000000 0.027451
0.462745 0.000000 0.039216
0.525490 0.000000 0.050980
0.592157 0.000000 0.047059
0.666667 0.000000 0.039216
0.741176 0.000000 0.043137
0.803922 0.003922 0.050980
0.839216 0.007843 0.062745
0.929412 0.011765 0.054902
0.000000 0.054902 0.000000
0.003922 0.039216 0.027451
0.003922 0.050980 0.000000
0.000000 0.050980 0.000000
0.000000 0.035294 0.003922
0.019608 0.027451 0.015686
0.043137 0.050980 0.000000
0.062745 0.019608 0.000000
0.094118 0.027451 0.000000
0.133333 0.035294 0.015686
0.168627 0.031373 0.015686
0.207843 0.019608 0.003922
0.239216 0.011765 0.003922
0.266667 0.011765 0.000000
0.290196 0.015686 0.007843
0.333333 0.000000 0.000000
0.368627 0.000000 0.000000
0.427451 0.000000 0.011765
0.490196 0.003922 0.011765
0.560784 0.000000 0.003922
0.615686 0.000000 0.000000
0.666667 0.000000 0.000000
0.701961 0.000000 0.000000
0.811765 0.019608 0.000000
0.878431 0.000000 0.058824
0.000000 0.066667 0.000000
0.000000 0.058824 0.007843
0.000000 0.062745 0.011765
0.000000 0.074510 0.000000
0.027451 0.101961 0.023529
0.035294 0.090196 0.031373
0.074510 0.082353 0.027451
0.086275 0.078431 0.019608
0.113725 0.078431 0.019608
0.149020 0.074510 0.015686
0.192157 0.066667 0.015686
0.223529 0.058824 0.003922
0.247059 0.054902 0.000000
0.258824 0.050980 0.000000
0.364706 0.054902 0.035294
0.380392 0.066667 0.031373
0.411765 0.070588 0.031373
0.447059 0.062745 0.011765
0.494118 0.050980 0.000000
0.560784 0.035294 0.000000
0.627451 0.039216 0.000000
0.674510 0.039216 0.000000
0.721569 0.039216 0.003922
0.792157 0.039216 0.000000
0.882353 0.043137 0.035294
0.000000 0.094118 0.000000
0.000000 0.082353 0.058824
0.011765 0.094118 0.035294
0.019608 0.113725 0.011765
0.000000 0.113725 0.023529
0.011765 0.109804 0.000000
0.031373 0.113725 0.000000
0.058824 0.117647 0.000000
0.094118 0.113725 0.000000
0.121569 0.101961 0.000000
0.152941 0.101961 0.000000
0.184314 0.101961 0.000000
0.207843 0.109804 0.000000
0.270588 0.101961 0.000000
0.290196 0.101961 0.000000
0.329412 0.101961 0.000000
0.384314 0.098039 0.000000
0.439216 0.105882 0.000000
0.505882 0.113725 0.000000
0.556863 0.125490 0.000000
0.592157 0.137255 0.000000
0.678431 0.101961 0.039216
0.756863 0.117647 0.000000
0.847059 0.117647 0.000000
0.901961 0.101961 0.058824
0.000000 0.141176 0.000000
0.000000 0.121569 0.047059
0.000000 0.121569 0.039216
0.015686 0.137255 0.003922
0.000000 0.113725 0.003922
0.011765 0.113725 0.000000
0.043137 0.117647 0.007843
0.082353 0.117647 0.011765
0.133333 0.117647 0.011765
0.172549 0.109804 0.007843
0.203922 0.109804 0.007843
0.211765 0.101961 0.007843
0.231373 0.141176 0.015686
0.254902 0.141176 0.015686
0.286275 0.145098 0.011765
0.333333 0.141176 0.011765
0.388235 0.141176 0.003922
0.439216 0.149020 0.011765
0.494118 0.164706 0.023529
0.529412 0.184314 0.043137
0.639216 0.145098 0.000000
0.694118 0.149020 0.000000
0.776471 0.160784 0.000000
0.854902 0.160784 0.000000
0.901961 0.164706 0.000000
0.015686 0.156863 0.000000
0.011765 0.160784 0.000000
0.000000 0.164706 0.000000
0.000000 0.164706 0.000000
0.015686 0.164706 0.000000
0.035294 0.160784 0.000000
0.066667 0.160784 0.000000
0.086275 0.156863 0.000000
0.113725 0.184314 0.000000
0.129412 0.184314 0.000000
0.160784 0.172549 0.000000
0.188235 0.156863 0.000000
0.227451 0.141176 0.000000
0.266667 0.133333 0.000000
0.313725 0.137255 0.000000
0.349020 0.149020 0.000000
0.396078 0.203922 0.000000
0.435294 0.207843 0.000000
0.494118 0.215686 0.000000
0.564706 0.215686 0.000000
0.635294 0.207843 0.000000
0.705882 0.203922 0.000000
0.768627 0.211765 0.000000
0.803922 0.219608 0.000000
0.933333 0.192157 0.074510
0.000000 0.227451 0.000000
0.000000 0.203922 0.031373
0.000000 0.211765 0.000000
0.000000 0.207843 0.000000
0.000000 0.196078 0.003922
0.007843 0.192157 0.019608
0.031373 0.219608 0.000000
0.101961 0.200000 0.043137
0.125490 0.207843 0.047059
0.172549 0.203922 0.050980
0.207843 0.188235 0.039216
0.247059 0.168627 0.031373
0.282353 0.149020 0.011765
0.313725 0.137255 0.007843
0.337255 0.141176 0.011765
0.356863 0.219608 0.000000
0.384314 0.227451 0.000000
0.439216 0.227451 0.000000
0.501961 0.227451 0.000000
0.576471 0.227451 0.000000
0.658824 0.250980 0.000000
0.741176 0.278431 0.000000
0.784314 0.298039 0.015686
0.917647 0.270588 0.019608
0.972549 0.235294 0.121569
0.011765 0.290196 0.000000
0.027451 0.262745 0.027451
0.000000 0.243137 0.000000
0.000000 0.231373 0.000000
0.000000 0.243137 0.000000
0.000000 0.231373 0.000000
0.054902 0.235294 0.000000
0.082353 0.239216 0.000000
0.121569 0.239216 0.003922
0.172549 0.231373 0.000000
0.223529 0.219608 0.000000
0.266667 0.207843 0.000000
0.294118 0.196078 0.000000
0.305882 0.184314 0.000000
0.294118 0.180392 0.000000
0.317647 0.200000 0.000000
0.360784 0.223529 0.000000
0.415686 0.239216 0.000000
0.498039 0.250980 0.000000
0.576471 0.262745 0.000000
0.662745 0.274510 0.007843
0.713725 0.286275 0.023529
0.796078 0.294118 0.039216
0.850980 0.290196 0.000000
0.925490 0.286275 0.054902
0.000000 0.329412 0.000000
0.000000 0.298039 0.039216
0.000000 0.298039 0.000000
0.000000 0.309804 0.000000
0.000000 0.309804 0.000000
0.019608 0.254902 0.003922
0.047059 0.266667 0.011765
0.090196 0.270588 0.019608
0.133333 0.266667 0.027451
0.180392 0.258824 0.019608
0.219608 0.250980 0.015686
0.262745 0.254902 0.023529
0.286275 0.262745 0.035294
0.305882 0.250980 0.011765
0.325490 0.247059 0.007843
0.356863 0.239216 0.000000
0.407843 0.235294 0.000000
0.466667 0.239216 0.000000
0.529412 0.250980 0.007843
0.588235 0.258824 0.015686
0.611765 0.266667 0.019608
0.733333 0.305882 0.043137
0.811765 0.333333 0.000000
0.894118 0.349020 0.000000
0.925490 0.329412 0.066667
0.000000 0.360784 0.000000
0.000000 0.337255 0.023529
0.000000 0.337255 0.015686
0.000000 0.360784 0.000000
0.023529 0.309804 0.039216
0.035294 0.309804 0.035294
0.066667 0.305882 0.035294
0.105882 0.305882 0.035294
0.152941 0.305882 0.043137
0.196078 0.309804 0.047059
0.231373 0.313725 0.050980
0.254902 0.313725 0.050980
0.298039 0.301961 0.027451
0.317647 0.301961 0.023529
0.360784 0.294118 0.019608
0.396078 0.278431 0.003922
0.450980 0.258824 0.000000
0.509804 0.254902 0.000000
0.560784 0.266667 0.000000
0.600000 0.274510 0.007843
0.650980 0.368627 0.000000
0.705882 0.380392 0.000000
0.796078 0.392157 0.000000
0.886275 0.415686 0.000000
0.941176 0.423529 0.000000
0.015686 0.364706 0.043137
0.003922 0.372549 0.035294
0.000000 0.376471 0.035294
0.000000 0.380392 0.027451
0.007843 0.380392 0.027451
0.027451 0.376471 0.023529
0.058824 0.372549 0.031373
0.078431 0.368627 0.027451
0.149020 0.349020 0.000000
0.176471 0.352941 0.000000
0.219608 0.356863 0.000000
0.274510 0.349020 0.000000
0.325490 0.337255 0.000000
0.380392 0.333333 0.000000
0.435294 0.337255 0.007843
0.466667 0.345098 0.019608
0.372549 0.313725 0.000000
0.419608 0.329412 0.000000
0.490196 0.345098 0.000000
0.572549 0.356863 0.000000
0.662745 0.368627 0.003922
0.745098 0.380392 0.015686
0.819608 0.396078 0.039216
0.862745 0.411765 0.054902
0.929412 0.400000 0.047059
0.000000 0.439216 0.000000
0.000000 0.419608 0.011765
0.000000 0.431373 0.000000
0.000000 0.431373 0.000000
0.000000 0.415686 0.000000
0.011765 0.407843 0.000000
0.043137 0.439216 0.000000
0.094118 0.407843 0.000000
0.129412 0.411765 0.000000
0.192157 0.423529 0.000000
0.254902 0.423529 0.011765
0.313725 0.411765 0.011765
0.376471 0.407843 0.019608
0.427451 0.411765 0.031373
0.462745 0.411765 0.035294
0.450980 0.384314 0.031373
0.478431 0.380392 0.027451
0.513725 0.368627 0.011765
0.572549 0.356863 0.000000
0.639216 0.352941 0.000000
0.709804 0.360784 0.000000
0.784314 0.380392 0.019608
0.827451 0.400000 0.035294
0.921569 0.458824 0.000000
0.976471 0.435294 0.078431
0.027451 0.505882 0.000000
0.058824 0.498039 0.011765
0.027451 0.494118 0.000000
0.000000 0.494118 0.000000
0.000000 0.509804 0.000000
0.000000 0.498039 0.000000
0.054902 0.482353 0.000000
0.086275 0.486275 0.000000
0.133333 0.490196 0.000000
0.200000 0.490196 0.000000
0.270588 0.486275 0.015686
0.329412 0.482353 0.015686
0.380392 0.478431 0.019608
0.400000 0.474510 0.019608
0.498039 0.474510 0.027451
0.513725 0.474510 0.023529
0.533333 0.474510 0.015686
0.556863 0.458824 0.000000
0.592157 0.435294 0.000000
0.650980 0.415686 0.000000
0.713725 0.403922 0.000000
0.749020 0.400000 0.000000
0.811765 0.478431 0.023529
0.874510 0.474510 0.000000
0.945098 0.482353 0.050980
0.000000 0.533333 0.000000
0.000000 0.517647 0.050980
0.000000 0.529412 0.023529
0.000000 0.549020 0.000000
0.000000 0.552941 0.003922
0.011765 0.556863 0.000000
0.039216 0.560784 0.000000
0.086275 0.564706 0.003922
0.137255 0.556863 0.007843
0.196078 0.552941 0.007843
0.254902 0.556863 0.015686
0.317647 0.568627 0.035294
0.352941 0.576471 0.054902
0.454902 0.564706 0.031373
0.470588 0.556863 0.027451
0.505882 0.545098 0.015686
0.545098 0.537255 0.007843
0.596078 0.525490 0.000000
0.643137 0.517647 0.000000
0.682353 0.517647 0.000000
0.701961 0.513725 0.000000
0.776471 0.486275 0.000000
0.847059 0.513725 0.000000
0.913725 0.529412 0.000000
0.952941 0.549020 0.047059
0.027451 0.615686 0.000000
0.007843 0.623529 0.062745
0.000000 0.639216 0.054902
0.000000 0.658824 0.015686
0.035294 0.631373 0.000000
0.047059 0.631373 0.000000
0.074510 0.627451 0.000000
0.109804 0.623529 0.000000
0.156863 0.619608 0.000000
0.203922 0.619608 0.000000
0.243137 0.627451 0.000000
0.262745 0.635294 0.000000
0.356863 0.635294 0.000000
0.392157 0.635294 0.000000
0.450980 0.639216 0.007843
0.513725 0.631373 0.003922
0.576471 0.619608 0.003922
0.643137 0.619608 0.007843
0.705882 0.623529 0.015686
0.745098 0.631373 0.027451
0.752941 0.541176 0.011765
0.800000 0.541176 0.000000
0.878431 0.541176 0.000000
0.945098 0.545098 0.000000
0.992157 0.541176 0.000000
0.000000 0.709804 0.011765
0.000000 0.717647 0.011765
0.000000 0.717647 0.000000
0.000000 0.721569 0.000000
0.000000 0.721569 0.000000
0.000000 0.721569 0.000000
0.003922 0.717647 0.000000
0.027451 0.713725 0.003922
0.176471 0.678431 0.000000
0.219608 0.686275 0.000000
0.274510 0.701961 0.000000
0.337255 0.705882 0.015686
0.392157 0.698039 0.015686
0.447059 0.690196 0.019608
0.490196 0.694118 0.027451
0.517647 0.698039 0.035294
0.654902 0.686275 0.054902
0.682353 0.682353 0.054902
0.729412 0.674510 0.043137
0.780392 0.654902 0.023529
0.831373 0.627451 0.000000
0.878431 0.603922 0.000000
0.925490 0.596078 0.000000
0.956863 0.596078 0.000000
0.913725 0.713725 0.050980
0.000000 0.760784 0.000000
0.000000 0.752941 0.035294
0.007843 0.776471 0.015686
0.000000 0.776471 0.000000
0.000000 0.764706 0.027451
0.015686 0.752941 0.039216
0.043137 0.772549 0.007843
0.058824 0.760784 0.000000
0.094118 0.772549 0.000000
0.152941 0.788235 0.000000
0.219608 0.788235 0.000000
0.290196 0.784314 0.007843
0.352941 0.784314 0.019608
0.407843 0.788235 0.023529
0.443137 0.796078 0.039216
0.580392 0.760784 0.039216
0.619608 0.768627 0.050980
0.678431 0.780392 0.054902
0.737255 0.776471 0.050980
0.792157 0.760784 0.031373
0.847059 0.745098 0.019608
0.886275 0.737255 0.011765
0.913725 0.737255 0.003922
0.847059 0.721569 0.000000
0.917647 0.709804 0.050980
0.000000 0.803922 0.000000
0.043137 0.819608 0.031373
0.035294 0.831373 0.031373
0.003922 0.847059 0.003922
0.011765 0.870588 0.023529
0.003922 0.854902 0.027451
0.000000 0.847059 0.000000
0.003922 0.847059 0.000000
0.054902 0.839216 0.003922
0.117647 0.839216 0.015686
0.184314 0.843137 0.023529
0.262745 0.847059 0.047059
0.313725 0.850980 0.050980
0.341176 0.854902 0.062745
0.592157 0.819608 0.003922
0.611765 0.831373 0.011765
0.650980 0.847059 0.019608
0.701961 0.854902 0.019608
0.764706 0.858824 0.011765
0.843137 0.854902 0.011765
0.917647 0.862745 0.027451
0.968627 0.866667 0.039216
0.866667 0.815686 0.031373
0.921569 0.815686 0.000000
1.000000 0.819608 0.058824
0.050980 0.874510 0.000000
0.062745 0.866667 0.070588
0.070588 0.882353 0.043137
0.062745 0.905882 0.019608
0.023529 0.909804 0.031373
0.000000 0.921569 0.019608
0.000000 0.921569 0.019608
0.003922 0.909804 0.015686
0.047059 0.898039 0.007843
0.098039 0.882353 0.007843
0.160784 0.890196 0.015686
0.223529 0.905882 0.039216
0.262745 0.921569 0.058824
0.466667 0.874510 0.000000
0.498039 0.882353 0.000000
0.549020 0.894118 0.000000
0.619608 0.909804 0.000000
0.690196 0.917647 0.000000
0.745098 0.925490 0.011765
0.792157 0.925490 0.007843
0.815686 0.925490 0.011765
0.890196 0.898039 0.023529
0.925490 0.890196 0.000000
0.964706 0.870588 0.000000
0.988235 0.874510 0.000000
0.074510 0.949020 0.000000
0.047059 0.960784 0.015686
0.003922 0.952941 0.000000
0.000000 0.949020 0.000000
0.000000 0.996078 0.000000
0.000000 0.992157 0.000000
0.000000 0.984314 0.000000
0.000000 0.972549 0.000000
0.015686 0.972549 0.000000
0.062745 0.968627 0.000000
0.094118 0.968627 0.000000
0.113725 0.972549 0.000000
0.352941 0.968627 0.000000
0.396078 0.980392 0.000000
0.462745 0.992157 0.003922
0.533333 1.000000 0.019608
0.603922 0.992157 0.019608
0.670588 0.984314 0.015686
0.729412 0.984314 0.027451
0.756863 0.992157 0.035294
0.843137 0.988235 0.054902
0.886275 0.976471 0.035294
0.945098 0.964706 0.011765
1.000000 0.952941 0.000000
1.000000 0.941176 0.000000
0.000000 0.015686 0.000000
0.000000 0.019608 0.000000
0.000000 0.023529 0.000000
0.000000 0.027451 0.000000
0.000000 0.023529 0.000000
0.000000 0.019608 0.000000
0.027451 0.015686 0.000000
0.047059 0.015686 0.000000
0.043137 0.019608 0.000000
0.070588 0.027451 0.000000
0.121569 0.039216 0.000000
0.164706 0.035294 0.000000
0.211765 0.027451 0.000000
0.250980 0.019608 0.000000
0.286275 0.015686 0.000000
0.309804 0.023529 0.000000
0.388235 0.000000 0.000000
0.419608 0.003922 0.003922
0.482353 0.011765 0.015686
0.552941 0.003922 0.007843
0.619608 0.000000 0.000000
0.690196 0.000000 0.000000
0.752941 0.000000 0.000000
0.784314 0.007843 0.011765
0.894118 0.000000 0.039216
0.000000 0.015686 0.000000
0.000000 0.000000 0.043137
0.003922 0.007843 0.015686
0.000000 0.015686 0.000000
0.000000 0.000000 0.027451
0.015686 0.000000 0.035294
0.039216 0.003922 0.007843
0.031373 0.027451 0.000000
0.062745 0.035294 0.000000
0.105882 0.035294 0.000000
0.156863 0.031373 0.000000
0.200000 0.019608 0.000000
0.239216 0.003922 0.000000
0.286275 0.000000 0.000000
0.305882 0.003922 0.000000
0.325490 0.000000 0.000000
0.360784 0.011765 0.000000
0.423529 0.019608 0.000000
0.482353 0.015686 0.000000
0.545098 0.007843 0.000000
0.600000 0.000000 0.000000
0.650980 0.000000 0.000000
0.678431 0.000000 0.000000
0.835294 0.000000 0.000000
0.901961 0.000000 0.066667
0.000000 0.027451 0.000000
0.011765 0.027451 0.023529
0.000000 0.023529 0.007843
0.000000 0.023529 0.000000
0.000000 0.027451 0.000000
0.000000 0.023529 0.000000
0.003922 0.027451 0.000000
0.019608 0.019608 0.000000
0.058824 0.007843 0.000000
0.105882 0.000000 0.000000
0.156863 0.000000 0.000000
0.215686 0.000000 0.000000
0.262745 0.007843 0.000000
0.290196 0.007843 0.011765
0.290196 0.000000 0.000000
0.309804 0.003922 0.000000
0.341176 0.015686 0.000000
0.384314 0.011765 0.000000
0.447059 0.011765 0.000000
0.517647 0.000000 0.000000
0.584314 0.007843 0.000000
0.627451 0.011765 0.000000
0.792157 0.000000 0.011765
0.850980 0.000000 0.000000
0.933333 0.000000 0.039216
0.000000 0.019608 0.000000
0.000000 0.003922 0.039216
0.003922 0.003922 0.003922
0.000000 0.023529 0.000000
0.000000 0.023529 0.000000
0.031373 0.027451 0.007843
0.050980 0.019608 0.007843
0.078431 0.007843 0.000000
0.101961 0.000000 0.000000
0.133333 0.000000 0.000000
0.184314 0.000000 0.000000
0.231373 0.000000 0.000000
0.266667 0.000000 0.000000
0.274510 0.000000 0.007843
0.305882 0.000000 0.015686
0.352941 0.003922 0.019608
0.411765 0.007843 0.023529
0.474510 0.007843 0.023529
0.525490 0.003922 0.023529
0.560784 0.000000 0.015686
0.580392 0.000000 0.011765
0.749020 0.000000 0.027451
0.788235 0.000000 0.000000
0.831373 0.000000 0.000000
0.878431 0.000000 0.000000
0.000000 0.043137 0.000000
0.000000 0.050980 0.027451
0.000000 0.047059 0.007843
0.000000 0.047059 0.000000
0.011765 0.031373 0.003922
0.023529 0.027451 0.000000
0.050980 0.023529 0.000000
0.082353 0.015686 0.000000
0.121569 0.007843 0.000000
0.160784 0.000000 0.000000
0.192157 0.000000 0.000000
0.207843 0.000000 0.000000
0.196078 0.000000 0.000000
0.231373 0.000000 0.000000
0.294118 0.003922 0.000000
0.352941 0.007843 0.000000
0.411765 0.000000 0.000000
0.458824 0.000000 0.000000
0.509804 0.000000 0.000000
0.537255 0.000000 0.000000
0.654902 0.015686 0.035294
0.694118 0.011765 0.019608
0.760784 0.000000 0.000000
0.823529 0.000000 0.000000
0.866667 0.000000 0.000000
0.027451 0.015686 0.043137
0.019608 0.015686 0.039216
0.007843 0.023529 0.035294
0.003922 0.027451 0.027451
0.019608 0.027451 0.023529
0.047059 0.023529 0.031373
0.074510 0.015686 0.027451
0.094118 0.019608 0.035294
0.160784 0.000000 0.062745
0.176471 0.003922 0.062745
0.203922 0.003922 0.062745
0.235294 0.000000 0.054902
0.254902 0.000000 0.047059
0.294118 0.000000 0.043137
0.325490 0.000000 0.054902
0.349020 0.003922 0.058824
0.364706 0.000000 0.000000
0.407843 0.007843 0.000000
0.466667 0.011765 0.011765
0.537255 0.011765 0.007843
0.607843 0.003922 0.000000
0.682353 0.007843 0.000000
0.737255 0.011765 0.003922
0.780392 0.019608 0.019608
0.945098 0.003922 0.047059
0.007843 0.050980 0.000000
0.031373 0.039216 0.027451
0.031373 0.054902 0.000000
0.011765 0.058824 0.000000
0.023529 0.043137 0.015686
0.047059 0.031373 0.019608
0.070588 0.058824 0.000000
0.078431 0.031373 0.000000
0.105882 0.043137 0.000000
0.141176 0.047059 0.000000
0.180392 0.047059 0.007843
0.219608 0.035294 0.000000
0.254902 0.031373 0.000000
0.282353 0.031373 0.000000
0.309804 0.035294 0.003922
0.368627 0.027451 0.058824
0.400000 0.027451 0.058824
0.439216 0.019608 0.050980
0.494118 0.003922 0.035294
0.556863 0.000000 0.027451
0.619608 0.000000 0.015686
0.690196 0.011765 0.035294
0.725490 0.023529 0.047059
0.847059 0.039216 0.000000
0.917647 0.011765 0.074510
0.000000 0.082353 0.000000
0.027451 0.066667 0.023529
0.019608 0.062745 0.007843
0.007843 0.062745 0.000000
0.027451 0.078431 0.000000
0.023529 0.066667 0.003922
0.062745 0.098039 0.023529
0.078431 0.098039 0.019608
0.101961 0.090196 0.015686
0.137255 0.086275 0.011765
0.180392 0.078431 0.011765
0.215686 0.078431 0.003922
0.243137 0.074510 0.007843
0.258824 0.074510 0.003922
0.352941 0.047059 0.039216
0.368627 0.058824 0.043137
0.396078 0.062745 0.043137
0.439216 0.058824 0.031373
0.486275 0.047059 0.003922
0.556863 0.035294 0.000000
0.627451 0.035294 0.007843
0.670588 0.035294 0.015686
0.741176 0.023529 0.000000
0.811765 0.023529 0.000000
0.909804 0.027451 0.003922
0.000000 0.082353 0.000000
0.011765 0.074510 0.031373
0.039216 0.086275 0.007843
0.050980 0.101961 0.000000
0.019608 0.109804 0.000000
0.050980 0.101961 0.000000
0.070588 0.105882 0.000000
0.101961 0.101961 0.000000
0.125490 0.098039 0.000000
0.152941 0.086275 0.000000
0.184314 0.078431 0.000000
0.219608 0.086275 0.000000
0.239216 0.094118 0.000000
0.254902 0.121569 0.000000
0.270588 0.117647 0.000000
0.313725 0.117647 0.000000
0.368627 0.117647 0.000000
0.427451 0.117647 0.000000
0.490196 0.125490 0.000000
0.537255 0.133333 0.003922
0.564706 0.137255 0.007843
0.705882 0.086275 0.050980
0.780392 0.098039 0.000000
0.866667 0.090196 0.000000
0.921569 0.078431 0.070588
0.027451 0.125490 0.000000
0.031373 0.113725 0.078431
0.031373 0.117647 0.070588
0.050980 0.129412 0.031373
0.000000 0.125490 0.003922
0.011765 0.125490 0.003922
0.050980 0.125490 0.007843
0.090196 0.125490 0.011765
0.137255 0.121569 0.007843
0.172549 0.117647 0.011765
0.196078 0.113725 0.000000
0.211765 0.109804 0.003922
0.235294 0.125490 0.000000
0.258824 0.133333 0.000000
0.301961 0.137255 0.000000
0.349020 0.141176 0.000000
0.403922 0.141176 0.000000
0.454902 0.145098 0.000000
0.505882 0.164706 0.000000
0.541176 0.176471 0.007843
0.650980 0.168627 0.003922
0.701961 0.172549 0.000000
0.780392 0.172549 0.000000
0.847059 0.172549 0.000000
0.894118 0.172549 0.000000
0.019608 0.160784 0.019608
0.015686 0.164706 0.019608
0.003922 0.168627 0.019608
0.000000 0.172549 0.011765
0.011765 0.172549 0.007843
0.043137 0.168627 0.007843
0.066667 0.164706 0.011765
0.082353 0.164706 0.011765
0.172549 0.129412 0.011765
0.180392 0.125490 0.011765
0.184314 0.121569 0.000000
0.203922 0.105882 0.000000
