lut/d899cde2-b368-45a9-a9da-e1d463090de3.cube
TITLE "Washed Out Rain"
LUT_3D_SIZE 9
0.000000 0.003922 0.000000
0.000000 0.015686 0.000000
0.043137 0.003922 0.000000
0.125490 0.000000 0.000000
0.215686 0.007843 0.000000
0.305882 0.047059 0.000000
0.450980 0.015686 0.000000
0.654902 0.000000 0.000000
0.917647 0.000000 0.039216
0.000000 0.027451 0.000000
0.027451 0.000000 0.000000
0.070588 0.007843 0.007843
0.141176 0.003922 0.000000
0.223529 0.031373 0.015686
0.329412 0.000000 0.000000
0.501961 0.000000 0.003922
0.643137 0.015686 0.015686
0.870588 0.000000 0.007843
0.000000 0.054902 0.000000
0.000000 0.050980 0.000000
0.043137 0.050980 0.000000
0.133333 0.035294 0.015686
0.239216 0.011765 0.003922
0.333333 0.000000 0.000000
0.490196 0.003922 0.011765
0.666667 0.000000 0.000000
0.878431 0.000000 0.058824
0.000000 0.141176 0.000000
0.015686 0.137255 0.003922
0.043137 0.117647 0.007843
0.172549 0.109804 0.007843
0.231373 0.141176 0.015686
0.333333 0.141176 0.011765
0.494118 0.164706 0.023529
0.694118 0.149020 0.000000
0.901961 0.164706 0.000000
0.011765 0.290196 0.000000
0.000000 0.231373 0.000000
0.054902 0.235294 0.000000
0.172549 0.231373 0.000000
0.294118 0.196078 0.000000
0.317647 0.200000 0.000000
0.498039 0.250980 0.000000
0.713725 0.286275 0.023529
0.925490 0.286275 0.054902
0.015686 0.364706 0.043137
0.000000 0.380392 0.027451
0.058824 0.372549 0.031373
0.176471 0.352941 0.000000
0.325490 0.337255 0.000000
0.466667 0.345098 0.019608
0.490196 0.345098 0.000000
0.745098 0.380392 0.015686
0.929412 0.400000 0.047059
0.000000 0.533333 0.000000
0.000000 0.549020 0.000000
0.039216 0.560784 0.000000
0.196078 0.552941 0.007843
0.352941 0.576471 0.054902
0.505882 0.545098 0.015686
0.643137 0.517647 0.000000
0.776471 0.486275 0.000000
0.952941 0.549020 0.047059
0.000000 0.760784 0.000000
0.000000 0.776471 0.000000
0.043137 0.772549 0.007843
0.152941 0.788235 0.000000
0.352941 0.784314 0.019608
0.580392 0.760784 0.039216
0.737255 0.776471 0.050980
0.886275 0.737255 0.011765
0.917647 0.709804 0.050980
0.074510 0.949020 0.000000
0.000000 0.949020 0.000000
0.000000 0.984314 0.000000
0.062745 0.968627 0.000000
0.352941 0.968627 0.000000
0.533333 1.000000 0.019608
0.729412 0.984314 0.027451
0.886275 0.976471 0.035294
1.000000 0.941176 0.000000
0.015686 0.000000 0.015686
0.000000 0.003922 0.000000
0.054902 0.000000 0.000000
0.101961 0.019608 0.015686
0.239216 0.011765 0.003922
0.333333 0.007843 0.000000
0.486275 0.000000 0.015686
0.690196 0.000000 0.011765
0.925490 0.000000 0.050980
0.000000 0.050980 0.000000
0.000000 0.027451 0.000000
0.050980 0.000000 0.000000
0.125490 0.011765 0.000000
0.227451 0.000000 0.000000
0.333333 0.003922 0.000000
0.513725 0.000000 0.000000
0.678431 0.003922 0.000000
0.913725 0.000000 0.078431
0.000000 0.054902 0.000000
0.000000 0.078431 0.007843
0.047059 0.054902 0.000000
0.129412 0.043137 0.000000
0.219608 0.035294 0.000000
0.337255 0.031373 0.000000
0.466667 0.023529 0.000000
0.674510 0.039216 0.000000
0.866667 0.027451 0.058824
0.000000 0.121569 0.000000
0.070588 0.137255 0.003922
0.074510 0.149020 0.031373
0.203922 0.094118 0.000000
0.247059 0.109804 0.023529
0.356863 0.137255 0.039216
0.494118 0.168627 0.050980
0.694118 0.156863 0.023529
0.894118 0.164706 0.011765
0.000000 0.270588 0.000000
0.007843 0.227451 0.000000
0.054902 0.243137 0.015686
0.160784 0.239216 0.007843
0.294118 0.219608 0.000000
0.345098 0.192157 0.000000
0.513725 0.231373 0.000000
0.737255 0.262745 0.054902
0.941176 0.294118 0.035294
0.000000 0.364706 0.000000
0.000000 0.368627 0.000000
0.070588 0.356863 0.000000
0.203922 0.364706 0.000000
0.313725 0.356863 0.000000
0.427451 0.376471 0.015686
0.517647 0.356863 0.000000
0.756863 0.396078 0.000000
0.921569 0.447059 0.035294
0.000000 0.568627 0.000000
0.007843 0.580392 0.000000
0.023529 0.576471 0.000000
0.192157 0.556863 0.000000
0.364706 0.576471 0.000000
0.517647 0.556863 0.043137
0.650980 0.521569 0.007843
0.784314 0.478431 0.000000
0.933333 0.533333 0.007843
0.000000 0.745098 0.000000
0.000000 0.772549 0.019608
0.058824 0.745098 0.000000
0.152941 0.776471 0.000000
0.360784 0.784314 0.011765
0.619608 0.768627 0.058824
0.756863 0.760784 0.047059
0.925490 0.745098 0.023529
0.937255 0.709804 0.086275
0.090196 0.937255 0.000000
0.011765 0.964706 0.000000
0.000000 0.976471 0.023529
0.043137 0.976471 0.011765
0.321569 0.941176 0.000000
0.521569 0.992157 0.000000
0.713725 0.988235 0.000000
0.866667 0.968627 0.070588
1.000000 0.941176 0.023529
0.027451 0.000000 0.109804
0.011765 0.000000 0.101961
0.078431 0.000000 0.098039
0.109804 0.000000 0.098039
0.247059 0.000000 0.098039
0.352941 0.000000 0.098039
0.501961 0.019608 0.039216
0.701961 0.000000 0.023529
0.921569 0.000000 0.066667
0.000000 0.039216 0.011765
0.023529 0.000000 0.035294
0.082353 0.000000 0.078431
0.137255 0.000000 0.039216
0.294118 0.000000 0.058824
0.352941 0.015686 0.019608
0.521569 0.000000 0.000000
0.756863 0.000000 0.066667
0.925490 0.000000 0.101961
0.000000 0.058824 0.000000
0.000000 0.047059 0.047059
0.047059 0.066667 0.043137
0.145098 0.039216 0.066667
0.235294 0.015686 0.027451
0.372549 0.019608 0.019608
0.490196 0.000000 0.000000
0.701961 0.023529 0.007843
0.854902 0.000000 0.066667
0.000000 0.141176 0.000000
0.043137 0.129412 0.000000
0.090196 0.121569 0.031373
0.149020 0.121569 0.011765
0.227451 0.121569 0.007843
0.337255 0.141176 0.011765
0.490196 0.168627 0.011765
0.701961 0.168627 0.003922
0.890196 0.164706 0.000000
0.000000 0.290196 0.000000
0.000000 0.219608 0.000000
0.058824 0.247059 0.019608
0.180392 0.231373 0.011765
0.313725 0.184314 0.000000
0.317647 0.211765 0.000000
0.525490 0.250980 0.000000
0.733333 0.333333 0.043137
0.937255 0.301961 0.047059
0.047059 0.349020 0.043137
0.023529 0.368627 0.031373
0.070588 0.360784 0.027451
0.196078 0.345098 0.050980
0.333333 0.341176 0.047059
0.443137 0.352941 0.054902
0.517647 0.329412 0.007843
0.760784 0.368627 0.031373
0.933333 0.400000 0.062745
0.000000 0.572549 0.000000
0.035294 0.549020 0.039216
0.090196 0.533333 0.000000
0.207843 0.552941 0.000000
0.364706 0.552941 0.000000
0.549020 0.552941 0.050980
0.690196 0.498039 0.000000
0.717647 0.505882 0.000000
0.933333 0.513725 0.066667
0.035294 0.788235 0.000000
0.003922 0.760784 0.000000
0.062745 0.784314 0.000000
0.176471 0.780392 0.011765
0.396078 0.776471 0.027451
0.611765 0.745098 0.027451
0.764706 0.760784 0.023529
0.909804 0.721569 0.000000
0.964706 0.701961 0.047059
0.062745 0.949020 0.000000
0.015686 0.949020 0.000000
0.000000 0.976471 0.000000
0.039216 0.968627 0.000000
0.313725 0.964706 0.000000
0.529412 0.992157 0.035294
0.745098 0.960784 0.023529
0.886275 0.988235 0.019608
1.000000 0.941176 0.000000
0.000000 0.039216 0.207843
0.000000 0.031373 0.203922
0.000000 0.035294 0.215686
0.062745 0.019608 0.188235
0.196078 0.007843 0.172549
0.321569 0.003922 0.172549
0.509804 0.019608 0.239216
0.694118 0.003922 0.196078
0.921569 0.000000 0.113725
0.000000 0.050980 0.145098
0.000000 0.019608 0.149020
0.039216 0.007843 0.192157
0.121569 0.000000 0.160784
0.258824 0.000000 0.152941
0.337255 0.003922 0.168627
0.517647 0.000000 0.172549
0.713725 0.023529 0.203922
0.874510 0.000000 0.094118
0.003922 0.070588 0.133333
0.000000 0.054902 0.149020
0.000000 0.035294 0.172549
0.168627 0.019608 0.203922
0.282353 0.000000 0.172549
0.337255 0.019608 0.188235
0.486275 0.019608 0.145098
0.694118 0.023529 0.094118
0.929412 0.011765 0.117647
0.027451 0.078431 0.145098
0.027451 0.133333 0.200000
0.000000 0.121569 0.164706
0.121569 0.137255 0.180392
0.258824 0.121569 0.149020
0.352941 0.098039 0.113725
0.486275 0.078431 0.082353
0.721569 0.000000 0.050980
0.921569 0.007843 0.019608
0.000000 0.262745 0.054902
0.000000 0.231373 0.172549
0.023529 0.215686 0.090196
0.137255 0.243137 0.105882
0.219608 0.219608 0.070588
0.360784 0.211765 0.066667
0.525490 0.243137 0.011765
0.741176 0.262745 0.000000
0.925490 0.254902 0.050980
0.000000 0.380392 0.035294
0.000000 0.376471 0.035294
0.007843 0.368627 0.035294
0.050980 0.384314 0.000000
0.317647 0.360784 0.000000
0.490196 0.317647 0.000000
0.552941 0.337255 0.000000
0.780392 0.396078 0.007843
0.984314 0.396078 0.098039
0.015686 0.584314 0.000000
0.027451 0.552941 0.000000
0.003922 0.568627 0.050980
0.094118 0.556863 0.015686
0.298039 0.603922 0.074510
0.521569 0.564706 0.011765
0.666667 0.494118 0.003922
0.827451 0.454902 0.039216
1.000000 0.505882 0.047059
0.000000 0.764706 0.000000
0.019608 0.788235 0.000000
0.019608 0.760784 0.000000
0.113725 0.772549 0.000000
0.341176 0.784314 0.000000
0.607843 0.760784 0.019608
0.780392 0.776471 0.047059
0.917647 0.701961 0.000000
0.933333 0.698039 0.015686
0.035294 0.937255 0.000000
0.050980 0.980392 0.000000
0.000000 1.000000 0.011765
0.015686 0.976471 0.000000
0.298039 0.941176 0.000000
0.482353 0.968627 0.003922
0.698039 0.980392 0.011765
0.933333 0.972549 0.047059
1.000000 0.925490 0.000000
0.011765 0.007843 0.321569
0.019608 0.000000 0.321569
0.031373 0.000000 0.321569
0.141176 0.003922 0.356863
0.274510 0.003922 0.329412
0.384314 0.003922 0.321569
0.427451 0.031373 0.337255
0.670588 0.023529 0.396078
0.964706 0.000000 0.321569
0.000000 0.050980 0.290196
0.000000 0.023529 0.270588
0.066667 0.003922 0.298039
0.133333 0.003922 0.282353
0.258824 0.000000 0.286275
0.356863 0.000000 0.298039
0.576471 0.000000 0.313725
0.760784 0.019608 0.349020
0.925490 0.000000 0.325490
0.003922 0.062745 0.231373
0.015686 0.027451 0.298039
0.000000 0.043137 0.266667
0.137255 0.015686 0.321569
0.250980 0.011765 0.282353
0.333333 0.007843 0.274510
0.513725 0.007843 0.333333
0.729412 0.000000 0.400000
0.968627 0.000000 0.356863
0.000000 0.101961 0.270588
0.007843 0.137255 0.274510
0.027451 0.121569 0.301961
0.109804 0.094118 0.290196
0.270588 0.101961 0.380392
0.341176 0.047059 0.309804
0.486275 0.031373 0.278431
0.725490 0.000000 0.262745
0.925490 0.007843 0.247059
0.000000 0.211765 0.211765
0.015686 0.258824 0.317647
0.019608 0.231373 0.278431
0.086275 0.239216 0.266667
0.250980 0.211765 0.254902
0.392157 0.203922 0.258824
0.568627 0.172549 0.227451
0.725490 0.172549 0.235294
0.929412 0.152941 0.203922
0.000000 0.388235 0.262745
0.000000 0.380392 0.262745
0.000000 0.376471 0.262745
0.000000 0.388235 0.203922
0.215686 0.360784 0.192157
0.396078 0.341176 0.188235
0.533333 0.349020 0.184314
0.780392 0.388235 0.054902
0.968627 0.372549 0.211765
0.035294 0.592157 0.058824
0.007843 0.549020 0.121569
0.000000 0.596078 0.082353
0.000000 0.560784 0.031373
0.145098 0.600000 0.078431
0.498039 0.568627 0.035294
0.662745 0.509804 0.000000
0.819608 0.478431 0.027451
1.000000 0.537255 0.011765
0.000000 0.764706 0.000000
0.031373 0.776471 0.015686
0.007843 0.792157 0.027451
0.007843 0.796078 0.011765
0.164706 0.784314 0.000000
0.549020 0.792157 0.000000
0.737255 0.796078 0.047059
0.890196 0.721569 0.039216
0.917647 0.662745 0.066667
0.031373 0.968627 0.000000
0.047059 0.968627 0.000000
0.000000 1.000000 0.007843
0.023529 0.980392 0.000000
0.105882 0.952941 0.000000
0.431373 0.976471 0.000000
0.725490 0.988235 0.000000
0.898039 0.972549 0.062745
1.000000 0.925490 0.000000
0.000000 0.019608 0.439216
0.000000 0.019608 0.427451
0.007843 0.015686 0.411765
0.172549 0.019608 0.525490
0.262745 0.007843 0.478431
0.466667 0.000000 0.462745
0.486275 0.019608 0.482353
0.682353 0.000000 0.517647
0.988235 0.000000 0.501961
0.000000 0.070588 0.462745
0.000000 0.007843 0.466667
0.062745 0.003922 0.462745
0.152941 0.019608 0.462745
0.274510 0.000000 0.466667
0.392157 0.007843 0.450980
0.498039 0.011765 0.450980
0.776471 0.000000 0.576471
0.945098 0.000000 0.529412
0.015686 0.074510 0.439216
0.019608 0.023529 0.478431
0.043137 0.000000 0.415686
0.152941 0.007843 0.454902
0.309804 0.000000 0.447059
0.384314 0.043137 0.486275
0.560784 0.000000 0.466667
0.764706 0.003922 0.494118
0.964706 0.000000 0.545098
0.007843 0.176471 0.443137
0.007843 0.160784 0.470588
0.000000 0.109804 0.454902
0.078431 0.109804 0.443137
0.360784 0.011765 0.482353
0.415686 0.000000 0.435294
0.529412 0.000000 0.415686
0.760784 0.000000 0.505882
0.960784 0.000000 0.466667
0.000000 0.258824 0.411765
0.047059 0.282353 0.486275
0.000000 0.247059 0.474510
0.023529 0.223529 0.447059
0.176471 0.200000 0.443137
0.392157 0.180392 0.423529
0.556863 0.094118 0.431373
0.776471 0.023529 0.458824
1.000000 0.011765 0.458824
0.000000 0.407843 0.435294
0.000000 0.403922 0.419608
0.000000 0.400000 0.407843
0.031373 0.368627 0.458824
0.082353 0.368627 0.403922
0.317647 0.368627 0.431373
0.529412 0.364706 0.380392
0.807843 0.305882 0.356863
0.937255 0.235294 0.388235
0.000000 0.635294 0.333333
0.000000 0.564706 0.427451
0.000000 0.600000 0.419608
0.000000 0.588235 0.372549
0.043137 0.568627 0.360784
0.243137 0.592157 0.278431
0.584314 0.560784 0.254902
0.803922 0.521569 0.223529
0.964706 0.498039 0.270588
0.058824 0.807843 0.250980
0.015686 0.803922 0.301961
0.000000 0.788235 0.243137
0.000000 0.835294 0.196078
0.000000 0.807843 0.109804
0.364706 0.784314 0.000000
0.701961 0.780392 0.011765
0.941176 0.713725 0.000000
0.984314 0.639216 0.152941
0.027451 1.000000 0.000000
0.000000 1.000000 0.003922
0.000000 0.988235 0.011765
0.000000 1.000000 0.000000
0.000000 1.000000 0.035294
0.196078 0.960784 0.000000
0.623529 0.988235 0.000000
0.929412 0.960784 0.047059
1.000000 0.929412 0.000000
0.007843 0.000000 0.631373
0.000000 0.000000 0.615686
0.027451 0.007843 0.643137
0.266667 0.003922 0.619608
0.349020 0.031373 0.635294
0.470588 0.023529 0.643137
0.678431 0.007843 0.627451
0.745098 0.000000 0.568627
1.000000 0.000000 0.729412
0.000000 0.094118 0.560784
0.000000 0.015686 0.596078
0.090196 0.015686 0.619608
0.258824 0.007843 0.631373
0.388235 0.007843 0.654902
0.505882 0.000000 0.658824
0.658824 0.000000 0.596078
0.666667 0.050980 0.611765
0.909804 0.000000 0.631373
0.000000 0.074510 0.666667
0.000000 0.000000 0.650980
0.043137 0.000000 0.666667
0.203922 0.007843 0.701961
0.419608 0.000000 0.725490
0.494118 0.000000 0.698039
0.658824 0.000000 0.623529
0.745098 0.023529 0.643137
0.988235 0.000000 0.725490
0.039216 0.121569 0.682353
0.000000 0.094118 0.572549
0.035294 0.043137 0.670588
0.145098 0.003922 0.662745
0.309804 0.000000 0.615686
0.537255 0.000000 0.713725
0.643137 0.000000 0.678431
0.792157 0.000000 0.635294
1.000000 0.000000 0.643137
0.000000 0.278431 0.584314
0.000000 0.278431 0.635294
0.000000 0.262745 0.686275
0.011765 0.215686 0.643137
0.098039 0.200000 0.631373
0.439216 0.094118 0.666667
0.619608 0.027451 0.627451
0.772549 0.000000 0.607843
0.960784 0.035294 0.560784
0.043137 0.443137 0.635294
0.015686 0.454902 0.635294
0.043137 0.423529 0.623529
0.023529 0.392157 0.682353
0.058824 0.372549 0.650980
0.203922 0.384314 0.686275
0.647059 0.282353 0.701961
0.827451 0.192157 0.631373
0.913725 0.133333 0.529412
0.039216 0.580392 0.580392
0.000000 0.603922 0.600000
0.035294 0.588235 0.698039
0.019608 0.572549 0.650980
0.011765 0.568627 0.615686
0.164706 0.580392 0.572549
0.607843 0.537255 0.623529
0.921569 0.560784 0.603922
1.000000 0.447059 0.564706
0.003922 0.854902 0.537255
0.000000 0.800000 0.525490
0.011765 0.807843 0.549020
0.000000 0.815686 0.560784
0.011765 0.811765 0.525490
0.000000 0.831373 0.419608
0.470588 0.823529 0.482353
0.839216 0.694118 0.478431
0.988235 0.674510 0.537255
0.023529 0.984314 0.345098
0.000000 1.000000 0.521569
0.000000 1.000000 0.388235
0.003922 1.000000 0.345098
0.000000 0.976471 0.117647
0.000000 1.000000 0.086275
0.345098 0.980392 0.023529
0.850980 0.964706 0.015686
1.000000 0.929412 0.000000
0.019608 0.000000 0.835294
0.007843 0.000000 0.843137
0.086275 0.000000 0.866667
0.321569 0.000000 0.807843
0.443137 0.000000 0.807843
0.552941 0.000000 0.819608
0.709804 0.015686 0.800000
0.803922 0.035294 0.772549
1.000000 0.000000 0.933333
0.000000 0.039216 0.768627
0.000000 0.000000 0.796078
0.149020 0.000000 0.847059
0.270588 0.000000 0.850980
0.384314 0.035294 0.874510
0.568627 0.000000 0.831373
0.713725 0.000000 0.803922
0.839216 0.000000 0.858824
0.996078 0.000000 0.870588
0.000000 0.050980 0.772549
0.000000 0.031373 0.784314
0.000000 0.007843 0.788235
0.176471 0.047059 0.811765
0.431373 0.000000 0.827451
0.541176 0.019608 0.807843
0.694118 0.000000 0.823529
0.890196 0.000000 0.839216
1.000000 0.000000 0.929412
0.000000 0.125490 0.764706
0.000000 0.082353 0.698039
0.000000 0.019608 0.819608
0.109804 0.000000 0.827451
0.301961 0.007843 0.807843
0.513725 0.023529 0.831373
0.709804 0.000000 0.803922
0.823529 0.007843 0.823529
0.972549 0.007843 0.788235
0.047059 0.203922 0.823529
0.003922 0.266667 0.858824
0.000000 0.219608 0.878431
0.027451 0.160784 0.878431
0.160784 0.109804 0.898039
0.443137 0.027451 0.850980
0.654902 0.007843 0.854902
0.878431 0.000000 0.866667
0.968627 0.066667 0.835294
0.000000 0.458824 0.823529
0.000000 0.470588 0.827451
0.000000 0.427451 0.807843
0.000000 0.407843 0.847059
0.031373 0.345098 0.796078
0.137255 0.345098 0.800000
0.654902 0.215686 0.890196
0.800000 0.125490 0.807843
0.858824 0.227451 0.666667
0.031373 0.592157 0.756863
0.000000 0.627451 0.768627
0.000000 0.639216 0.752941
0.000000 0.623529 0.760784
0.000000 0.611765 0.764706
0.090196 0.576471 0.788235
0.533333 0.513725 0.827451
0.803922 0.529412 0.803922
0.952941 0.498039 0.792157
0.027451 0.803922 0.752941
0.015686 0.796078 0.776471
0.062745 0.823529 0.819608
0.027451 0.796078 0.792157
0.019608 0.792157 0.756863
0.000000 0.803922 0.772549
0.376471 0.823529 0.823529
0.843137 0.776471 0.807843
0.976471 0.725490 0.827451
0.023529 0.980392 0.737255
0.050980 1.000000 0.752941
0.000000 0.988235 0.768627
0.007843 1.000000 0.768627
0.000000 1.000000 0.741176
0.000000 0.968627 0.670588
0.145098 0.992157 0.674510
0.741176 0.984314 0.596078
0.960784 0.941176 0.549020
0.000000 0.027451 0.992157
0.000000 0.003922 0.984314
0.066667 0.027451 1.000000
0.266667 0.007843 0.972549
0.443137 0.011765 0.980392
0.568627 0.007843 0.980392
0.752941 0.000000 0.984314
0.827451 0.011765 0.976471
0.972549 0.000000 1.000000
0.000000 0.054902 0.992157
0.035294 0.023529 1.000000
0.062745 0.000000 1.000000
0.274510 0.000000 1.000000
0.439216 0.000000 0.984314
0.560784 0.003922 0.964706
0.694118 0.015686 0.949020
0.835294 0.011765 1.000000
0.984314 0.000000 1.000000
0.015686 0.086275 0.949020
0.015686 0.023529 0.976471
0.031373 0.000000 0.960784
0.196078 0.000000 1.000000
0.435294 0.000000 1.000000
0.560784 0.011765 1.000000
0.698039 0.003922 1.000000
0.866667 0.000000 1.000000
1.000000 0.000000 1.000000
0.000000 0.058824 0.917647
0.000000 0.000000 0.984314
0.000000 0.023529 0.992157
0.098039 0.000000 1.000000
0.329412 0.023529 1.000000
0.529412 0.007843 1.000000
0.752941 0.000000 1.000000
0.898039 0.000000 1.000000
1.000000 0.000000 1.000000
0.015686 0.200000 0.960784
0.023529 0.196078 0.960784
0.000000 0.145098 1.000000
0.035294 0.101961 1.000000
0.113725 0.039216 0.976471
0.368627 0.023529 0.972549
0.639216 0.019608 0.980392
0.827451 0.000000 0.960784
1.000000 0.003922 1.000000
0.000000 0.419608 0.984314
0.003922 0.411765 0.988235
0.000000 0.384314 0.968627
0.000000 0.360784 1.000000
0.027451 0.290196 0.992157
0.125490 0.266667 0.988235
0.647059 0.113725 1.000000
0.819608 0.011765 0.925490
0.933333 0.207843 0.960784
0.000000 0.560784 0.976471
0.000000 0.639216 0.972549
0.003922 0.635294 0.992157
0.007843 0.588235 0.980392
0.011765 0.545098 0.968627
0.094118 0.521569 0.980392
0.384314 0.494118 0.988235
0.792157 0.427451 0.980392
0.964706 0.450980 1.000000
0.050980 0.800000 1.000000
0.000000 0.788235 1.000000
0.000000 0.788235 1.000000
0.031373 0.764706 1.000000
0.031373 0.749020 1.000000
0.015686 0.729412 1.000000
0.376471 0.749020 1.000000
0.815686 0.741176 1.000000
1.000000 0.662745 1.000000
0.019608 1.000000 0.949020
0.003922 0.996078 0.988235
0.043137 0.972549 0.996078
0.039216 0.976471 0.996078
0.027451 1.000000 1.000000
0.027451 0.964706 0.992157
0.101961 0.972549 0.992157
0.658824 0.972549 1.000000
1.000000 0.980392 1.000000
