lut/da7ce7bc-1a14-40a9-a10a-be88eb159fee.cube
TITLE "Cool Night Cinematic"
LUT_3D_SIZE 16
0.000000 0.000000 0.000000
0.037041 -0.000271 -0.000271
0.109451 -0.000543 -0.000543
0.180669 -0.000813 -0.000813
0.249837 -0.001086 -0.001086
0.316176 -0.001357 -0.001357
0.378979 -0.001627 -0.001627
0.437584 -0.001900 -0.001900
0.492379 -0.002172 -0.002172
0.543837 -0.002440 -0.002440
0.592372 -0.002708 -0.002708
0.638587 -0.002986 -0.002986
0.682747 -0.003256 -0.003256
0.725761 -0.003523 -0.003523
0.767416 -0.003795 -0.003795
0.807381 -0.004056 -0.004056
-0.000449 0.041931 -0.000449
0.037041 0.041931 -0.000501
0.109451 0.061954 -0.000666
0.180669 0.068172 -0.000888
0.249837 0.070704 -0.001136
0.316176 0.071589 -0.001393
0.378979 0.071505 -0.001658
0.437584 0.070757 -0.001919
0.492379 0.069664 -0.002189
0.543837 0.068392 -0.002454
0.592372 0.067040 -0.002726
0.638587 0.065702 -0.002997
0.682747 0.064396 -0.003266
0.725761 0.063166 -0.003532
0.767416 0.062031 -0.003803
0.807381 0.060947 -0.004070
-0.000899 0.123897 -0.000899
0.054732 0.123897 -0.000920
0.109450 0.123897 -0.001002
0.180671 0.136339 -0.001146
0.249837 0.141410 -0.001333
0.316176 0.143179 -0.001543
0.378979 0.143018 -0.001779
0.437584 0.141526 -0.002024
0.492379 0.139340 -0.002277
0.543837 0.136794 -0.002529
0.592372 0.134109 -0.002786
0.638587 0.131419 -0.003049
0.682747 0.128816 -0.003312
0.725761 0.126364 -0.003582
0.767416 0.124099 -0.003841
0.807381 0.121940 -0.004111
-0.001345 0.204528 -0.001345
0.060223 0.204528 -0.001361
0.120447 0.204528 -0.001408
0.180670 0.204528 -0.001502
0.249837 0.212112 -0.001634
0.316176 0.214758 -0.001806
0.378978 0.214508 -0.001996
0.437584 0.212278 -0.002205
0.492379 0.209001 -0.002432
0.543837 0.205185 -0.002665
0.592372 0.201171 -0.002911
0.638587 0.197121 -0.003160
0.682747 0.193232 -0.003411
0.725761 0.189529 -0.003663
0.767416 0.186157 -0.003929
0.807381 0.182897 -0.004179
-0.001795 0.282800 -0.001795
0.062459 0.282800 -0.001806
0.124921 0.282800 -0.001838
0.187370 0.282800 -0.001900
0.249836 0.282800 -0.002006
0.316175 0.286349 -0.002130
0.378978 0.285999 -0.002292
0.437584 0.283043 -0.002467
0.492378 0.278672 -0.002665
0.543837 0.273593 -0.002877
0.592372 0.268224 -0.003090
0.638586 0.262841 -0.003321
0.682747 0.257642 -0.003557
0.725761 0.252731 -0.003803
0.767416 0.248196 -0.004043
0.807381 0.243883 -0.004296
-0.002245 0.357922 -0.002245
0.063236 0.357922 -0.002253
0.126474 0.357922 -0.002277
0.189716 0.357922 -0.002323
0.252965 0.357922 -0.002397
0.316175 0.357922 -0.002509
0.378977 0.357506 -0.002627
0.437584 0.353839 -0.002774
0.492378 0.348340 -0.002943
0.543836 0.341994 -0.003131
0.592372 0.335272 -0.003331
0.638586 0.328549 -0.003540
0.682747 0.322055 -0.003749
0.725761 0.315933 -0.003986
0.767416 0.310255 -0.004205
0.807381 0.304872 -0.004446
-0.002702 0.429031 -0.002702
0.063159 0.429031 -0.002702
0.126335 0.429031 -0.002714
0.189504 0.429031 -0.002762
0.252650 0.429031 -0.002820
0.315838 0.429031 -0.002899
0.378976 0.429031 -0.003007
0.437583 0.424578 -0.003131
0.492378 0.417995 -0.003275
0.543836 0.410397 -0.003438
0.592372 0.402347 -0.003606
0.638586 0.394226 -0.003795
0.682747 0.386486 -0.004000
0.725760 0.379104 -0.004205
0.767415 0.372322 -0.004421
0.807381 0.365809 -0.004635
-0.003141 0.495330 -0.003141
0.062497 0.495330 -0.003141
0.125023 0.495330 -0.003160
0.187505 0.495330 -0.003199
0.250043 0.495329 -0.003237
0.312545 0.495329 -0.003312
0.375060 0.495329 -0.003402
0.437583 0.495329 -0.003506
0.492377 0.487670 -0.003623
0.543836 0.478779 -0.003765
0.592372 0.469354 -0.003929
0.638586 0.459967 -0.004098
0.682746 0.450868 -0.004270
0.725760 0.442249 -0.004458
0.767415 0.434338 -0.004658
0.807381 0.426787 -0.004868
-0.003590 0.557390 -0.003590
0.061523 0.557390 -0.003590
0.123082 0.557389 -0.003606
0.184636 0.557389 -0.003639
0.246181 0.557389 -0.003671
0.307715 0.557389 -0.003734
0.369291 0.557389 -0.003810
0.430808 0.557389 -0.003900
0.492377 0.557389 -0.004000
0.543835 0.547173 -0.004125
0.592371 0.536457 -0.004270
0.638585 0.525699 -0.004421
0.682746 0.515292 -0.004577
0.725760 0.505468 -0.004748
0.767415 0.496372 -0.004932
0.807381 0.487766 -0.005126
-0.004043 0.615591 -0.004043
0.060397 0.615591 -0.004043
0.120836 0.615591 -0.004056
0.181260 0.615591 -0.004084
0.241690 0.615591 -0.004111
0.302115 0.615591 -0.004165
0.362538 0.615591 -0.004231
0.422938 0.615591 -0.004296
0.483396 0.615591 -0.004397
0.543835 0.615591 -0.004518
0.592371 0.603484 -0.004635
0.638585 0.591436 -0.004770
0.682746 0.579745 -0.004900
0.725760 0.568675 -0.005066
0.767415 0.558460 -0.005245
0.807381 0.548774 -0.005415
-0.004494 0.670552 -0.004494
0.059204 0.670552 -0.004494
0.118461 0.670552 -0.004494
0.177712 0.670552 -0.004518
0.236945 0.670552 -0.004565
0.296185 0.670551 -0.004589
0.355431 0.670551 -0.004658
0.414632 0.670551 -0.004726
0.473912 0.670551 -0.004814
0.533158 0.670551 -0.004900
0.592370 0.670551 -0.005005
0.638584 0.657115 -0.005126
0.682746 0.644118 -0.005264
0.725759 0.631867 -0.005415
0.767414 0.620510 -0.005560
0.807381 0.609725 -0.005717
-0.004942 0.722875 -0.004942
0.058007 0.722875 -0.004942
0.116086 0.722875 -0.004963
0.174129 0.722875 -0.004963
0.232192 0.722875 -0.005005
0.290239 0.722875 -0.005026
0.348278 0.722875 -0.005086
0.406370 0.722874 -0.005146
0.464423 0.722874 -0.005225
0.522491 0.722874 -0.005302
0.580469 0.722874 -0.005396
0.638584 0.722873 -0.005506
0.682745 0.708663 -0.005630
0.725758 0.695039 -0.005768
0.767414 0.682637 -0.005902
0.807381 0.670745 -0.006047
-0.005396 0.772926 -0.005396
0.056845 0.772926 -0.005396
0.113786 0.772926 -0.005396
0.170706 0.772926 -0.005415
0.227602 0.772926 -0.005433
0.284509 0.772925 -0.005470
0.341382 0.772925 -0.005524
0.398309 0.772925 -0.005577
0.455203 0.772925 -0.005630
0.512128 0.772925 -0.005717
0.569045 0.772925 -0.005802
0.626012 0.772925 -0.005902
0.682745 0.772925 -0.006015
0.725758 0.758138 -0.006125
0.767413 0.744620 -0.006263
0.807381 0.731582 -0.006397
-0.005836 0.821480 -0.005836
0.055754 0.821480 -0.005836
0.111611 0.821480 -0.005852
0.167429 0.821480 -0.005869
0.223253 0.821480 -0.005885
0.279104 0.821480 -0.005918
0.334906 0.821480 -0.005951
0.390673 0.821480 -0.005999
0.446530 0.821480 -0.006063
0.502380 0.821480 -0.006125
0.558222 0.821480 -0.006217
0.614014 0.821479 -0.006308
0.669765 0.821479 -0.006397
0.725757 0.821479 -0.006513
0.767413 0.806801 -0.006625
0.807381 0.792762 -0.006762
-0.006278 0.868719 -0.006278
0.054743 0.868719 -0.006278
0.109603 0.868719 -0.006308
0.164438 0.868719 -0.006308
0.219257 0.868719 -0.006338
0.274065 0.868719 -0.006367
0.328916 0.868719 -0.006397
0.383690 0.868719 -0.006425
0.438540 0.868719 -0.006484
0.493372 0.868719 -0.006541
0.548133 0.868719 -0.006625
0.603050 0.868719 -0.006708
0.657804 0.868718 -0.006790
0.712657 0.868718 -0.006896
0.767412 0.868718 -0.007000
0.807381 0.853578 -0.007128
-0.006735 0.913900 -0.006735
0.053771 0.913900 -0.006735
0.107697 0.913900 -0.006735
0.161572 0.913900 -0.006762
0.215433 0.913900 -0.006762
0.269303 0.913900 -0.006790
0.323181 0.913900 -0.006816
0.377026 0.913900 -0.006870
0.430903 0.913900 -0.006922
0.484788 0.913900 -0.006975
0.538621 0.913900 -0.007052
0.592516 0.913900 -0.007128
0.646357 0.913900 -0.007203
0.700255 0.913900 -0.007301
0.754056 0.913900 -0.007398
0.807381 0.913900 -0.007516
0.011654 0.011654 0.030028
0.037041 -0.000306 0.042684
0.109451 -0.000557 0.063064
0.180669 -0.000821 0.069393
0.249837 -0.001091 0.071979
0.316176 -0.001361 0.072870
0.378979 -0.001627 0.072789
0.437584 -0.001900 0.072032
0.492379 -0.002172 0.070921
0.543837 -0.002440 0.069619
0.592372 -0.002714 0.068243
0.638587 -0.002986 0.066874
0.682747 -0.003256 0.065553
0.725761 -0.003523 0.064300
0.767416 -0.003795 0.063144
0.807381 -0.004070 0.062039
0.023714 0.040730 0.041259
0.038711 0.041567 0.042023
0.114353 0.037681 0.038358
0.189084 0.027418 0.027910
0.258090 0.017978 0.018300
0.323126 0.011441 0.011647
0.384486 0.007219 0.007349
0.441892 0.004539 0.004621
0.495856 0.002905 0.002960
0.546633 0.002087 0.002122
0.594682 0.001682 0.001717
0.640523 0.001694 0.001717
0.684456 0.002042 0.002078
0.727041 0.002588 0.002640
0.768620 0.003321 0.003376
0.807381 0.041886 0.042636
-0.000906 0.123897 0.063063
0.023058 0.125936 0.026569
0.109867 0.124364 0.023121
0.184973 0.132217 0.018058
0.255202 0.134533 0.013020
0.321358 0.134574 0.008917
0.383447 0.133351 0.005942
0.441330 0.131302 0.003918
0.495450 0.128835 0.002652
0.546377 0.126198 0.001890
0.594535 0.123528 0.001694
0.640395 0.120905 0.001740
0.684366 0.118423 0.002197
0.727035 0.116098 0.002714
0.768639 0.113981 0.003498
0.807381 0.116074 0.042641
-0.001353 0.204528 0.069398
0.010757 0.206343 0.012396
0.114633 0.205794 0.011363
0.181001 0.204881 0.009654
0.252177 0.210743 0.007620
0.319261 0.212083 0.005665
0.382073 0.210850 0.004074
0.440385 0.207941 0.002877
0.494868 0.204238 0.002189
0.545989 0.200153 0.001740
0.594267 0.195979 0.001717
0.640139 0.191857 0.001806
0.684263 0.187937 0.002411
0.726943 0.184239 0.002932
0.768568 0.180862 0.003749
0.807381 0.179690 0.042639
-0.001795 0.282800 0.071975
0.004903 0.284180 0.005650
0.116707 0.283980 0.005323
0.184972 0.283585 0.004784
0.250099 0.283094 0.004039
0.317557 0.285748 0.003266
0.380826 0.284652 0.002608
0.439488 0.281087 0.002096
0.494159 0.276268 0.001740
0.545532 0.270881 0.001694
0.593884 0.265270 0.001762
0.639937 0.259773 0.002213
0.683998 0.254502 0.002677
0.726852 0.249530 0.003367
0.768504 0.244978 0.004152
0.807381 0.241795 0.042636
-0.002245 0.357922 0.072869
0.002353 0.358962 0.002708
0.117215 0.358885 0.002646
0.185946 0.358697 0.002509
0.251722 0.358405 0.002292
0.316401 0.358130 0.001968
0.379743 0.357115 0.001740
0.438672 0.352941 0.001694
0.493627 0.347151 0.001717
0.545060 0.340472 0.001785
0.593533 0.333518 0.002229
0.639688 0.326670 0.002652
0.683774 0.320029 0.003199
0.726608 0.313816 0.003943
0.768317 0.308121 0.004781
0.807381 0.303355 0.042630
-0.002702 0.429031 0.072774
0.001489 0.429764 0.001717
0.116612 0.429749 0.001717
0.185032 0.429641 0.001717
0.250550 0.429462 0.001694
0.315090 0.429362 0.001694
0.379144 0.429160 0.001740
0.438070 0.424328 0.001785
0.493100 0.417460 0.002096
0.544676 0.409548 0.002440
0.593186 0.401277 0.002797
0.639382 0.393044 0.003349
0.683588 0.385144 0.003986
0.726458 0.377695 0.004748
0.768141 0.370828 0.005560
0.807381 0.364735 0.042625
-0.003141 0.495330 0.072017
0.001543 0.495850 0.001785
0.115125 0.495858 0.001828
0.182723 0.495800 0.001910
0.247439 0.495756 0.002024
0.311227 0.495658 0.002197
0.374597 0.495537 0.002382
0.437658 0.495431 0.002601
0.492749 0.487506 0.002843
0.544293 0.478331 0.003256
0.592951 0.468758 0.003749
0.639146 0.459148 0.004296
0.683329 0.449961 0.005026
0.726349 0.441316 0.005777
0.768003 0.433327 0.006625
0.807381 0.425967 0.042616
-0.003590 0.557390 0.070893
0.002382 0.557800 0.002750
0.113192 0.557807 0.002797
0.179633 0.557761 0.002866
0.243297 0.557685 0.002954
0.306043 0.557700 0.003141
0.368381 0.557611 0.003385
0.430481 0.557588 0.003671
0.492479 0.557460 0.004029
0.544078 0.547068 0.004446
0.592722 0.536117 0.005005
0.639054 0.525281 0.005560
0.683268 0.514696 0.006278
0.726082 0.504797 0.007065
0.767896 0.495702 0.007894
0.807381 0.487134 0.042604
-0.004043 0.615591 0.069596
0.003606 0.615920 0.004152
0.111032 0.615911 0.004192
0.176188 0.615903 0.004244
0.238668 0.615912 0.004384
0.300220 0.615876 0.004577
0.361361 0.615831 0.004857
0.422318 0.615827 0.005146
0.483158 0.615784 0.005470
0.543968 0.615696 0.005983
0.592509 0.603450 0.006498
0.638835 0.591167 0.007115
0.683102 0.579367 0.007789
0.725988 0.568227 0.008587
0.767836 0.557996 0.009413
0.807381 0.548255 0.042602
-0.004494 0.670552 0.068217
0.005146 0.670788 0.005934
0.108803 0.670778 0.005983
0.172653 0.670791 0.006063
0.233858 0.670761 0.006187
0.294167 0.670679 0.006353
0.354130 0.670674 0.006597
0.413824 0.670738 0.006922
0.473450 0.670750 0.007289
0.532988 0.670635 0.007745
0.592455 0.670628 0.008269
0.638688 0.657071 0.008871
0.682931 0.643900 0.009556
0.725833 0.631542 0.010278
0.767695 0.620112 0.011118
0.807381 0.609368 0.042582
-0.004942 0.722875 0.066841
0.006896 0.722990 0.007954
0.106590 0.722979 0.007997
0.169105 0.722958 0.008082
0.229054 0.722924 0.008207
0.288154 0.722983 0.008410
0.346827 0.722953 0.008655
0.405345 0.722880 0.008945
0.463729 0.722885 0.009310
0.522053 0.722872 0.009762
0.580331 0.722915 0.010255
0.638554 0.722820 0.010844
0.682934 0.708603 0.011488
0.725804 0.694920 0.012223
0.767661 0.682344 0.012993
0.807381 0.670439 0.042576
-0.005396 0.772926 0.065502
0.008871 0.773007 0.010225
0.104517 0.773003 0.010255
0.165754 0.772996 0.010330
0.224504 0.773028 0.010465
0.282414 0.773011 0.010653
0.339925 0.772989 0.010879
0.397251 0.773015 0.011187
0.454502 0.772985 0.011521
0.511666 0.772966 0.011952
0.568782 0.772930 0.012445
0.625870 0.772893 0.012987
0.682811 0.772956 0.013604
0.725839 0.758044 0.014296
0.767584 0.744574 0.015052
0.807381 0.731513 0.042564
-0.005836 0.821480 0.064242
0.010989 0.821613 0.012667
0.102585 0.821645 0.012701
0.162603 0.821638 0.012767
0.220204 0.821628 0.012889
0.276960 0.821614 0.013069
0.333380 0.821596 0.013298
0.389636 0.821573 0.013568
0.445718 0.821548 0.013904
0.501831 0.821615 0.014306
0.557768 0.821585 0.014774
0.613828 0.821602 0.015283
0.669652 0.821567 0.015897
0.725822 0.821534 0.016535
0.767459 0.806759 0.017264
0.807381 0.792572 0.042546
-0.006278 0.868719 0.063081
0.013224 0.868867 0.015240
0.100853 0.868864 0.015266
0.159757 0.868859 0.015335
0.216255 0.868850 0.015455
0.272003 0.868839 0.015616
0.327348 0.868823 0.015840
0.382603 0.868805 0.016100
0.437696 0.868783 0.016410
0.492766 0.868759 0.016795
0.547765 0.868729 0.017234
0.602721 0.868701 0.017730
0.657659 0.868734 0.018300
0.712657 0.868702 0.018911
0.767443 0.868707 0.019600
0.807381 0.853562 0.042520
-0.006735 0.913900 0.061962
0.036920 0.913900 0.042544
0.102522 0.913900 0.042544
0.158718 0.913900 0.042544
0.213602 0.913900 0.042544
0.267988 0.913900 0.042543
0.322198 0.913900 0.042544
0.376276 0.913900 0.042543
0.430321 0.913900 0.042534
0.484359 0.913900 0.042529
0.538340 0.913900 0.042527
0.592326 0.913900 0.042521
0.646192 0.913900 0.042512
0.700163 0.913900 0.042510
0.754042 0.913900 0.042505
0.807381 0.913900 0.042496
0.034438 0.034438 0.088726
0.052446 0.032621 0.105585
0.109451 -0.000612 0.126120
0.180669 -0.000855 0.138789
0.249837 -0.001115 0.143953
0.316176 -0.001377 0.145743
0.378979 -0.001640 0.145577
0.437584 -0.001910 0.144068
0.492379 -0.002180 0.141842
0.543837 -0.002446 0.139243
0.592372 -0.002720 0.136516
0.638587 -0.002986 0.133774
0.682747 -0.003256 0.131131
0.725761 -0.003532 0.128624
0.767416 -0.003803 0.126319
0.807381 -0.004070 0.124116
0.055560 0.063923 0.090250
0.049594 0.050747 0.094084
0.114121 0.035866 0.131493
0.188585 0.026067 0.137667
0.257736 0.017301 0.138486
0.322885 0.011135 0.137704
0.384372 0.007058 0.136083
0.441844 0.004447 0.133826
0.495832 0.002871 0.131247
0.546595 0.002060 0.128508
0.594722 0.001682 0.125777
0.640498 0.001694 0.123101
0.684442 0.002060 0.120568
0.727021 0.002601 0.118198
0.768610 0.003331 0.116029
0.807381 0.041892 0.118156
0.070075 0.120342 0.121916
0.072252 0.121818 0.123407
0.114382 0.122818 0.124171
0.186145 0.120761 0.122921
0.259095 0.115474 0.117546
0.329228 0.106033 0.107936
0.393486 0.095125 0.096838
0.451578 0.085001 0.086530
0.505186 0.076330 0.077697
0.555211 0.069166 0.070399
0.602473 0.063318 0.064453
0.647420 0.058616 0.059668
0.690630 0.054841 0.055823
0.732840 0.051836 0.052766
0.773805 0.049474 0.050355
0.807381 0.123888 0.126111
-0.001369 0.204528 0.138788
0.010439 0.206154 0.132329
0.099277 0.206898 0.114392
0.181207 0.205123 0.110073
0.256371 0.205046 0.103550
0.326192 0.201997 0.095711
0.390390 0.197145 0.087524
0.448986 0.191407 0.079829
0.503164 0.185568 0.072943
0.553702 0.179985 0.067041
0.601326 0.174794 0.062082
0.646587 0.170009 0.057973
0.689982 0.165725 0.054614
0.732199 0.161888 0.051898
0.773480 0.158481 0.049739
0.807381 0.184007 0.126103
-0.001817 0.282800 0.143951
0.004784 0.284114 0.134543
0.081708 0.286665 0.094142
0.176187 0.285471 0.091324
0.250598 0.283676 0.087286
0.321408 0.282819 0.082443
0.386437 0.279022 0.077224
0.445828 0.273357 0.072040
0.500685 0.266932 0.067179
0.551888 0.260327 0.062799
0.599893 0.253857 0.058975
0.645506 0.247717 0.055709
0.689176 0.242006 0.052968
0.731655 0.236777 0.050708
0.772890 0.232081 0.048890
0.807381 0.244613 0.126102
-0.002261 0.357922 0.145740
0.002330 0.358921 0.135091
0.067336 0.361704 0.077592
0.170816 0.360996 0.076066
0.246721 0.360008 0.073847
0.316915 0.358720 0.071060
0.382681 0.355512 0.067909
0.442736 0.349575 0.064649
0.498251 0.342349 0.061423
0.549816 0.334574 0.058389
0.598294 0.326869 0.055628
0.644292 0.319359 0.053198
0.688123 0.312287 0.051105
0.730770 0.305739 0.049327
0.772297 0.299837 0.047882
0.807381 0.305364 0.126100
-0.002702 0.429031 0.145573
0.001489 0.429732 0.134365
0.057201 0.432189 0.065911
0.166079 0.431878 0.065087
0.242015 0.431269 0.063865
0.312009 0.430517 0.062271
0.379574 0.429707 0.060421
0.440115 0.423328 0.058417
0.496043 0.415248 0.056362
0.547989 0.406380 0.054353
0.596852 0.397366 0.052461
0.642983 0.388495 0.050747
0.687182 0.380168 0.049231
0.729890 0.372363 0.047935
0.771550 0.365248 0.046862
0.807381 0.366207 0.126097
-0.003160 0.495330 0.144062
0.001596 0.495832 0.132664
0.050250 0.497963 0.057900
0.161636 0.497700 0.057444
0.236753 0.497416 0.056748
0.305899 0.496983 0.055839
0.372607 0.496425 0.054753
0.438044 0.495864 0.053540
0.494183 0.486869 0.052263
0.546415 0.476843 0.050978
0.595436 0.466588 0.049737
0.641846 0.456413 0.048587
0.686252 0.446811 0.047556
0.729180 0.437762 0.046661
0.770953 0.429520 0.045911
0.807381 0.427068 0.126093
-0.003606 0.557390 0.141834
0.002411 0.557770 0.130416
0.045512 0.559531 0.052447
0.157528 0.559389 0.052190
0.231372 0.559182 0.051797
0.299260 0.558897 0.051281
0.364822 0.558558 0.050634
0.429145 0.558267 0.049917
0.492740 0.557786 0.049146
0.545134 0.546624 0.048357
0.594300 0.535058 0.047588
0.640921 0.523636 0.046863
0.685345 0.512678 0.046197
0.728346 0.502466 0.045627
0.770219 0.493075 0.045163
0.807381 0.487969 0.126082
-0.004043 0.615591 0.139236
0.003606 0.615917 0.127937
0.042356 0.617416 0.048807
0.153644 0.617261 0.048668
0.226026 0.617144 0.048441
0.292510 0.617026 0.048148
0.356742 0.616780 0.047798
0.419782 0.616519 0.047375
0.482232 0.616241 0.046932
0.544151 0.615941 0.046468
0.593386 0.603110 0.046021
0.640068 0.590329 0.045597
0.684568 0.578201 0.045219
0.727603 0.566705 0.044898
0.769569 0.556243 0.044647
0.807381 0.548929 0.126077
-0.004494 0.670552 0.136504
0.005166 0.670785 0.125367
0.040338 0.672020 0.046482
0.150022 0.671885 0.046403
0.220860 0.671877 0.046288
0.285916 0.671816 0.046130
0.348780 0.671623 0.045942
0.410556 0.671491 0.045722
0.471624 0.671258 0.045472
0.532283 0.671009 0.045238
0.592641 0.670840 0.045010
0.639398 0.656802 0.044792
0.683951 0.643274 0.044613
0.727057 0.630672 0.044481
0.769063 0.619048 0.044405
0.807381 0.609839 0.126082
-0.004942 0.722875 0.133760
0.006909 0.722987 0.122820
0.039160 0.724080 0.045122
0.146655 0.724068 0.045081
0.215943 0.724013 0.045034
0.279605 0.723884 0.044952
0.341096 0.723800 0.044869
0.401508 0.723659 0.044761
0.461322 0.723486 0.044667
0.520690 0.723399 0.044572
0.579906 0.723383 0.044488
0.638780 0.723065 0.044431
0.683336 0.708272 0.044393
0.726619 0.694417 0.044393
0.768548 0.681738 0.044440
0.807381 0.670802 0.126074
-0.005396 0.772926 0.131112
0.008881 0.773006 0.120432
0.038608 0.773996 0.044489
0.143595 0.773978 0.044472
0.211404 0.773906 0.044463
0.273697 0.773820 0.044435
0.333916 0.773745 0.044424
0.393008 0.773616 0.044402
0.451617 0.773548 0.044392
0.509823 0.773585 0.044393
0.567720 0.773366 0.044406
0.625473 0.773225 0.044441
0.682920 0.773017 0.044507
0.726214 0.757952 0.044615
0.768192 0.744081 0.044754
0.807381 0.731719 0.126068
-0.005852 0.821480 0.128607
0.011004 0.821612 0.118204
0.038549 0.822420 0.044425
0.140804 0.822381 0.044430
0.207191 0.822383 0.044434
0.268234 0.822297 0.044453
0.327198 0.822186 0.044478
0.385201 0.822168 0.044504
0.442588 0.822109 0.044547
0.499597 0.822007 0.044612
0.556373 0.821906 0.044696
0.612961 0.821816 0.044810
0.669415 0.821735 0.044950
0.725790 0.821646 0.045125
0.767916 0.806681 0.045324
0.807381 0.792760 0.126060
-0.006278 0.868719 0.126299
0.013224 0.868866 0.116216
0.038883 0.869460 0.044807
0.138334 0.869524 0.044822
0.203396 0.869468 0.044846
0.263287 0.869491 0.044882
0.321132 0.869486 0.044937
0.378020 0.869365 0.044999
0.434331 0.869323 0.045094
0.490323 0.869307 0.045199
0.546031 0.869259 0.045314
0.601665 0.869162 0.045472
0.657015 0.869054 0.045676
0.712390 0.868995 0.045869
0.767576 0.868872 0.046142
0.807381 0.853613 0.126051
-0.006735 0.913900 0.124094
0.036920 0.913900 0.118135
0.109406 0.913900 0.126061
0.162530 0.913900 0.126060
0.216085 0.913900 0.126060
0.269767 0.913900 0.126060
0.323507 0.913900 0.126058
0.377282 0.913900 0.126058
0.431120 0.913900 0.126056
0.484931 0.913900 0.126055
0.538728 0.913900 0.126053
0.592609 0.913900 0.126051
0.646433 0.913900 0.126048
0.700253 0.913900 0.126046
0.754084 0.913900 0.126042
0.807381 0.913900 0.126050
0.056846 0.056846 0.146451
0.067712 0.056019 0.159417
0.115043 0.045510 0.192133
0.180669 -0.000920 0.208189
0.249837 -0.001156 0.215924
0.316176 -0.001412 0.218628
0.378979 -0.001670 0.218356
0.437584 -0.001934 0.216086
0.492379 -0.002197 0.212747
0.543837 -0.002467 0.208867
0.592372 -0.002732 0.204765
0.638587 -0.002997 0.200663
0.682747 -0.003266 0.196691
0.725761 -0.003540 0.192927
0.767416 -0.003810 0.189502
0.807381 -0.004070 0.186190
0.074116 0.081409 0.140977
0.066345 0.067025 0.154506
0.114940 0.057457 0.197847
0.187641 0.023655 0.216203
0.257036 0.016061 0.218738
0.322493 0.010507 0.218136
0.384140 0.006737 0.215825
0.441721 0.004283 0.212327
0.495779 0.002803 0.208279
0.546587 0.002015 0.203959
0.594592 0.001670 0.199598
0.640482 0.001694 0.195370
0.684413 0.002078 0.191342
0.727065 0.002614 0.187601
0.768590 0.003358 0.184148
0.807381 0.041891 0.182893
0.112164 0.132964 0.161324
0.112149 0.131834 0.164169
0.124148 0.128058 0.163447
0.185669 0.119664 0.213941
0.258931 0.114149 0.213679
0.328948 0.104647 0.210279
0.393137 0.094054 0.204273
0.451309 0.084246 0.197358
0.504973 0.075813 0.190570
0.555083 0.068790 0.184324
0.602306 0.063060 0.178672
0.647370 0.058431 0.173604
0.690590 0.054714 0.169068
0.732730 0.051748 0.165035
0.773711 0.049402 0.161498
0.807381 0.123888 0.187318
0.115674 0.198658 0.201247
0.116489 0.199883 0.202514
0.138438 0.201336 0.203906
0.188804 0.202733 0.204964
0.255542 0.201739 0.205368
0.325728 0.197729 0.201283
0.391324 0.192136 0.195572
0.452902 0.183396 0.186683
0.509598 0.172908 0.176008
0.561598 0.162133 0.165031
0.609863 0.151919 0.154648
0.655261 0.142597 0.145148
0.698638 0.134274 0.136683
0.740495 0.126929 0.129202
0.781364 0.120517 0.122681
0.807381 0.204505 0.208181
0.041199 0.282429 0.216419
0.035195 0.283721 0.213793
0.080848 0.286253 0.203904
0.172279 0.285160 0.198538
0.250381 0.283432 0.195383
0.322527 0.280368 0.190115
0.389596 0.274859 0.182888
0.450987 0.267287 0.174398
0.507282 0.258767 0.165292
0.559260 0.249963 0.156219
0.607694 0.241386 0.147562
0.653560 0.233336 0.139526
0.696963 0.225932 0.132230
0.739295 0.219262 0.125679
0.780357 0.213335 0.119907
0.807381 0.258562 0.208180
-0.002277 0.357922 0.218625
0.002292 0.358880 0.214373
0.066885 0.361463 0.197259
0.157194 0.362286 0.181150
0.241957 0.360915 0.177510
0.317168 0.359029 0.172642
0.385396 0.353720 0.166754
0.447201 0.346001 0.160181
0.503884 0.337203 0.153184
0.556269 0.328028 0.146147
0.605064 0.318982 0.139323
0.651227 0.310283 0.132853
0.695083 0.302159 0.126857
0.737536 0.294736 0.121372
0.778907 0.288015 0.116421
0.807381 0.315456 0.208178
-0.002714 0.429031 0.218351
0.001489 0.429746 0.213252
0.056952 0.432051 0.191560
0.139784 0.434149 0.161070
0.231211 0.433201 0.158496
0.308108 0.431877 0.155063
0.380051 0.430180 0.150910
0.442762 0.422061 0.146225
0.500111 0.412526 0.141186
0.552980 0.402423 0.135977
