lut/da7ce7bc-1a14-40a9-a10a-be88eb159fee.cube
TITLE "Cool Night Cinematic"
LUT_3D_SIZE 6
0.000000 0.000000 0.000000
0.180669 -0.000813 -0.000813
0.378979 -0.001627 -0.001627
0.543837 -0.002440 -0.002440
0.682747 -0.003256 -0.003256
0.807381 -0.004056 -0.004056
-0.001345 0.204528 -0.001345
0.180670 0.204528 -0.001502
0.378978 0.214508 -0.001996
0.543837 0.205185 -0.002665
0.682747 0.193232 -0.003411
0.807381 0.182897 -0.004179
-0.002702 0.429031 -0.002702
0.189504 0.429031 -0.002762
0.378976 0.429031 -0.003007
0.543836 0.410397 -0.003438
0.682747 0.386486 -0.004000
0.807381 0.365809 -0.004635
-0.004043 0.615591 -0.004043
0.181260 0.615591 -0.004084
0.362538 0.615591 -0.004231
0.543835 0.615591 -0.004518
0.682746 0.579745 -0.004900
0.807381 0.548774 -0.005415
-0.005396 0.772926 -0.005396
0.170706 0.772926 -0.005415
0.341382 0.772925 -0.005524
0.512128 0.772925 -0.005717
0.682745 0.772925 -0.006015
0.807381 0.731582 -0.006397
-0.006735 0.913900 -0.006735
0.161572 0.913900 -0.006762
0.323181 0.913900 -0.006816
0.484788 0.913900 -0.006975
0.646357 0.913900 -0.007203
0.807381 0.913900 -0.007516
0.056846 0.056846 0.146451
0.180669 -0.000920 0.208189
0.378979 -0.001670 0.218356
0.543837 -0.002467 0.208867
0.682747 -0.003266 0.196691
0.807381 -0.004070 0.186190
0.115674 0.198658 0.201247
0.188804 0.202733 0.204964
0.391324 0.192136 0.195572
0.561598 0.162133 0.165031
0.698638 0.134274 0.136683
0.807381 0.204505 0.208181
-0.002714 0.429031 0.218351
0.139784 0.434149 0.161070
0.380051 0.430180 0.150910
0.552980 0.402423 0.135977
0.693029 0.373428 0.121038
0.807381 0.373777 0.208175
-0.004056 0.615591 0.208857
0.103413 0.619601 0.119154
0.349127 0.618356 0.116097
0.544553 0.616440 0.110995
0.687275 0.576450 0.104928
0.807381 0.552360 0.208161
-0.005396 0.772926 0.196693
0.085997 0.775426 0.099087
0.323178 0.775124 0.098134
0.506580 0.774389 0.096407
0.683268 0.773486 0.094190
0.807381 0.733016 0.208139
-0.006735 0.913900 0.186165
0.180630 0.913900 0.208154
0.330152 0.913900 0.208152
0.487973 0.913900 0.208148
0.647546 0.913900 0.208141
0.807381 0.913900 0.208132
0.119248 0.119248 0.307199
0.181590 0.112960 0.365595
0.378979 -0.001838 0.436728
0.543837 -0.002562 0.417772
0.682747 -0.003340 0.393392
0.807381 -0.004125 0.372396
0.192367 0.221322 0.312505
0.214343 0.220616 0.327412
0.390777 0.186879 0.450268
0.560556 0.158157 0.418953
0.697898 0.132300 0.385118
0.807381 0.204505 0.380458
0.242641 0.416735 0.422145
0.263149 0.421057 0.426507
0.396078 0.425300 0.429963
0.555495 0.421046 0.428589
0.700461 0.407518 0.414811
0.807381 0.429025 0.436721
-0.004111 0.615591 0.417769
0.102472 0.619154 0.403022
0.352906 0.620687 0.406641
0.545028 0.616902 0.395369
0.695262 0.582830 0.378132
0.807381 0.579527 0.436717
-0.005433 0.772926 0.393386
0.085699 0.775483 0.372584
0.306241 0.780255 0.352890
0.501189 0.778032 0.345219
0.684298 0.774582 0.334228
0.807381 0.744112 0.436711
-0.006762 0.913900 0.372384
0.180630 0.913900 0.380433
0.379010 0.913900 0.436708
0.511965 0.913900 0.436707
0.657347 0.913900 0.436705
0.807381 0.913900 0.436703
0.171119 0.171119 0.440823
0.203811 0.168617 0.479849
0.346254 0.136988 0.578352
0.543837 -0.002750 0.626611
0.682747 -0.003472 0.590133
0.807381 -0.004231 0.558632
0.223099 0.245026 0.424334
0.238575 0.243962 0.460600
0.352531 0.219214 0.585238
0.558573 0.151043 0.643667
0.696544 0.128636 0.596009
0.807381 0.204503 0.562262
0.337615 0.400221 0.485612
0.344997 0.401215 0.493438
0.420349 0.434382 0.513276
0.554446 0.418277 0.638846
0.700154 0.404058 0.607912
0.807381 0.429025 0.589910
0.348170 0.597930 0.605776
0.355347 0.600876 0.608711
0.444125 0.605910 0.613605
0.568299 0.610263 0.616915
0.693621 0.609721 0.620660
0.807381 0.615589 0.626608
0.112734 0.771839 0.591549
0.121744 0.774381 0.585372
0.304168 0.779498 0.580011
0.525832 0.777416 0.605901
0.683775 0.774033 0.599116
0.807381 0.759345 0.626607
-0.006816 0.913900 0.558629
0.180629 0.913900 0.562258
0.379009 0.913900 0.589905
0.543831 0.913900 0.626606
0.670829 0.913900 0.626606
0.807381 0.913900 0.626605
0.214834 0.214834 0.553458
0.235006 0.213998 0.578346
0.327142 0.203491 0.658664
0.500259 0.132398 0.759888
0.682747 -0.003671 0.786744
0.807381 -0.004384 0.744744
0.251099 0.268816 0.536013
0.262284 0.266189 0.576609
0.337674 0.251643 0.670288
0.507636 0.191048 0.774852
0.694753 0.123601 0.800607
0.807381 0.204501 0.746152
0.346572 0.398735 0.562989
0.352141 0.398722 0.573831
0.434170 0.447337 0.600202
0.518737 0.435647 0.735828
0.699685 0.398197 0.806185
0.807381 0.429025 0.757416
0.453513 0.558377 0.647089
0.458934 0.558791 0.649581
0.513826 0.578441 0.660300
0.594692 0.615381 0.681100
0.690177 0.609649 0.790990
0.807381 0.615589 0.772972
0.437113 0.750674 0.760491
0.440849 0.752581 0.762414
0.492240 0.757974 0.767858
0.607218 0.762131 0.771561
0.713534 0.766132 0.774605
0.807381 0.772924 0.786740
0.216994 0.910095 0.747907
0.262082 0.910359 0.749180
0.405770 0.911303 0.759784
0.550579 0.912843 0.774168
0.682743 0.913900 0.786739
0.807381 0.913900 0.786727
0.254027 0.254027 0.654447
0.267943 0.253714 0.671644
0.330921 0.246506 0.740054
0.458476 0.224761 0.825113
0.639927 0.112153 0.917554
0.807381 -0.004589 0.930304
0.280095 0.294398 0.640742
0.301581 0.306271 0.656501
0.350465 0.302896 0.726946
0.464662 0.288654 0.817590
0.639834 0.227364 0.914377
0.807381 0.204498 0.930304
0.360384 0.404427 0.641914
0.376952 0.413517 0.645582
0.453901 0.467307 0.675190
0.510417 0.465863 0.785980
0.644794 0.445632 0.894569
0.807381 0.429024 0.930304
0.464367 0.544248 0.696534
0.475683 0.549506 0.699324
0.531947 0.582316 0.716669
0.607220 0.627440 0.742556
0.665736 0.632200 0.839728
0.807381 0.615589 0.930304
0.549849 0.702414 0.795050
0.560185 0.704809 0.795994
0.608470 0.720860 0.803027
0.677057 0.744446 0.812046
0.742975 0.769740 0.823732
0.803092 0.779029 0.892160
0.516890 0.887717 0.899295
0.529996 0.888258 0.899805
0.588638 0.890628 0.902184
0.670964 0.894711 0.906016
0.757450 0.899881 0.910765
0.843678 0.906002 0.915938
