lut/e1c2d341-be7a-4eda-bc33-c9f5413c685d.cube
TITLE "Golden Cinematic Wedding"
LUT_3D_SIZE 6
-0.136226 -0.136226 -0.135278
0.166727 -0.132275 -0.124465
0.845403 -0.119703 -0.013601
0.998582 -0.114371 0.008032
0.998582 -0.114247 0.008033
0.998582 -0.114179 0.008028
-0.146498 0.091933 -0.145138
0.072614 0.075366 -0.142167
0.551654 -0.051121 -0.065743
1.005451 0.028012 0.007528
0.998582 0.029680 0.006153
0.998582 0.031195 0.006146
-0.145706 0.395449 -0.144148
-0.036377 0.443575 -0.144124
0.455720 0.404634 -0.144888
0.923184 0.250377 -0.069249
0.998623 -0.070685 0.013540
0.998634 0.027482 0.006351
-0.145497 0.746386 -0.144029
0.007602 0.813330 -0.144001
-0.128993 0.780585 -0.144108
0.816967 0.759968 -0.144335
0.999079 0.564060 -0.148019
1.000063 0.312440 -0.064272
-0.145410 0.953646 -0.143958
0.020994 0.958057 -0.143959
-0.061566 0.961287 -0.143952
0.608706 0.966802 -0.144371
0.973910 0.943574 -0.144368
0.990295 0.770030 -0.144353
-0.146205 0.996103 -0.145692
-0.105940 0.996124 -0.147075
-0.328989 0.996116 -0.149939
-0.366346 1.003569 -0.150199
0.708733 1.041892 -0.150459
0.953571 1.019365 -0.150461
-0.133726 -0.385662 0.130728
0.180312 -0.385555 0.062897
0.819616 -0.383051 0.094662
1.038643 -0.384489 0.128587
1.018800 -0.397859 0.128597
1.002605 -0.391414 0.128599
-0.146222 0.085105 0.121545
-0.070554 0.091780 0.098084
0.616734 -0.049161 0.065382
1.003569 0.027655 0.122777
0.998582 0.027524 0.121654
0.998582 0.027526 0.121654
-0.145260 0.416755 0.113164
0.016744 0.498450 -0.037102
0.446202 0.430232 -0.004747
0.953860 0.258729 -0.030887
0.998630 -0.069206 0.125396
0.998676 0.022874 0.121701
-0.145282 0.759358 -0.014745
0.027515 0.839247 -0.007260
-0.172274 0.797794 -0.005352
0.811853 0.770879 -0.005810
0.998961 0.571135 -0.010978
1.000072 0.349227 0.026755
-0.145310 0.952950 -0.006589
0.027406 0.957220 -0.006645
-0.042110 0.960035 -0.006672
0.585546 0.970875 -0.006970
0.972975 0.946817 -0.007200
0.988913 0.784479 -0.006206
-0.146585 0.993718 -0.090864
-0.095038 0.996266 -0.071967
-0.302331 0.995934 -0.034382
-0.375338 1.001497 -0.047656
0.678065 1.042145 -0.047687
0.953509 1.043555 -0.047709
-0.130827 -0.377162 0.498902
0.110336 -0.381815 0.405527
0.777844 -0.382107 0.254028
1.039167 -0.381943 0.126920
1.021331 -0.394826 0.127139
1.002665 -0.397860 0.127224
-0.143693 0.039664 0.462634
-0.087507 0.054244 0.434564
0.601469 -0.043801 0.344664
1.004829 0.027721 0.114239
0.998582 0.027524 0.121654
0.998581 0.027525 0.121654
-0.145100 0.435337 0.486102
0.027547 0.517641 0.465755
0.426472 0.452556 0.409918
1.002414 0.245065 0.180304
0.998656 -0.089608 0.128102
0.998740 -0.047302 0.125693
-0.145283 0.759558 0.467368
0.027512 0.831226 0.425715
-0.129250 0.805779 0.399059
0.820518 0.785009 0.169514
0.998451 0.599928 -0.009125
0.999963 0.451892 -0.013685
-0.145307 0.946839 0.440034
0.027413 0.950072 0.341683
-0.007680 0.950248 0.246218
0.528807 0.967073 0.081049
0.974492 0.950193 -0.007295
0.984860 0.831463 -0.006457
-0.146563 0.989030 0.189004
-0.057781 0.990589 -0.174154
-0.280079 0.990331 0.121806
-0.403237 0.995201 0.215839
0.663176 1.039929 0.047043
0.953645 1.045594 -0.047709
-0.143647 -0.368228 0.845120
-0.042897 -0.370082 0.743425
0.653082 -0.382533 0.642760
1.041961 -0.381309 0.233952
1.022370 -0.390919 -0.052083
1.002461 -0.397861 0.127084
-0.139697 0.088603 0.768051
0.013850 0.079152 0.765719
0.470388 -0.033585 0.685473
1.007652 0.023949 0.495879
0.998552 0.027556 0.117320
0.998582 0.027527 0.121654
-0.144877 0.360944 0.733762
0.027548 0.443869 0.728214
0.222133 0.428745 0.739161
1.005096 0.200051 0.711217
1.000151 -0.100576 0.332793
0.998661 -0.069502 0.126181
-0.145086 0.743132 0.740476
0.027442 0.808873 0.716366
-0.072198 0.790504 0.681999
0.788635 0.770335 0.694211
1.000018 0.632075 0.528815
1.000002 0.535496 0.241229
-0.145240 0.934365 0.694300
0.027378 0.947953 0.648894
-0.006641 0.946698 0.620783
0.258121 0.960993 0.581347
1.005773 0.947150 0.381589
0.998570 0.837967 0.242331
-0.145432 0.985298 0.513821
0.024637 0.986377 0.430487
-0.237758 0.986749 0.435043
-0.389529 0.989729 0.488123
0.632963 1.011506 0.496586
0.956690 1.045510 -0.095417
-0.144623 -0.366773 0.891726
0.023513 -0.367065 0.869872
0.462763 -0.369257 0.884586
1.047141 -0.380580 0.813271
1.026228 -0.387035 -0.194820
0.999778 -0.397862 -0.155998
-0.144644 0.154335 0.890495
0.027499 0.154329 0.892448
0.109155 0.074286 0.971136
1.000670 0.023259 0.863895
1.000096 0.024831 0.365018
0.999051 0.026739 0.161871
-0.144721 0.263899 0.865509
0.027508 0.338220 0.855933
-0.109896 0.408467 0.841644
0.885659 0.250026 1.000145
1.000003 -0.090419 0.745792
1.000003 0.110027 0.489897
-0.144954 0.636870 0.821757
0.027452 0.715621 0.813569
-0.005192 0.722813 0.812167
0.559864 0.695076 0.899943
1.000783 0.589219 0.804417
0.999979 0.584717 0.635573
-0.145121 0.877535 0.796757
0.027358 0.929039 0.793258
-0.006536 0.929617 0.794053
-0.160195 0.932033 0.804577
0.983136 0.919898 0.828213
1.000005 0.851526 0.737404
-0.145291 0.982240 0.752430
0.026290 0.982951 0.703870
-0.180951 0.983405 0.679758
-0.378127 0.983657 0.654336
0.514025 1.004706 0.707299
0.994996 1.046049 0.610277
-0.144592 -0.366135 0.903063
0.027196 -0.366221 0.880717
0.315209 -0.366548 0.875436
1.033499 -0.379558 1.027932
1.035338 -0.383505 0.543121
1.001557 -0.396692 0.368458
-0.144650 0.154577 0.888712
0.027501 0.154799 0.890678
-0.165114 0.154566 0.882596
0.807161 -0.025710 1.002983
1.000003 0.022946 0.828186
1.000003 0.023782 0.620036
-0.144669 0.172318 0.882397
0.027505 0.250050 0.868077
-0.005192 0.329655 0.857282
0.585517 0.272979 1.001488
1.001224 -0.036006 1.002067
1.000003 -0.065734 0.803976
-0.144855 0.471461 0.841105
0.027491 0.570514 0.827803
-0.004474 0.605172 0.823072
0.210582 0.633919 0.886863
1.003905 0.576109 1.000973
1.000002 0.500982 0.819425
-0.145043 0.757756 0.808478
0.027425 0.816058 0.802329
-0.005852 0.827918 0.801146
-0.082763 0.841826 0.799401
0.825491 0.847195 0.900353
1.000006 0.822023 0.845245
-0.145191 0.944085 0.793981
0.027365 0.942746 0.794262
-0.006688 0.942307 0.794262
-0.006688 0.942334 0.794264
-0.033693 0.955604 0.831913
1.007678 0.972314 0.909107
