lut/e1c2d341-be7a-4eda-bc33-c9f5413c685d.cube
TITLE "Golden Cinematic Wedding"
LUT_3D_SIZE 16
-0.136226 -0.136226 -0.135278
-0.128879 -0.136226 -0.135278
-0.091761 -0.136753 -0.136436
0.166727 -0.132275 -0.124465
0.420152 -0.128518 -0.094126
0.652604 -0.124855 -0.051393
0.845403 -0.119703 -0.013601
1.002329 -0.115309 0.008553
0.999463 -0.114311 0.008365
0.998582 -0.114371 0.008032
0.998582 -0.114309 0.008033
0.998582 -0.114277 0.008033
0.998582 -0.114247 0.008033
0.998582 -0.114227 0.008027
0.998582 -0.114198 0.008028
0.998582 -0.114179 0.008028
-0.136226 -0.128879 -0.135278
-0.128879 -0.128879 -0.135278
-0.088999 -0.129696 -0.136375
0.177668 -0.118960 -0.123993
0.430901 -0.113353 -0.092613
0.663972 -0.110627 -0.047919
0.855442 -0.106959 0.012008
1.008217 -0.103882 0.011762
1.001335 -0.103827 0.008672
0.998545 -0.104564 0.008147
0.998582 -0.105068 0.008068
0.998582 -0.105474 0.008031
0.998582 -0.105762 0.008032
0.998582 -0.106004 0.008025
0.998582 -0.106217 0.008026
0.998582 -0.106578 0.008026
-0.135409 -0.063420 -0.134302
-0.128680 -0.064643 -0.134303
-0.080729 -0.067414 -0.135155
0.140290 0.032058 -0.125214
0.298905 0.036470 -0.112001
0.507158 0.041632 -0.077133
0.720011 0.043908 -0.036089
0.926949 0.044842 0.018795
1.012449 0.046521 0.010974
1.001092 0.040668 0.006644
0.998629 0.037979 0.008266
0.998582 0.034435 0.008167
0.998582 0.029565 0.008168
0.998582 0.023168 0.008163
0.998582 0.010465 0.008163
0.998582 -0.024955 0.008164
-0.146498 0.091933 -0.145138
-0.133388 0.087313 -0.145139
0.024746 0.117267 -0.145520
0.072614 0.075366 -0.142167
0.232646 0.044296 -0.130953
0.381040 -0.066212 -0.101443
0.551654 -0.051121 -0.065743
0.725829 -0.026516 -0.034157
0.901044 0.022694 0.011247
1.005451 0.028012 0.007528
0.999461 0.028831 0.006380
0.998582 0.029209 0.006153
0.998582 0.029680 0.006153
0.998582 0.030164 0.006146
0.998582 0.030716 0.006146
0.998582 0.031195 0.006146
-0.145820 0.198387 -0.144221
-0.131031 0.193237 -0.144222
0.043521 0.236514 -0.144292
-0.059759 0.206336 -0.144792
0.202789 0.193857 -0.146178
0.349063 0.165934 -0.142485
0.508216 0.116722 -0.110936
0.662922 -0.079483 -0.047644
0.815532 -0.065551 0.022290
0.976272 -0.032543 0.016397
1.001813 0.026132 0.007148
0.998535 0.027489 0.006371
0.998575 0.027482 0.006355
0.998581 0.027482 0.006355
0.998582 0.027482 0.006356
0.998581 0.027482 0.006356
-0.145799 0.288491 -0.144184
-0.132068 0.281527 -0.144186
0.048962 0.350989 -0.144161
-0.065233 0.316119 -0.144162
0.140999 0.299258 -0.144440
0.318985 0.290823 -0.145292
0.478286 0.252615 -0.147942
0.636575 0.214358 -0.120607
0.791604 0.151734 -0.059070
0.939419 -0.097022 0.036776
1.004211 -0.070361 0.018904
0.998683 -0.028842 0.007904
0.998585 0.027482 0.006356
0.998529 0.027482 0.006356
0.998572 0.027482 0.006357
0.998574 0.027482 0.006348
-0.145706 0.395449 -0.144148
-0.133533 0.388064 -0.144151
0.050357 0.469213 -0.144114
-0.036377 0.443575 -0.144124
-0.106001 0.425154 -0.144146
0.243936 0.413294 -0.144328
0.455720 0.404634 -0.144888
0.618194 0.355175 -0.147234
0.773602 0.309643 -0.137476
0.923184 0.250377 -0.069249
1.005542 0.131846 0.040079
0.998860 -0.116078 0.027537
0.998623 -0.070685 0.013540
0.998642 -0.028066 0.007402
0.998633 0.027482 0.006349
0.998634 0.027482 0.006351
-0.145619 0.514591 -0.144103
-0.134805 0.508476 -0.144106
0.050749 0.580713 -0.144078
-0.006428 0.577401 -0.144075
-0.065254 0.559854 -0.144075
-0.097955 0.548361 -0.144182
0.377706 0.540729 -0.144326
0.592173 0.533626 -0.144585
0.751887 0.483760 -0.146117
0.900925 0.430235 -0.147822
1.006264 0.357828 -0.105190
1.000786 0.251023 -0.021060
0.999911 0.120399 0.037725
0.998665 -0.114312 0.025832
0.998598 -0.073801 0.013204
0.998632 -0.060781 0.009385
-0.145550 0.635877 -0.144060
-0.135782 0.632488 -0.144061
0.051097 0.678409 -0.144050
-0.004222 0.706876 -0.144039
-0.027814 0.688989 -0.144043
-0.119753 0.678962 -0.144037
0.270493 0.670232 -0.144295
0.520857 0.663803 -0.144328
0.714622 0.656482 -0.144369
0.860170 0.610307 -0.145217
0.993152 0.557049 -0.147633
1.002148 0.465077 -0.144108
1.000213 0.353439 -0.097352
1.000119 0.242531 -0.013416
0.999864 0.098271 0.037031
0.999857 0.143348 0.023549
-0.145497 0.746386 -0.144029
-0.136467 0.745541 -0.144029
0.051033 0.738088 -0.144028
0.007602 0.813330 -0.144001
-0.005501 0.796310 -0.144004
-0.073081 0.787677 -0.143998
-0.128993 0.780585 -0.144108
0.446362 0.773652 -0.144342
0.641433 0.770062 -0.144334
0.816967 0.759968 -0.144335
0.956838 0.720347 -0.144477
1.000992 0.660111 -0.145527
0.999079 0.564060 -0.148019
1.000199 0.448880 -0.142870
1.000154 0.314763 -0.072126
1.000063 0.312440 -0.064272
-0.145454 0.837256 -0.144000
-0.136882 0.837256 -0.144000
0.034379 0.831957 -0.144002
0.014063 0.899139 -0.143978
-0.005963 0.884614 -0.143982
-0.030772 0.877257 -0.143981
-0.146656 0.871620 -0.143981
0.351129 0.866192 -0.144277
0.581690 0.860263 -0.144348
0.747927 0.855335 -0.144341
0.909652 0.842259 -0.144347
0.996076 0.800082 -0.144347
0.993439 0.728387 -0.144525
0.997207 0.637681 -0.145834
0.999762 0.513339 -0.147961
0.999897 0.481169 -0.149062
-0.145429 0.915545 -0.143976
-0.137148 0.915545 -0.143976
-0.017496 0.912405 -0.143977
0.018293 0.952036 -0.143958
-0.006482 0.945365 -0.143959
-0.007915 0.942604 -0.143961
-0.105814 0.940089 -0.143947
0.222469 0.937467 -0.144166
0.503191 0.933909 -0.144342
0.688518 0.929741 -0.144358
0.839042 0.925490 -0.144352
0.975645 0.909945 -0.144355
0.984779 0.855236 -0.144351
0.989259 0.784109 -0.144348
0.995208 0.687074 -0.144343
0.997009 0.639740 -0.144341
-0.145410 0.953646 -0.143958
-0.137363 0.953646 -0.143958
-0.036655 0.952556 -0.143958
0.020994 0.958057 -0.143959
-0.006643 0.957155 -0.143960
-0.006655 0.958365 -0.143959
-0.061566 0.961287 -0.143952
-0.145912 0.965382 -0.144005
0.407968 0.970803 -0.144278
0.608706 0.966802 -0.144371
0.774869 0.959656 -0.144361
0.917217 0.955301 -0.144368
0.973910 0.943574 -0.144368
0.978044 0.900519 -0.144359
0.986097 0.821592 -0.144356
0.990295 0.770030 -0.144353
-0.145379 0.956277 -0.143958
-0.137544 0.956277 -0.143958
-0.045912 0.956178 -0.143958
0.023030 0.955869 -0.143958
-0.006625 0.955710 -0.143959
-0.006627 0.955852 -0.143959
-0.021893 0.957696 -0.143957
-0.117643 0.960586 -0.143933
0.246938 0.964644 -0.144171
0.488787 0.974063 -0.144333
0.669935 1.006614 -0.144375
0.828417 1.004898 -0.144373
0.966181 1.008628 -0.144376
0.962534 0.957290 -0.144377
0.974297 0.924783 -0.144372
0.980806 0.874944 -0.144368
-0.145358 0.955721 -0.143964
-0.137707 0.955721 -0.143964
-0.052961 0.955721 -0.143964
0.024905 0.955721 -0.143964
-0.006625 0.955710 -0.143964
-0.006625 0.955627 -0.143965
-0.006633 0.956537 -0.143964
-0.063446 0.958803 -0.143956
-0.144710 0.961831 -0.144002
0.350867 0.965228 -0.144245
0.542838 0.988568 -0.144359
0.713545 1.001181 -0.144379
0.876099 1.000886 -0.144379
0.968289 1.005713 -0.144383
0.959101 0.964558 -0.144384
0.965915 0.945008 -0.144382
-0.146205 0.996103 -0.145692
-0.138765 0.996103 -0.145692
-0.073049 0.996152 -0.146018
-0.105940 0.996124 -0.147075
-0.183852 0.996086 -0.148484
-0.261074 0.996054 -0.149510
-0.328989 0.996116 -0.149939
-0.372865 0.997705 -0.150025
-0.393030 1.000220 -0.150026
-0.366346 1.003569 -0.150199
0.197282 1.006673 -0.150351
0.496086 1.043661 -0.150457
0.708733 1.041892 -0.150459
0.894725 1.042735 -0.150462
0.956288 1.045964 -0.150470
0.953571 1.019365 -0.150461
-0.135273 -0.386433 -0.123484
-0.128075 -0.386433 -0.123484
-0.083666 -0.386494 -0.124595
0.188864 -0.385333 -0.103904
0.443310 -0.384397 -0.064410
0.681860 -0.383565 0.045274
0.880920 -0.382649 0.056456
1.040214 -0.382286 0.057014
1.040806 -0.383069 0.057819
1.038640 -0.384499 0.057679
1.034691 -0.388723 0.057635
1.028061 -0.394993 0.057595
1.018796 -0.397859 0.057545
1.009309 -0.397859 0.057500
1.003865 -0.395750 0.057454
1.002605 -0.391414 0.057387
-0.136226 -0.128879 -0.125612
-0.128879 -0.128879 -0.125612
-0.089271 -0.129456 -0.126818
0.176819 -0.125188 -0.114769
0.429976 -0.121402 -0.083892
0.662744 -0.117631 -0.039183
0.853831 -0.112516 0.016425
1.006877 -0.108171 0.012944
1.000789 -0.107139 0.016351
0.998582 -0.107133 0.015851
0.998582 -0.107041 0.015836
0.998582 -0.106976 0.015874
0.998582 -0.106902 0.015903
0.998582 -0.106833 0.015929
0.998582 -0.106758 0.015954
0.998582 -0.106686 0.015975
-0.135278 -0.063420 -0.125077
-0.128407 -0.064763 -0.124783
-0.081100 -0.067343 -0.125499
0.145797 0.034666 -0.115391
0.312419 0.039965 -0.100895
0.525970 0.044287 -0.064112
0.741324 0.045739 -0.018962
0.954840 0.046493 0.016670
1.011950 0.046765 0.014561
1.001016 0.039012 0.016552
0.998620 0.036015 0.016282
0.998582 0.031482 0.016255
0.998582 0.026169 0.016253
0.998582 0.019136 0.016253
0.998582 -0.008983 0.016252
0.998582 -0.025212 0.016251
-0.146107 0.091933 -0.129342
-0.139613 0.087130 -0.135822
0.027855 0.119829 -0.135761
0.069461 0.075261 -0.132491
0.231325 0.031965 -0.120663
0.380176 -0.066107 -0.091236
0.551119 -0.050551 -0.055782
0.725842 -0.025888 -0.022530
0.902751 0.023090 0.012884
1.005524 0.027128 0.011915
0.999492 0.027815 0.012945
0.998582 0.028265 0.012733
0.998582 0.028728 0.012732
0.998582 0.029171 0.012729
0.998582 0.029655 0.012730
0.998582 0.030071 0.012728
-0.145248 0.198387 -0.126583
-0.139183 0.193378 -0.135103
0.046768 0.237009 -0.134547
-0.065057 0.206913 -0.135050
0.202702 0.193891 -0.136449
0.349242 0.164457 -0.132424
0.508577 0.114166 -0.100598
0.663469 -0.079736 -0.035468
0.816313 -0.065179 0.026007
0.976659 -0.032208 0.013480
1.001781 0.024645 0.013564
0.998534 0.026193 0.013116
0.998573 0.026173 0.013086
0.998579 0.026174 0.013084
0.998581 0.026174 0.013081
0.998581 0.026174 0.013081
-0.145255 0.288491 -0.127608
-0.139191 0.282107 -0.135049
0.051508 0.347258 -0.134420
-0.064699 0.317208 -0.134422
0.138344 0.299396 -0.134696
0.319002 0.290881 -0.135561
0.478389 0.251917 -0.138061
0.636675 0.213490 -0.110448
0.791641 0.150404 -0.047776
0.939698 -0.096927 0.034528
1.004205 -0.070472 0.019468
0.998680 -0.029791 0.013469
0.998581 0.026185 0.013104
0.998538 0.026186 0.013102
0.998570 0.026185 0.013102
0.998574 0.026185 0.013099
-0.145259 0.395449 -0.128985
-0.139195 0.389233 -0.134905
0.052278 0.461322 -0.134381
-0.035935 0.445152 -0.134384
-0.106044 0.425252 -0.134397
0.242594 0.413303 -0.134589
0.455756 0.404678 -0.135150
0.618262 0.354605 -0.137450
0.773732 0.308953 -0.127305
0.923287 0.249652 -0.058376
1.005534 0.130739 0.039574
0.998856 -0.116049 0.026335
0.998679 -0.070895 0.015888
0.998639 -0.029153 0.013345
0.998631 0.026185 0.013099
0.998634 0.026184 0.013099
-0.145265 0.514591 -0.130170
-0.139200 0.510398 -0.134757
0.052261 0.563479 -0.134349
-0.005947 0.579410 -0.134342
-0.064728 0.560019 -0.134340
-0.101652 0.548407 -0.134445
0.376971 0.540751 -0.134586
0.592202 0.533659 -0.134849
0.751993 0.483430 -0.136348
0.901006 0.429715 -0.137863
1.006279 0.357286 -0.094990
1.000783 0.250518 0.024224
0.999907 0.119830 0.036647
0.998664 -0.114378 0.024925
0.998598 -0.074076 0.015708
0.998632 -0.061202 0.013958
-0.145272 0.635877 -0.131045
-0.139148 0.634131 -0.134631
0.052716 0.647709 -0.134320
0.006847 0.708625 -0.134299
-0.027302 0.689165 -0.134304
-0.119290 0.678985 -0.134292
0.268949 0.670245 -0.134550
0.520475 0.663801 -0.134590
0.714649 0.656507 -0.134631
0.860225 0.610156 -0.135465
0.993133 0.556834 -0.137804
1.002148 0.464535 -0.134087
1.000213 0.353026 -0.087189
1.000118 0.242283 0.026823
0.999861 0.097894 0.035339
0.999857 0.143327 0.024433
-0.145281 0.746386 -0.131740
-0.138987 0.746046 -0.134532
0.038970 0.739126 -0.134293
0.013328 0.813974 -0.134267
-0.005481 0.796373 -0.134273
-0.072620 0.787675 -0.134265
-0.131181 0.780543 -0.134368
0.445828 0.773684 -0.134604
0.641241 0.770087 -0.134595
0.816984 0.759982 -0.134596
0.956898 0.720247 -0.134739
1.001003 0.659953 -0.135767
0.999085 0.563894 -0.138175
1.000197 0.448630 -0.132867
1.000154 0.314650 -0.061680
1.000063 0.312445 -0.053712
-0.145291 0.837256 -0.132277
-0.138778 0.837256 -0.134450
0.012708 0.831942 -0.134264
0.017722 0.899276 -0.134245
-0.005965 0.884661 -0.134250
-0.030329 0.877343 -0.134247
-0.146478 0.871680 -0.134245
0.350435 0.866225 -0.134538
0.581428 0.860280 -0.134612
0.747726 0.855361 -0.134607
0.909662 0.842271 -0.134609
0.996085 0.800055 -0.134609
0.993457 0.728358 -0.134783
0.997234 0.637403 -0.136051
0.999762 0.513281 -0.138108
0.999896 0.481118 -0.139163
-0.145297 0.915545 -0.132711
-0.138615 0.915546 -0.134388
-0.032940 0.912397 -0.134245
0.020448 0.952132 -0.134224
-0.006482 0.945421 -0.134228
-0.007766 0.942620 -0.134230
-0.105574 0.940083 -0.134214
0.221525 0.937479 -0.134432
0.502713 0.933901 -0.134606
0.688446 0.929643 -0.134621
0.839006 0.925467 -0.134621
0.975654 0.909951 -0.134623
0.984776 0.855190 -0.134620
0.989283 0.784070 -0.134616
0.995221 0.687006 -0.134609
0.997010 0.639740 -0.134607
-0.145311 0.953646 -0.133062
-0.138483 0.953646 -0.134337
-0.042958 0.952555 -0.134227
0.022395 0.958051 -0.134225
-0.006643 0.957151 -0.134226
-0.006655 0.958350 -0.134225
-0.061352 0.961254 -0.134217
-0.146266 0.965498 -0.134279
0.407642 0.970808 -0.134538
0.608647 0.966774 -0.134636
0.774719 0.959672 -0.134632
0.917151 0.955270 -0.134634
0.973916 0.943581 -0.134634
0.978053 0.900490 -0.134627
0.986104 0.821532 -0.134621
0.990296 0.770022 -0.134618
-0.145312 0.956277 -0.133382
-0.138361 0.956277 -0.134312
-0.049508 0.956178 -0.134231
0.023941 0.955869 -0.134231
-0.006626 0.955711 -0.134232
-0.006627 0.955839 -0.134232
-0.021727 0.957679 -0.134230
-0.117515 0.960563 -0.134209
0.246583 0.964620 -0.134442
0.488519 0.973974 -0.134595
0.669724 1.006619 -0.134638
0.828259 1.004899 -0.134636
0.966185 1.008629 -0.134640
0.962534 0.957295 -0.134640
0.974303 0.924776 -0.134635
0.980807 0.874933 -0.134631
-0.145313 0.955721 -0.133689
-0.138233 0.955721 -0.134285
-0.054920 0.955721 -0.134239
0.025404 0.955721 -0.134239
-0.006626 0.955710 -0.134239
-0.006625 0.955628 -0.134239
-0.006634 0.956524 -0.134239
-0.063380 0.958794 -0.134229
-0.144695 0.961829 -0.134276
0.350797 0.965221 -0.134514
0.542843 0.988527 -0.134629
0.713356 1.001184 -0.134641
0.876127 1.000886 -0.134642
0.968282 1.005713 -0.134645
0.959101 0.964560 -0.134647
0.965916 0.945006 -0.134644
-0.146188 0.996103 -0.138879
-0.138868 0.996103 -0.138995
-0.072683 0.996152 -0.139209
-0.101396 0.996126 -0.139724
-0.176080 0.996089 -0.140252
-0.251873 0.996057 -0.141015
-0.321664 0.996122 -0.142215
-0.369303 0.997708 -0.143389
-0.392272 1.000219 -0.143813
-0.366377 1.003569 -0.143398
0.197404 1.006678 -0.142576
0.496058 1.043662 -0.142057
0.708697 1.041892 -0.141793
0.894705 1.042735 -0.141617
0.956288 1.045964 -0.141470
0.953571 1.019365 -0.141362
-0.135270 -0.386433 -0.045880
-0.128062 -0.386433 -0.045852
-0.082208 -0.386494 -0.048989
0.185919 -0.385317 0.055597
0.421867 -0.384570 0.059910
0.653067 -0.383528 0.081502
0.855052 -0.382851 0.105954
1.031695 -0.382391 0.127930
1.041347 -0.383059 0.134610
1.038640 -0.384494 0.125898
1.034691 -0.388724 0.103941
1.028062 -0.394993 0.097062
1.018798 -0.397859 0.092516
1.009310 -0.397859 0.089164
1.003866 -0.395750 0.086258
1.002605 -0.391414 0.082496
-0.136226 -0.128879 -0.062973
-0.128879 -0.128879 -0.062973
-0.090544 -0.129248 -0.065287
0.163961 -0.124493 0.029835
0.399870 -0.121150 0.037043
0.625814 -0.116760 0.068777
0.822151 -0.112828 0.097312
0.996229 -0.107994 0.121165
0.999952 -0.106486 0.127938
0.998582 -0.106620 0.092560
0.998582 -0.106622 0.084972
0.998582 -0.106623 0.080021
0.998582 -0.106622 0.076250
0.998582 -0.106625 0.073218
0.998582 -0.106627 0.070457
0.998582 -0.106631 0.066606
-0.135278 -0.064619 -0.065620
-0.128063 -0.064358 -0.064742
-0.085010 -0.063936 -0.064239
0.185007 -0.057085 -0.051895
0.438377 -0.048500 -0.022613
0.673614 -0.040651 -0.024292
0.867199 -0.033300 0.022474
1.019280 -0.027339 0.055152
1.008912 -0.026600 0.059342
1.000778 -0.027100 0.061332
0.998589 -0.027147 0.063451
0.998582 -0.027163 0.064299
0.998582 -0.027174 0.064832
0.998582 -0.027175 0.065215
0.998582 -0.027179 0.065544
0.998582 -0.027182 0.065806
-0.146107 0.097357 0.024839
-0.138703 0.098998 0.032788
-0.078624 0.090004 -0.074758
-0.033633 0.082658 -0.069623
0.212326 -0.055701 -0.054325
0.367174 -0.063601 -0.023118
0.548080 -0.045360 0.007063
0.731289 -0.018760 0.010055
0.911935 0.024880 0.045141
1.006050 0.027353 0.064912
0.999369 0.027561 0.065107
0.998583 0.027523 0.064824
0.998582 0.027525 0.064822
0.998582 0.027526 0.064818
0.998582 0.027526 0.064818
0.998582 0.027526 0.064811
-0.145248 0.205516 0.001723
-0.137966 0.207321 0.027734
-0.065821 0.194938 -0.074417
-0.079031 0.213522 -0.071898
0.202194 0.194078 -0.073196
0.350273 0.157087 -0.067353
0.510107 0.101741 -0.032574
0.665555 -0.080527 0.017972
0.819257 -0.063807 0.034517
0.978324 -0.031903 0.056709
1.001630 0.022594 0.066028
0.998529 0.022897 0.064936
0.998574 0.022876 0.064918
0.998579 0.022875 0.064916
0.998581 0.022876 0.064916
0.998582 0.022876 0.064913
-0.145256 0.301131 -0.002057
-0.137970 0.302710 0.027699
-0.062977 0.282544 -0.074310
-0.058422 0.325588 -0.071305
0.124754 0.299937 -0.071584
0.319095 0.291125 -0.072368
0.478777 0.248549 -0.073742
0.637103 0.208949 -0.044227
0.791924 0.144198 0.020452
0.941352 -0.105041 0.014785
1.004100 -0.069278 0.067871
0.998668 -0.030853 0.065562
0.998574 0.022881 0.064918
0.998536 0.022890 0.064919
0.998570 0.022890 0.064913
0.998573 0.022890 0.064911
-0.145260 0.411930 -0.002693
-0.137975 0.412920 0.027664
-0.062798 0.387667 -0.074281
-0.022745 0.453188 -0.071274
-0.105357 0.425855 -0.071278
0.236105 0.413512 -0.071477
0.455936 0.404867 -0.071982
0.618642 0.352215 -0.073717
0.774033 0.306040 -0.061333
0.923644 0.246493 0.024252
1.005545 0.122198 0.017153
0.998880 -0.115292 0.068877
0.998670 -0.070720 0.066818
0.998634 -0.030610 0.065533
0.998630 0.022882 0.064909
0.998634 0.022882 0.064902
-0.145266 0.531217 -0.003508
-0.137981 0.530362 0.027611
-0.062816 0.506219 -0.074249
0.027638 0.585128 -0.071246
-0.062337 0.560730 -0.071247
-0.116276 0.548774 -0.071331
0.373878 0.540831 -0.071481
0.592328 0.533808 -0.071741
0.752190 0.481906 -0.072850
0.901265 0.427678 -0.072973
1.006301 0.355097 -0.028387
1.000775 0.248477 0.015753
0.999922 0.112343 0.011958
0.998658 -0.114024 0.068789
0.998595 -0.073968 0.067391
0.998630 -0.061134 0.067331
-0.145272 0.649510 0.007728
-0.137991 0.642099 0.028682
-0.062841 0.628069 -0.074080
0.027600 0.711850 -0.071218
-0.024832 0.689624 -0.071223
-0.117212 0.679221 -0.071213
0.262183 0.670332 -0.071451
0.518891 0.663843 -0.071505
0.714712 0.656597 -0.071548
0.860490 0.609368 -0.072225
0.993251 0.555582 -0.073817
1.002143 0.463177 -0.068962
1.000214 0.351873 -0.018428
1.000116 0.241322 0.015383
0.999833 0.088534 0.020118
0.999884 0.140034 0.014116
-0.145281 0.745496 0.013790
-0.138000 0.745801 -0.030168
-0.062875 0.739571 -0.073652
0.027535 0.815261 -0.071211
-0.005412 0.796787 -0.071213
-0.070633 0.787821 -0.071210
-0.139840 0.780772 -0.071301
0.443081 0.773815 -0.071532
0.640323 0.770157 -0.071523
0.817021 0.760049 -0.071530
0.956975 0.719929 -0.071668
1.000983 0.659293 -0.072473
0.999127 0.563125 -0.074067
1.000193 0.447905 -0.067625
1.000153 0.314301 0.028383
1.000064 0.312476 0.026268
-0.145291 0.837256 -0.038011
-0.138008 0.837256 -0.044749
-0.062901 0.831893 -0.073126
0.027472 0.899927 -0.071203
-0.005969 0.884971 -0.071211
-0.028368 0.877546 -0.071210
-0.145600 0.871788 -0.071199
0.347284 0.866287 -0.071478
0.580144 0.860340 -0.071555
0.747329 0.855325 -0.071555
0.909711 0.842312 -0.071564
0.996148 0.799880 -0.071561
0.993496 0.727964 -0.071709
0.997245 0.637143 -0.072604
0.999764 0.512985 -0.073917
0.999901 0.481019 -0.074495
-0.145297 0.915545 -0.048502
-0.138019 0.915546 -0.052485
-0.062936 0.912367 -0.072692
0.027413 0.952237 -0.071201
-0.006486 0.945493 -0.071204
-0.007187 0.942613 -0.071208
-0.104559 0.940027 -0.071194
0.217648 0.937317 -0.071394
0.501407 0.933964 -0.071562
0.687748 0.929680 -0.071580
0.838696 0.925497 -0.071587
0.975686 0.909972 -0.071594
0.984780 0.855089 -0.071585
0.989307 0.783779 -0.071576
0.995228 0.686733 -0.071559
0.997020 0.639661 -0.071555
-0.145311 0.953646 -0.055097
-0.138029 0.953646 -0.057708
-0.062965 0.952591 -0.072339
0.027405 0.958037 -0.071210
-0.006644 0.957141 -0.071210
-0.006657 0.958302 -0.071212
-0.060475 0.961234 -0.071204
-0.147841 0.965478 -0.071258
0.406333 0.970850 -0.071515
0.607824 0.966834 -0.071611
0.774307 0.959718 -0.071608
0.917011 0.955323 -0.071618
0.973929 0.943593 -0.071618
0.978110 0.900480 -0.071604
0.986141 0.821370 -0.071595
0.990304 0.770097 -0.071589
-0.145312 0.956277 -0.060008
-0.138033 0.956277 -0.061752
-0.062982 0.956178 -0.072045
0.027413 0.955869 -0.071222
-0.006627 0.955715 -0.071227
-0.006629 0.955814 -0.071229
-0.021018 0.957783 -0.071229
-0.117003 0.960495 -0.071212
0.245195 0.964528 -0.071428
0.487853 0.973807 -0.071578
0.669442 1.006639 -0.071626
0.827988 1.004905 -0.071632
0.966177 1.008629 -0.071639
0.962537 0.957301 -0.071641
0.974310 0.924766 -0.071627
0.980813 0.874954 -0.071619
-0.145313 0.955721 -0.064292
-0.138035 0.955721 -0.065353
-0.063006 0.955721 -0.071734
0.027419 0.955721 -0.071239
-0.006628 0.955712 -0.071240
-0.006627 0.955630 -0.071242
-0.006635 0.956477 -0.071236
-0.063110 0.958762 -0.071233
-0.144690 0.961799 -0.071281
0.350326 0.965328 -0.071505
0.542479 0.988076 -0.071617
0.713140 1.001202 -0.071640
0.875868 1.000886 -0.071648
0.968334 1.005713 -0.071655
0.959100 0.964561 -0.071662
0.965922 0.944990 -0.071650
-0.146440 0.996131 -0.083400
-0.139354 0.996132 -0.082784
-0.074557 0.996134 -0.081109
-0.095899 0.996122 -0.077206
-0.166736 0.996092 -0.075481
-0.240272 0.996009 -0.076607
-0.310014 0.996126 -0.079137
-0.361414 0.997709 -0.081801
-0.389839 1.000216 -0.083449
-0.366503 1.003569 -0.084035
0.196840 1.006671 -0.084164
0.495943 1.043671 -0.084255
0.708713 1.041892 -0.084263
0.894712 1.042735 -0.084273
0.956290 1.045964 -0.084282
0.953571 1.019366 -0.084285
-0.133726 -0.385662 0.130728
-0.120367 -0.385584 0.131817
-0.047571 -0.385759 0.114606
0.180312 -0.385555 0.062897
0.395618 -0.384570 0.035993
0.620837 -0.383749 0.067534
0.819616 -0.383051 0.094662
1.003076 -0.382603 0.117873
1.043231 -0.383037 0.129318
1.038643 -0.384489 0.128587
1.034696 -0.388718 0.128590
1.028066 -0.394991 0.128595
1.018800 -0.397859 0.128597
1.009311 -0.397859 0.128598
1.003866 -0.395750 0.128599
1.002605 -0.391414 0.128599
-0.134766 -0.120139 0.123595
-0.128283 -0.126431 0.124908
-0.061812 -0.126091 0.109738
0.161576 -0.125542 0.053273
0.374244 -0.121291 0.019710
0.593961 -0.117720 0.061090
0.785827 -0.113762 0.088735
0.966480 -0.108937 0.111957
1.002790 -0.106399 0.123149
0.998582 -0.106620 0.122106
0.998582 -0.106622 0.122106
0.998582 -0.106623 0.122106
0.998582 -0.106623 0.122106
0.998582 -0.106625 0.122106
0.998582 -0.106627 0.122106
0.998582 -0.106631 0.122106
-0.133272 0.028990 0.132027
-0.126116 0.033984 0.131731
-0.081176 -0.061714 0.128573
0.173956 -0.058972 0.047513
0.389148 -0.049506 0.017335
0.610719 -0.041350 0.063475
0.803003 -0.036039 0.091003
0.979475 -0.029781 0.113876
1.007480 -0.026351 0.123990
0.999373 -0.027127 0.122369
0.998582 -0.027155 0.122144
0.998582 -0.027163 0.122144
0.998582 -0.027175 0.122144
0.998582 -0.027175 0.122144
0.998582 -0.027179 0.122144
0.998582 -0.027182 0.122144
-0.146222 0.085105 0.121545
-0.138795 0.085488 0.122119
-0.075972 0.082956 0.126289
-0.070554 0.091780 0.098084
0.241254 -0.072925 -0.032036
0.418766 -0.069449 0.035446
0.616734 -0.049161 0.065382
0.800835 -0.018615 0.091169
0.979893 0.026277 0.113884
1.003569 0.027655 0.122777
0.998758 0.027537 0.121748
0.998582 0.027523 0.121654
0.998582 0.027524 0.121654
0.998582 0.027525 0.121654
0.998582 0.027525 0.121654
0.998582 0.027526 0.121654
-0.145248 0.203733 0.136067
-0.137966 0.203789 0.134647
-0.064638 0.199329 0.126251
-0.082441 0.236494 0.065740
0.187430 0.207769 -0.025740
0.360936 0.168796 -0.018150
0.539898 0.109862 -0.026601
0.704701 -0.093601 0.056426
0.865618 -0.065728 0.101586
1.001086 -0.031841 0.119898
0.999722 0.022908 0.122121
0.998568 0.022876 0.121701
0.998577 0.022875 0.121701
0.998581 0.022875 0.121701
0.998581 0.022875 0.121701
0.998578 0.022875 0.121701
