lut/eb22e103-dbcc-4aa2-9a7a-18908dc54fd5.cube
TITLE "Stylized Emerald Warmth"
LUT_3D_SIZE 17
0 0 0
0.111116 0 0
0.232883 0 0
0.33228 0 0
0.413779 0 0
0.488106 0 0
0.560967 0 0
0.63679 0 0
0.717388 0 0
0.801694 0 0
0.890074 0 0
0.98471 0 0
1 0 0
1 0 0
1 0 0
1 0 0
1 0 0
0 0.0773632 0.00648508
0.0325322 0.0543374 0.00514229
0.168994 0.0457923 0.00454719
0.325063 0.0294041 0.00335698
0.453956 0.00910964 0.00103761
0.539528 0 0
0.608484 0 0
0.6795 0 0
0.755291 0 0
0.834012 0 0
0.917433 0 0
0.996094 0 0
1 0 0
1 0 0
1 0.00105287 0.000122072
1 0.00886549 0.0010071
1 0.00653086 0.000747692
0 0.148577 0.00939956
0.000289921 0.113191 0.00814832
0.087129 0.10695 0.00787366
0.222843 0.096025 0.00741588
0.316548 0.0839399 0.00683604
0.415427 0.0669718 0.0059205
0.541726 0.044831 0.00447089
0.676295 0.0242771 0.00277714
0.805341 0.00781262 0.000900282
0.909483 0 0
0.994232 0 0
1 0 0
1 0.00444038 0.000503548
1 0.0224155 0.00256352
1 0.0406806 0.00418097
1 0.0571908 0.00535592
1 0.0584878 0.00544747
0 0.217273 0.0110475
0 0.179141 0.0102388
0 0.188205 0.0104677
0.146822 0.15642 0.00962844
0.264576 0.142916 0.00920119
0.342611 0.128832 0.00874342
0.416938 0.11548 0.00823987
0.503227 0.101793 0.00766003
0.625299 0.0841688 0.0068513
0.770535 0.0661326 0.00587472
0.919005 0.05066 0.00488289
1 0.0424659 0.00430304
1 0.0458991 0.00454719
1 0.0609903 0.00561532
1 0.080705 0.00665293
1 0.0995041 0.00756847
1 0.107073 0.00788891
0 0.289769 0.0119936
0 0.250996 0.0115663
0 0.218357 0.0110628
0 0.268498 0.0117952
0.196963 0.199954 0.0106966
0.290669 0.185306 0.0104067
0.368383 0.171893 0.0100557
0.443259 0.160052 0.00973526
0.5178 0.150149 0.00944533
0.601694 0.140627 0.0091249
0.726162 0.128954 0.00874342
0.874205 0.120638 0.0084535
1 0.120516 0.0084535
1 0.131472 0.00881971
1 0.147494 0.00935378
1 0.162463 0.00979629
1 0.172732 0.0100557
0 0.368856 0.0123293
0 0.32958 0.0122377
0 0.271778 0.0118257
0 0.271778 0.0118257
0 0.341283 0.0122835
0.239963 0.241047 0.011429
0.322957 0.227344 0.0112154
0.400076 0.216052 0.0110323
0.475334 0.206012 0.0108186
0.550607 0.197772 0.0106508
0.629648 0.192569 0.010544
0.721965 0.192813 0.010544
0.855116 0.198505 0.0106661
1 0.213031 0.0109712
1 0.232547 0.0112917
1 0.250385 0.0115663
1 0.263508 0.0117342
0 0.470848 0.0119173
0 0.419562 0.0122225
0 0.339818 0.0122835
0 0.310582 0.0121462
0 0.379477 0.012314
0 0.407706 0.0122683
0.282338 0.283803 0.0119478
0.363104 0.271412 0.0118257
0.439246 0.262303 0.0117189
0.514015 0.254154 0.0116121
0.59086 0.249546 0.0115511
0.675425 0.251118 0.0115816
0.774456 0.262547 0.0117189
0.887007 0.286366 0.0119631
1 0.314595 0.0121614
1 0.338598 0.0122835
1 0.356771 0.012314
0 0.603326 0.0102693
0 0.545235 0.0111238
0 0.427756 0.012192
0 0.366537 0.0123293
0 0.36202 0.012314
0 0.55555 0.0109865
0 0.470466 0.0119173
0.327077 0.329458 0.0122377
0.408759 0.318379 0.0121767
0.483894 0.311315 0.0121462
0.560922 0.307897 0.0121309
0.643732 0.310704 0.0121462
0.739757 0.32398 0.0122072
0.852064 0.349828 0.0122988
0.971618 0.383749 0.012314
0.99382 0.417609 0.0122377
0.990799 0.444511 0.0121004
0 0.733272 0.00767529
0 0.691264 0.00860609
0 0.561807 0.0108949
0 0.436683 0.0121462
0 0.407706 0.0122683
0 0.47538 0.0118715
0 0.722545 0.00791943
0.0370642 0.536156 0.0112459
0.375006 0.378256 0.012314
0.459739 0.369833 0.0123293
0.538293 0.368124 0.0123293
0.622583 0.373739 0.0123293
0.717647 0.38938 0.012314
0.82916 0.417365 0.0122377
0.949538 0.453208 0.0120394
0.987457 0.488228 0.0117647
0.986175 0.519478 0.0114443
0 0.827848 0.00527962
0 0.807248 0.00584421
0 0.733639 0.00766003
0 0.541314 0.0111696
0 0.469612 0.0119326
0 0.46154 0.0119936
0 0.74165 0.00747692
0 0.820813 0.00547799
0.185046 0.611444 0.010132
0.429923 0.434348 0.0121614
0.52221 0.432517 0.0121767
0.609827 0.441093 0.0121157
0.707027 0.460182 0.0120089
0.818524 0.490806 0.0117494
0.937163 0.526955 0.011368
0.985565 0.562188 0.0108949
0.985901 0.594598 0.0104067
0 0.923201 0.00248722
0 0.903181 0.00311284
0 0.860945 0.00434882
0 0.720088 0.00798047
0 0.554452 0.0110018
0 0.516655 0.0114748
0 0.593133 0.0104372
0 0.880568 0.00378424
0 0.910719 0.0028687
0.320134 0.697429 0.00846876
0.500725 0.506493 0.0115816
0.605081 0.515557 0.01149
0.707027 0.538613 0.0112154
0.818143 0.570291 0.0107729
0.934661 0.606027 0.0102235
0.987213 0.64094 0.00961318
0.988495 0.672312 0.00900282
0 1 0
0 0.998886 3.0518e-05
0 0.960784 0.00129702
0 0.895521 0.00334173
0 0.70013 0.00840772
0 0.597803 0.0103609
0.0129397 0.585763 0.0105592
0.0602274 0.883162 0.00370794
0 0.991958 0.000274662
0 0.991592 0.000274662
0.450385 0.791333 0.0062562
0.596902 0.604059 0.0102541
0.714794 0.62533 0.00988785
0.826276 0.657053 0.009308
0.939834 0.690776 0.00862135
0.990921 0.723415 0.00790417
0.992462 0.753597 0.007187
0 1 0
0 1 0
0 1 0
0 0.999634 1.5259e-05
0 0.895155 0.00334173
0 0.726238 0.00784314
3.0518e-05 0.666773 0.00910964
0.108141 0.760998 0.00700389
0 1 0
0 1 0
0.00454719 1 0
0.57438 0.890333 0.00349432
0.716197 0.725383 0.0078584
0.839399 0.750149 0.00727855
0.950103 0.780591 0.00653086
0.995224 0.810452 0.00576791
0.996124 0.831556 0.00517281
0 1 0
0 1 0
0 1 0
0 1 0
0 1 0
0 0.90454 0.00306706
0.00846876 0.792447 0.00622568
0.12549 0.774304 0.00668345
0.202564 1 0
0 1 0
0 1 0
0.12549 1 0
0.680415 0.980072 0.000656138
0.84184 0.853407 0.00456245
0.963485 0.874769 0.00395209
0.998581 0.901198 0.00317388
0.998718 0.905653 0.00303655
0 1 0
0 1 0
0 1 0
0 1 0
0 1 0
0 1 0
0.033402 0.951873 0.00158694
0.151904 0.891325 0.0034638
0.287999 0.967208 0.00108339
0.116106 1 0
0 1 0
0 1 0
0.271153 1 0
0.764157 1 0
0.96379 0.977844 0.000732433
0.999908 0.982803 0.000564584
0.999893 0.979461 0.000686656
0 1 0
0 1 0
0 1 0
0 1 0
0 1 0
0 1 0
0.0800336 1 0
0.195972 1 0
0.3149 1 0
0.350576 1 0
0.0261387 1 0
0 1 0
0 1 0
0.408286 1 0
0.844465 1 0
1 1 0
1 1 0
0 1 0
0 1 0
0 1 0
0 1 0
0 1 0
0 1 0
0.0087892 1 0
0.243122 1 0
0.369924 1 0
0.471122 1 0
0.287327 1 0
0 1 0
0 1 0
0 1 0
0.533562 1 0
0.921111 1 0
1 1 0
0 0 0.136828
0.104417 0 0.0917067
0.223911 0 0.0772412
0.333227 0 0.0681926
0.423041 0 0.0578012
0.498711 0 0.046479
0.569848 0 0.035935
0.641764 0 0.0251926
0.719509 0 0.0158541
0.800977 0 0.00791943
0.88629 0 0.00311284
0.979004 0 0.00410468
1 0 0.0125887
1 0 0.0247654
1 0 0.0370184
1 0 0.044358
1 0 0.0422217
0 0.0570687 0.0721141
0.0205844 0.0531777 0.0681163
0.15671 0.0455177 0.0588998
0.280064 0.0358434 0.0472877
0.376852 0.0249332 0.0334478
0.456687 0.0130007 0.0173495
0.532174 0.00105287 0.00138857
0.605982 0 0
0.684123 0 0
0.766857 0 0
0.852583 0 0
0.943969 0 0
1 0 0
1 0 0
1 0.0018616 0.00247196
1 0.0144961 0.0193637
1 0.0156405 0.0209049
0 0.116258 0.0500954
0 0.129793 0.00877394
0.0825818 0.109239 0.0418097
0.223239 0.0999771 0.0313725
0.355215 0.0814221 0.00669871
0.471977 0.0581369 0.00541695
0.557931 0.0413977 0.00422675
0.634104 0.0292973 0.00335698
0.713588 0.0203098 0.00231937
0.795453 0.013077 0.00149538
0.878996 0.00758373 0.000869764
0.965515 0.00665293 0.000762951
1 0.0131838 0.00151064
1 0.0284733 0.00325017
1 0.0480507 0.00469978
1 0.0663615 0.00588998
1 0.0771191 0.00646983
0 0.182528 0.0103304
0 0.198383 0.0106661
0.0151217 0.170336 0.0190585
0.156863 0.163439 0.00981155
0.269429 0.150744 0.00946059
0.345998 0.135576 0.00895705
0.438941 0.115358 0.00823987
0.561074 0.0912337 0.00721752
0.695216 0.0691234 0.00604257
0.824033 0.0517281 0.00495918
0.93106 0.0406806 0.00418097
0.999115 0.036408 0.00387579
1 0.0408026 0.00419623
1 0.0568246 0.0053254
1 0.0809491 0.00666819
1 0.104906 0.00779736
1 0.125933 0.00863661
0 0.253544 0.0116121
0 0.263996 0.0117342
0 0.231464 0.0112764
0 0.236683 0.011368
0.209644 0.210239 0.0109102
0.296468 0.194263 0.0105898
0.371725 0.177935 0.0102083
0.444358 0.162463 0.00979629
0.528664 0.147372 0.00935378
0.649882 0.129305 0.00875868
0.794736 0.110918 0.0080415
0.942748 0.0961471 0.00743114
1 0.0900282 0.00715648
1 0.0973526 0.00747692
1 0.118364 0.00836194
1 0.143893 0.00923171
1 0.167178 0.00991836
0 0.3308 0.0122377
0 0.335302 0.0122683
0 0.297551 0.0120546
0.0217746 0.270436 0.0118105
0 0.314107 0.0121614
0.250828 0.250507 0.0115663
0.328161 0.23389 0.0113222
0.402075 0.218967 0.0110781
0.475151 0.206241 0.0108339
0.548455 0.195468 0.010605
0.631464 0.185916 0.0104067
0.756634 0.174914 0.0101167
0.904723 0.168017 0.00993362
1 0.171527 0.0100252
1 0.187732 0.0104372
1 0.209155 0.0108949
1 0.229282 0.0112459
0 0.416129 0.0122377
0 0.415763 0.0122377
0 0.375204 0.0123293
0 0.320195 0.012192
0.00415045 0.319112 0.012192
0 0.387671 0.012314
0.288518 0.288914 0.0119783
0.365286 0.274205 0.0118563
0.43856 0.261936 0.0117037
0.511482 0.251728 0.0115816
0.585336 0.243351 0.0114748
0.664637 0.238376 0.0113985
0.759075 0.240314 0.011429
0.893446 0.248936 0.0115511
1 0.268254 0.01178
1 0.293782 0.0120241
1 0.316182 0.0121767
0 0.531502 0.0113069
0 0.523888 0.0113985
0 0.467781 0.0119478
0 0.385718 0.012314
0.00781262 0.357992 0.012314
0 0.42652 0.0122072
0 0.456764 0.0120241
0.328801 0.33019 0.0122377
0.407675 0.317525 0.0121767
0.480186 0.307774 0.0121309
0.553368 0.299748 0.0120699
0.630243 0.295857 0.0120394
0.71635 0.298528 0.0120546
0.818128 0.312764 0.0121614
0.934462 0.341527 0.0122835
0.999359 0.37496 0.0123293
0.99556 0.403906 0.0122835
0 0.677363 0.00889601
0 0.667399 0.00909438
0 0.602472 0.0102846
0 0.474388 0.0118868
0 0.412711 0.012253
0.0169833 0.40795 0.0122683
0 0.616114 0.0100404
0.00047303 0.522667 0.0114137
0.372808 0.375204 0.0123293
0.453513 0.363851 0.012314
0.527489 0.357137 0.012314
0.603861 0.354223 0.0122988
0.687831 0.35848 0.012314
0.787579 0.374716 0.0123293
0.903044 0.404761 0.0122835
0.990845 0.4439 0.0121004
0.987793 0.482841 0.0118105
0 0.806134 0.00587472
0 0.804532 0.0059205
0 0.759274 0.00704967
0 0.616846 0.0100404
0 0.482597 0.0118105
0.0028687 0.453574 0.0120394
0 0.52401 0.0113985
0 0.793805 0.00619516
0.112184 0.591043 0.0104677
0.420584 0.423957 0.0122072
0.505348 0.415763 0.0122377
0.583932 0.415152 0.0122377
0.669291 0.422126 0.0122225
0.767987 0.440604 0.0121309
0.883619 0.473045 0.011902
0.986374 0.513481 0.0115053
0.985595 0.553094 0.011017
0 0.902068 0.00314336
0 0.899474 0.00321965
0 0.878721 0.00384527
0 0.800824 0.00601205
0 0.591165 0.0104677
0 0.515435 0.01149
0.0270542 0.507347 0.0115816
0.00563058 0.810941 0.00575265
0 0.891936 0.00344854
0.257603 0.669612 0.0090486
0.476387 0.48101 0.0118257
0.569497 0.480156 0.011841
0.658671 0.490562 0.0117494
0.759777 0.512856 0.0115206
0.875151 0.547204 0.0110933
0.985763 0.587839 0.0105287
0.98674 0.627543 0.00984207
0 0.998398 6.10361e-05
0 0.994553 0.000183108
0 0.974502 0.000854505
0 0.932723 0.0021973
0 0.781826 0.00650034
0 0.602472 0.0102846
0 0.563165 0.0108797
0.022797 0.644755 0.00953689
0 0.951629 0.00158694
0 0.981933 0.000595102
0.39144 0.75903 0.00706493
0.549416 0.555306 0.0109865
0.656046 0.566598 0.0108339
0.761242 0.59263 0.0104524
0.876585 0.628275 0.00982681
0.988296 0.668009 0.00907912
0.990082 0.706538 0.00828565
0 1 0
0 1 0
0 1 0
0 1 0
0 0.966598 0.00111391
0 0.75668 0.0071107
0 0.646235 0.00950637
0.0658427 0.633814 0.00973526
0.15845 0.954101 0.00151064
0 1 0
0.0030518 1 0
0.521965 0.856489 0.00448615
0.649653 0.657176 0.009308
0.770932 0.681666 0.00880446
0.886168 0.716884 0.00805676
0.992477 0.753964 0.007187
0.994263 0.790097 0.00628672
0 1 0
0 1 0
0 1 0
0 1 0
0 1 0
0 0.962631 0.00123598
0 0.781094 0.0065156
0.0473945 0.717372 0.0080415
0.188296 0.818845 0.00552377
0.0564889 1 0
0 1 0
0.099321 1 0
0.646006 0.958556 0.00137331
0.774685 0.784421 0.00642405
0.900725 0.81181 0.00572213
0.996704 0.845502 0.00479133
0.997894 0.878355 0.00384527
0 1 0
0 1 0
0 1 0
0 1 0
0 1 0
0 1 0
0.00112917 0.968811 0.00103761
0.0725261 0.848463 0.00471504
0.201511 0.829572 0.00523384
0.312245 1 0
0.00605783 1 0
0 1 0
0.238636 1 0
0.757656 1 0
0.905333 0.91751 0.00267033
0.999466 0.941619 0.00192264
0.999847 0.970428 0.000976577
0 1 0
0 1 0
0 1 0
0 1 0
0 1 0
0 1 0
0.00657664 1 0
0.126711 1 0
0.231449 0.951019 0.00161746
0.376944 1 0
0.229465 1 0
0 1 0
0 1 0
0.376226 1 0
0.839536 1 0
1 1 0
1 1 0
0 1 0
0 1 0
0 1 0
0 1 0
0 1 0
0 1 0
0 1 0
0.194781 1 0
0.298924 1 0
0.410269 1 0
0.450904 1 0
0.142992 1 0
0 1 0
0.00300603 1 0
0.504921 1 0
0.916213 1 0
1 1 0
0 0 0.265812
0.103746 0 0.249653
0.219684 0 0.177539
0.327321 0 0.157534
0.425834 0 0.144961
0.511986 0 0.133608
0.588235 0 0.122316
0.662974 0 0.112428
0.740917 0 0.103563
0.821424 0 0.095491
0.90518 0 0.0901503
0.988632 0 0.0892348
1 0 0.0948348
1 0 0.106264
1 0 0.118334
1 0 0.129641
1 0 0.129503
0 0.0533761 0.160784
0.00355535 0.0450752 0.197986
0.143221 0.0395056 0.153323
0.266728 0.0332647 0.136965
0.37908 0.0233616 0.124681
0.473808 0.0115816 0.110582
0.556909 0 0.0964065
0.628107 0 0.0846723
0.703044 0 0.0747539
0.782788 0 0.0661936
0.864942 0 0.0594034
0.952972 0 0.0570077
1 0 0.0619364
1 0 0.0754101
1 0 0.0931411
1 0.00419623 0.110353
1 0.0121309 0.121187
0 0.112337 0.134432
0 0.11162 0.134279
0.0525826 0.111131 0.134386
0.198611 0.101686 0.123842
0.320531 0.0902113 0.11104
0.412772 0.0762951 0.0950484
0.488121 0.0607309 0.0771344
0.560891 0.0464637 0.0600443
0.637552 0.0347906 0.0460212
0.721309 0.0251621 0.033753
0.808682 0.0177157 0.0236973
0.898085 0.0133364 0.0178073
0.987976 0.014847 0.0198215
1 0.0257267 0.0345312
1 0.0444495 0.0576333
1 0.0639353 0.080827
1 0.0814069 0.100923
0 0.170764 0.111254
0 0.172564 0.113771
0 0.186175 0.0562295
0.134112 0.168841 0.109514
0.275029 0.157305 0.0978714
0.39649 0.135622 0.0525216
0.496208 0.109087 0.0105135
0.577829 0.0890822 0.0071107
0.653193 0.0749676 0.00634775
0.732464 0.0649271 0.00581369
0.814359 0.0571908 0.00535592
0.898512 0.052079 0.0049897
0.985382 0.0527962 0.00503548
1 0.0626688 0.00569161
1 0.0836805 0.00865187
1 0.109239 0.0415198
1 0.132143 0.0690776
0 0.225269 0.0821851
0 0.235126 0.0581064
0 0.249912 0.0115663
0.0640421 0.228046 0.0858778
0.21355 0.220447 0.0766613
0.318822 0.205402 0.0617075
0.38555 0.187152 0.041001
0.467887 0.164401 0.00984207
0.586908 0.137987 0.0090486
0.719387 0.114397 0.00819409
0.847059 0.0966354 0.0074464
0.953628 0.0856031 0.0069276
1 0.0821393 0.00672923
1 0.0894331 0.00712596
1 0.110307 0.00802625
1 0.140276 0.0091249
1 0.169833 0.0099794
0 0.280156 0.0339818
0 0.300954 0.0120851
0 0.310826 0.0121462
0 0.284291 0.0119478
0 0.285512 0.0119631
0.265568 0.264012 0.0323949
0.338567 0.246113 0.0140688
0.408362 0.2271 0.0112154
0.477195 0.209522 0.0108949
0.559518 0.193423 0.0105592
0.67921 0.174548 0.0101167
0.822782 0.155947 0.00961318
0.970214 0.142199 0.00918593
1 0.137865 0.00903334
1 0.149187 0.00941482
1 0.17612 0.0101472
1 0.206973 0.0108492
0 0.346532 0.0122988
0 0.376425 0.0123293
0 0.381064 0.012314
0 0.344579 0.0122988
0.099733 0.322881 0.0122072
0 0.359945 0.012314
0.30161 0.300954 0.0120851
0.372992 0.282597 0.0119326
0.441901 0.266178 0.0117647
0.511543 0.252216 0.0115816
0.5832 0.240925 0.011429
0.66598 0.231464 0.0112764
0.790784 0.220783 0.0111086
0.938277 0.215579 0.011017
1 0.222736 0.0111391
1 0.243839 0.0114748
1 0.271046 0.0118257
0 0.427375 0.012192
0 0.463249 0.0119783
0 0.462516 0.0119936
0 0.420905 0.0122225
0.00158694 0.368734 0.0123293
0.050782 0.366537 0.0123293
0 0.434226 0.0121614
0.33669 0.337011 0.0122683
0.410666 0.32105 0.012192
0.480049 0.308019 0.0121309
0.550973 0.297429 0.0120546
0.623682 0.288792 0.0119783
0.703304 0.284291 0.0119478
0.799298 0.287816 0.0119783
0.934783 0.299382 0.0120699
1 0.323735 0.0122072
1 0.354818 0.012314
0 0.537514 0.0112306
0 0.585885 0.0105592
0 0.577035 0.0106813
0 0.516167 0.0114748
0 0.431662 0.0121767
0.0672923 0.405737 0.0122835
0 0.473777 0.0118868
0 0.50576 0.0115969
0.37528 0.376547 0.0123293
0.452674 0.363485 0.012314
0.523384 0.353368 0.0122988
0.59501 0.345312 0.0122988
0.671717 0.341894 0.0122835
0.759991 0.346044 0.0122988
0.864073 0.363363 0.012314
0.98378 0.39646 0.0122988
0.991653 0.435203 0.0121614
0 0.698528 0.0084535
0 0.743008 0.0074464
0 0.731426 0.00772107
0 0.659648 0.00924697
0 0.521324 0.011429
0 0.458961 0.0120089
0.0805829 0.453941 0.0120394
0 0.677119 0.00889601
0.0337835 0.574578 0.0107118
0.418509 0.420905 0.0122225
0.498955 0.409781 0.0122683
0.571588 0.402808 0.0122988
0.647852 0.400488 0.0122988
0.733776 0.406485 0.0122835
0.8365 0.425177 0.0122072
0.955306 0.459693 0.0120089
0.986694 0.50428 0.0116121
0 0.856001 0.00448615
0 0.877363 0.00387579
0 0.875883 0.00392157
0 0.827482 0.00529488
0 0.671702 0.00900282
0 0.528435 0.0113527
0.0443732 0.499748 0.0116579
0 0.572488 0.0107424
0.000122072 0.864897 0.00424201
0.186114 0.646235 0.00950637
0.466194 0.469612 0.0119326
0.550912 0.461784 0.0119936
0.630014 0.461906 0.0119936
0.71693 0.470466 0.0119173
0.819135 0.491783 0.0117342
0.938399 0.528435 0.0113527
0.985656 0.573602 0.0107271
0 0.955718 0.00146487
0 0.973388 0.000885023
0 0.971038 0.000961318
0 0.950027 0.00164797
0 0.867979 0.00415045
0 0.640818 0.00961318
0 0.561318 0.0109102
0.0923781 0.553094 0.011017
0.0865339 0.880079 0.0037995
0 0.96289 0.00123598
0.327214 0.727596 0.00781262
0.522835 0.527565 0.0113527
0.616602 0.527443 0.0113527
0.70779 0.539727 0.0112001
0.812467 0.565133 0.0108492
0.931472 0.603326 0.0102693
0.987488 0.648692 0.00946059
0 1 0
0 1 0
0 1 0
0 1 0
0 1 0
0 0.843275 0.00485237
0 0.650538 0.00943008
0.0426947 0.609354 0.0101625
0.0981308 0.696193 0.00849927
0.0234073 1 0
0.00846876 1 0
0.460777 0.820203 0.00549325
0.597757 0.604059 0.0102541
0.706462 0.617334 0.0100252
0.815076 0.646235 0.00950637
0.934432 0.685847 0.0087129
0.991241 0.729702 0.00775158
0 1 0
0 1 0
0 1 0
0 1 0
0 1 0
0 1 0
0 0.812436 0.00570687
0.00241093 0.694347 0.00854505
0.133135 0.681788 0.00880446
0.25832 1 0
0.00740063 1 0
0.0916457 1 0
0.591089 0.920974 0.00256352
0.702022 0.710109 0.00820935
0.82652 0.737453 0.00758373
0.945449 0.776287 0.00663767
0.995499 0.816876 0.0055848
0 1 0
0 1 0
0 1 0
0 1 0
0 1 0
0 1 0
0 1 0
0.00267033 0.835248 0.00508125
0.12047 0.767529 0.0068513
0.263996 0.876371 0.00390631
0.172641 1 0
0.00653086 1 0
0.213931 1 0
0.719371 1 0
0.832563 0.842908 0.00486763
0.96202 0.873655 0.00399786
0.99881 0.909972 0.00289921
0 1 0
0 1 0
0 1 0
0 1 0
0 1 0
0 1 0
0 1 0
0.0680095 1 0
0.150851 0.90454 0.00306706
0.273182 0.88452 0.00366217
0.415229 1 0
0.106783 1 0
0.00891127 1 0
0.345571 1 0
0.833463 1 0
0.96846 0.981567 0.000610361
1 1 0
0 1 0
0 1 0
0 1 0
0 1 0
0 1 0
0 1 0
0 1 0
0.10927 1 0
0.229664 1 0
0.310155 1 0
0.469078 1 0
0.336675 1 0
0.0678111 1 0
0.0362554 1 0
0.475029 1 0
0.911696 1 0
1 1 0
0 0 0.391714
0.0707408 0 0.382437
0.23743 0 0.336568
0.324712 0 0.259098
0.423163 0 0.235477
0.515312 0 0.220233
0.599466 0 0.207843
0.679622 0 0.197055
0.760601 0 0.187747
0.842054 0 0.179675
0.924941 0 0.173388
1 0 0.171115
1 0 0.174899
1 0 0.184848
1 0 0.197436
1 0 0.209476
1 0 0.213855
0 0.0488746 0.269047
0 0.0360113 0.322087
0.149691 0.021149 0.305776
0.263523 0.0243534 0.234012
0.373968 0.0187686 0.212207
0.477333 0.00877394 0.196841
0.567575 0 0.182071
0.64509 0 0.170108
0.722652 0 0.159823
0.802792 0 0.150805
0.884443 0 0.143557
0.969894 0 0.139498
1 0 0.141268
1 0 0.151949
1 0 0.1691
1 0 0.186481
