lut/eb22e103-dbcc-4aa2-9a7a-18908dc54fd5.cube
TITLE "Stylized Emerald Warmth"
LUT_3D_SIZE 9
0 0 0
0.232883 0 0
0.413779 0 0
0.560967 0 0
0.717388 0 0
0.890074 0 0
1 0 0
1 0 0
1 0 0
0 0.148577 0.00939956
0.087129 0.10695 0.00787366
0.316548 0.0839399 0.00683604
0.541726 0.044831 0.00447089
0.805341 0.00781262 0.000900282
0.994232 0 0
1 0.00444038 0.000503548
1 0.0406806 0.00418097
1 0.0584878 0.00544747
0 0.289769 0.0119936
0 0.218357 0.0110628
0.196963 0.199954 0.0106966
0.368383 0.171893 0.0100557
0.5178 0.150149 0.00944533
0.726162 0.128954 0.00874342
1 0.120516 0.0084535
1 0.147494 0.00935378
1 0.172732 0.0100557
0 0.470848 0.0119173
0 0.339818 0.0122835
0 0.379477 0.012314
0.282338 0.283803 0.0119478
0.439246 0.262303 0.0117189
0.59086 0.249546 0.0115511
0.774456 0.262547 0.0117189
1 0.314595 0.0121614
1 0.356771 0.012314
0 0.733272 0.00767529
0 0.561807 0.0108949
0 0.407706 0.0122683
0 0.722545 0.00791943
0.375006 0.378256 0.012314
0.538293 0.368124 0.0123293
0.717647 0.38938 0.012314
0.949538 0.453208 0.0120394
0.986175 0.519478 0.0114443
0 0.923201 0.00248722
0 0.860945 0.00434882
0 0.554452 0.0110018
0 0.593133 0.0104372
0 0.910719 0.0028687
0.500725 0.506493 0.0115816
0.707027 0.538613 0.0112154
0.934661 0.606027 0.0102235
0.988495 0.672312 0.00900282
0 1 0
0 1 0
0 0.895155 0.00334173
3.0518e-05 0.666773 0.00910964
0 1 0
0.00454719 1 0
0.716197 0.725383 0.0078584
0.950103 0.780591 0.00653086
0.996124 0.831556 0.00517281
0 1 0
0 1 0
0 1 0
0.033402 0.951873 0.00158694
0.287999 0.967208 0.00108339
0 1 0
0.271153 1 0
0.96379 0.977844 0.000732433
0.999893 0.979461 0.000686656
0 1 0
0 1 0
0 1 0
0.0087892 1 0
0.369924 1 0
0.287327 1 0
0 1 0
0.533562 1 0
1 1 0
0 0 0.265812
0.219684 0 0.177539
0.425834 0 0.144961
0.588235 0 0.122316
0.740917 0 0.103563
0.90518 0 0.0901503
1 0 0.0948348
1 0 0.118334
1 0 0.129503
0 0.112337 0.134432
0.0525826 0.111131 0.134386
0.320531 0.0902113 0.11104
0.488121 0.0607309 0.0771344
0.637552 0.0347906 0.0460212
0.808682 0.0177157 0.0236973
0.987976 0.014847 0.0198215
1 0.0444495 0.0576333
1 0.0814069 0.100923
0 0.225269 0.0821851
0 0.249912 0.0115663
0.21355 0.220447 0.0766613
0.38555 0.187152 0.041001
0.586908 0.137987 0.0090486
0.847059 0.0966354 0.0074464
1 0.0821393 0.00672923
1 0.110307 0.00802625
1 0.169833 0.0099794
0 0.346532 0.0122988
0 0.381064 0.012314
0.099733 0.322881 0.0122072
0.30161 0.300954 0.0120851
0.441901 0.266178 0.0117647
0.5832 0.240925 0.011429
0.790784 0.220783 0.0111086
1 0.222736 0.0111391
1 0.271046 0.0118257
0 0.537514 0.0112306
0 0.577035 0.0106813
0 0.431662 0.0121767
0 0.473777 0.0118868
0.37528 0.376547 0.0123293
0.523384 0.353368 0.0122988
0.671717 0.341894 0.0122835
0.864073 0.363363 0.012314
0.991653 0.435203 0.0121614
0 0.856001 0.00448615
0 0.875883 0.00392157
0 0.671702 0.00900282
0.0443732 0.499748 0.0116579
0.000122072 0.864897 0.00424201
0.466194 0.469612 0.0119326
0.630014 0.461906 0.0119936
0.819135 0.491783 0.0117342
0.985656 0.573602 0.0107271
0 1 0
0 1 0
0 1 0
0 0.650538 0.00943008
0.0981308 0.696193 0.00849927
0.00846876 1 0
0.597757 0.604059 0.0102541
0.815076 0.646235 0.00950637
0.991241 0.729702 0.00775158
0 1 0
0 1 0
0 1 0
0 1 0
0.12047 0.767529 0.0068513
0.172641 1 0
0.213931 1 0
0.832563 0.842908 0.00486763
0.99881 0.909972 0.00289921
0 1 0
0 1 0
0 1 0
0 1 0
0.229664 1 0
0.469078 1 0
0.0678111 1 0
0.475029 1 0
1 1 0
0 0 0.515435
0.22295 0 0.481682
0.424826 0 0.337911
0.606485 0 0.295369
0.778073 0 0.272114
0.944854 0 0.256245
1 0 0.254627
1 0 0.275944
1 0 0.297337
0 0.100938 0.302419
0 0.0893873 0.380224
0.283604 0.0792554 0.295338
0.495674 0.0582742 0.254673
0.674479 0.0300603 0.22237
0.854795 0.0104677 0.199435
1 0 0.188113
1 0.0165255 0.210193
1 0.0576791 0.259464
0 0.214313 0.243137
0 0.22533 0.255879
0.144381 0.236469 0.26862
0.408957 0.204517 0.235187
0.551644 0.160113 0.18793
0.690486 0.125017 0.149783
0.866041 0.106233 0.128908
1 0.110063 0.133181
1 0.160845 0.188708
0 0.319692 0.182422
0 0.329656 0.19382
0 0.353155 0.0767834
0.33019 0.335851 0.200137
0.482048 0.291402 0.155581
0.654658 0.23154 0.0496376
0.904372 0.187121 0.0104219
1 0.174792 0.0101167
1 0.217334 0.0380865
0 0.426352 0.11986
0 0.438392 0.0636759
0 0.472801 0.011902
0.202029 0.427695 0.12256
0.402991 0.401663 0.0931716
0.530434 0.360525 0.0521401
0.662394 0.332311 0.0198978
0.867094 0.31252 0.0121614
1 0.324712 0.0122072
0 0.563607 0.05243
0 0.638987 0.0096437
0 0.683757 0.00875868
0 0.523644 0.0113985
0.0128328 0.567712 0.0108186
0.468055 0.46949 0.0119326
0.612192 0.444633 0.0121004
0.760189 0.433738 0.0121767
0.958877 0.463859 0.0119783
0 0.858228 0.0760662
0 0.99852 4.57771e-05
0 1 0
0 0.781094 0.0065156
0.170397 0.591043 0.0104677
0.169451 1 0
0.556542 0.560464 0.0109255
0.722332 0.554696 0.0110018
0.921096 0.593378 0.0104372
0 0.999802 0.018967
0 1 0
0 1 0
0 1 0
0.0139162 0.745464 0.00738537
0.238224 0.798489 0.00607309
0.232792 1 0
0.693721 0.700618 0.00840772
0.921981 0.753231 0.00720226
0 1 0
0 1 0
0 1 0
0 1 0
0.128954 1 0
0.255573 0.867353 0.00416571
0.387762 1 0
0.424155 1 0
0.948287 0.960037 0.00132753
0 0 0.758755
0.170352 0 0.737194
0.48838 0 0.645121
0.633402 0 0.493141
0.809308 0 0.44831
0.983413 0 0.425147
1 0 0.418463
1 0 0.435447
1 0 0.458717
0 0.0883803 0.508705
0 0.0635386 0.613092
0.315999 0.0340276 0.583337
0.507012 0.0373083 0.440101
0.704021 0.0202335 0.391684
0.896056 0.00268559 0.364324
1 0 0.349432
1 0 0.358633
1 0.0374151 0.405234
0 0.199786 0.395605
0 0.203784 0.410056
0.00077821 0.203708 0.499001
0.335302 0.193744 0.41593
0.539071 0.161715 0.36524
0.70808 0.122667 0.323629
0.894438 0.0986648 0.299107
1 0.0900282 0.291325
1 0.121935 0.327184
0 0.309468 0.340139
0 0.314946 0.346777
0 0.341146 0.374334
0.256092 0.364202 0.398672
0.504692 0.320058 0.354284
0.617609 0.260731 0.293721
0.744625 0.21709 0.248417
0.923079 0.196292 0.226505
1 0.206683 0.237476
0 0.419471 0.283711
0 0.414221 0.279652
0 0.434867 0.301335
0 0.457206 0.186526
0.449195 0.451865 0.318242
0.577691 0.396399 0.264439
0.731304 0.325505 0.152102
0.975021 0.277119 0.0819562
1 0.267033 0.0813153
0 0.537133 0.232944
0 0.518044 0.214542
0 0.5308 0.161212
0 0.564508 0.0108644
0.307073 0.532601 0.230503
0.504341 0.502876 0.198856
0.621698 0.454368 0.152667
0.744396 0.422568 0.119875
0.947951 0.403891 0.067689
0 0.691173 0.216571
0 0.657862 0.151308
0 0.739986 0.0370794
0 0.789609 0.00630198
0.0373541 0.615366 0.0100557
0.131197 0.661234 0.00921645
0.559594 0.56083 0.0824292
0.700984 0.5346 0.0596017
0.849485 0.524361 0.0491951
0 0.945251 0.276478
0 0.984817 0.203571
0 0.999252 0.0982223
0 1 0
0 0.889708 0.00350958
0.276753 0.681437 0.0303197
0.385412 1 0
0.645762 0.650172 0.00944533
0.814755 0.646723 0.00950637
0 0.998779 0.296971
0 0.998993 0.167834
0 1 0
0 1 0
0 1 0
0.136263 0.839826 0.00495918
0.365072 0.89984 0.00320439
0.441291 1 0
0.789197 0.797009 0.00610361
0 0 0.999298
0.117739 0 0.985153
0.473121 0 0.928115
0.707057 0 0.77554
0.848783 0 0.650111
1 0 0.606088
1 0 0.592096
1 0 0.602975
1 0 0.622446
0 0.0776684 0.743267
0 0.0429084 0.846708
0.290929 0.00802625 0.825696
0.619776 0 0.73518
0.758907 0 0.583597
0.930282 0 0.538277
1 0 0.51664
1 0 0.518563
1 0.0228122 0.557565
0 0.191821 0.569726
0 0.181216 0.604349
0 0.163317 0.715846
0.322713 0.137453 0.691539
0.52285 0.136736 0.545266
0.723934 0.11249 0.491646
0.923461 0.0907301 0.462684
1 0.078645 0.448493
1 0.0973373 0.468528
0 0.300862 0.495354
0 0.293919 0.491051
0 0.308675 0.515892
0.0106203 0.319646 0.614832
0.403296 0.309422 0.532509
0.590249 0.266423 0.472297
0.745724 0.216876 0.421393
0.936263 0.188891 0.393896
1 0.182483 0.388769
0 0.413687 0.443214
0 0.402426 0.433188
0 0.416739 0.448402
0.000213626 0.457389 0.48957
0.38822 0.492073 0.524636
0.608881 0.436561 0.470375
0.687449 0.361761 0.396216
0.800992 0.309102 0.343206
0.981674 0.287083 0.32076
0 0.536263 0.398779
0 0.511254 0.375387
0 0.509407 0.374563
0 0.5402 0.405798
0.009308 0.561227 0.291554
0.570321 0.568185 0.433036
0.673274 0.501076 0.369268
0.808392 0.419409 0.249073
0.997665 0.367147 0.177874
0 0.693477 0.386328
0 0.630121 0.32546
0 0.609613 0.306127
0 0.62269 0.254108
0 0.655375 0.0732586
0.414328 0.637125 0.334432
0.603967 0.603113 0.299428
0.712123 0.547906 0.247929
0.826093 0.512398 0.212726
0 0.911452 0.43003
0 0.792569 0.316457
0 0.751339 0.245075
0 0.83978 0.14139
0 0.894652 0.00335698
0.120806 0.705242 0.0912642
0.253941 0.753719 0.007187
0.650294 0.651759 0.176455
0.788602 0.623789 0.153216
0 0.998825 0.493141
0 0.998749 0.398398
0 0.998764 0.328969
0 0.99884 0.241199
0 0.999252 0.0987411
0.00337224 0.997284 9.15541e-05
0.358557 0.77052 0.124971
0.575784 1 0
0.734707 0.739376 0.0895857
0 0 1
0.0925612 0 1
0.45066 0 1
0.765713 0 1
0.923064 0 0.915206
1 0 0.815564
1 0 0.783337
1 0 0.783459
1 0 0.794324
0 0.0703746 0.987335
0 0.0292973 1
0.254459 0 1
0.604654 0 1
0.833829 0 0.863157
0.971069 0 0.738979
1 0 0.697826
1 0 0.692592
1 0.0152132 0.722866
0 0.189792 0.771618
0 0.167605 0.834836
0 0.134142 0.940429
0.296361 0.0999619 0.923629
0.646448 0.0782483 0.833326
0.77348 0.0887617 0.681651
0.960647 0.0776837 0.634607
1 0.0684367 0.613581
1 0.0837568 0.624918
0 0.299886 0.663279
0 0.283101 0.660868
0 0.275746 0.69865
0 0.264118 0.816098
0.330404 0.241962 0.796094
0.544884 0.237629 0.647334
0.747173 0.2065 0.5879
0.953506 0.181155 0.556176
1 0.169909 0.543496
0 0.415686 0.60708
0 0.392554 0.585855
0 0.389136 0.585016
0 0.413993 0.619287
0.0433356 0.436225 0.728115
0.490379 0.426032 0.64683
0.650187 0.371298 0.57641
0.788296 0.310872 0.516152
0.980728 0.279683 0.486107
0 0.547692 0.572641
0 0.505821 0.533272
0 0.495384 0.524361
0 0.518105 0.547555
0.030457 0.574136 0.602686
0.538674 0.620157 0.6477
0.717357 0.552377 0.582879
0.761547 0.462654 0.495949
0.86067 0.400961 0.435248
0 0.715404 0.570459
0 0.630518 0.490364
0 0.602716 0.464622
0 0.603952 0.467018
0 0.645182 0.507591
0.0766003 0.664668 0.393271
0.685771 0.683604 0.544137
0.769299 0.605188 0.470863
0.886381 0.512489 0.342428
0 0.92723 0.607477
0 0.796551 0.485344
0 0.722057 0.414939
0 0.700496 0.394965
0 0.713924 0.343923
0 0.745113 0.165942
0.521782 0.74078 0.43505
0.702922 0.702831 0.396857
0.801755 0.640696 0.340017
0 0.999069 0.659175
0 0.998871 0.544762
0 0.892805 0.41297
0 0.844266 0.335851
0 0.939116 0.239811
0 0.998108 0.104372
0.19884 0.794995 0.182788
0.368322 0.845991 0.00477607
0.740429 0.742565 0.267155
0 0 1
0.0804456 0 1
0.441001 0 1
0.779721 0 1
1 0 1
1 0 1
1 0 1
1 0 0.980819
1 0 0.975204
0 0.0746166 1
0 0.024979 1
0.235676 0 1
0.591241 0 1
0.900923 0 1
1 0 1
1 0 0.91017
1 0 0.888197
1 0.0145418 0.905623
0 0.20296 0.997147
0 0.162585 1
0 0.118837 1
0.282383 0.0791485 1
0.678447 0.0466163 1
0.899779 0.0463417 0.955917
1 0.0578317 0.833143
1 0.058793 0.794293
1 0.0787671 0.799268
0 0.318883 0.864179
0 0.282124 0.862608
0 0.258854 0.924895
0 0.226246 1
0.302953 0.194018 1
0.657008 0.172351 0.928557
0.789227 0.180606 0.77496
0.98204 0.167941 0.727245
1 0.159915 0.707805
0 0.441032 0.7944
0 0.392889 0.753887
0 0.374807 0.750469
0 0.370504 0.791058
0 0.365866 0.914626
0.340551 0.347143 0.898375
0.57525 0.338567 0.746639
0.774716 0.300771 0.681743
0.98497 0.272007 0.647303
0 0.584787 0.768124
0 0.510262 0.698299
0 0.484108 0.67454
0 0.483864 0.676921
0 0.519631 0.721111
0.122072 0.552438 0.838849
0.593835 0.541924 0.757946
0.71989 0.47628 0.678172
0.836149 0.404685 0.608438
0 0.759548 0.772045
0 0.646387 0.667002
0 0.597253 0.621347
0 0.588281 0.61384
0 0.619287 0.644495
0.141329 0.689677 0.712261
0.698299 0.747219 0.767391
0.825284 0.667491 0.692515
0.83917 0.562341 0.592447
0 0.959045 0.796948
0 0.824216 0.672984
0 0.723918 0.579614
0 0.693339 0.551751
0 0.697658 0.556939
0 0.749096 0.606561
0.181247 0.767208 0.491783
0.798932 0.798138 0.652598
0.866041 0.708629 0.570001
0 0.999451 0.826535
0 0.999191 0.724407
0 0.898512 0.581689
0 0.813336 0.502403
0 0.790616 0.481514
0 0.804532 0.431266
0 0.834836 0.255085
0.629618 0.844358 0.5337
0.801465 0.802228 0.492332
0 0 1
0.078706 0 1
0.446677 0 1
0.797269 0 1
1 0 1
1 0 1
1 0 1
1 0 1
1 0 1
0 0.088365 1
0 0.0397345 1
0.247562 0 1
0.598138 0 1
0.927581 0 1
1 0 1
1 0 1
1 0 1
1 0.018555 1
0 0.23595 1
0 0.181674 1
0 0.121004 1
0.277913 0.0716259 1
0.685176 0.0333257 1
0.996292 0.00933852 1
1 0.0299992 1
1 0.0522011 1
1 0.0847486 0.994598
0 0.366903 1
0 0.305699 1
0 0.255863 1
0 0.2094 1
0.296757 0.169467 1
0.695399 0.136782 1
0.914534 0.136172 1
0.999847 0.148074 0.925292
1 0.151446 0.889021
0 0.498772 1
0 0.420859 0.96202
0 0.374762 0.952056
0 0.350317 1
0 0.31899 1
0.319234 0.28806 1
0.669902 0.266423 1
0.807584 0.273014 0.866178
0.995575 0.258534 0.81709
0 0.645655 0.982757
0 0.544747 0.892866
0 0.485618 0.84268
0 0.466743 0.838712
0 0.465385 0.881941
0 0.467033 0.999374
0.359594 0.452064 0.991958
0.616953 0.439338 0.843732
0.80763 0.3944 0.772717
0 0.814191 0.979782
0 0.694163 0.870756
0 0.604135 0.787442
0 0.57557 0.761746
0 0.578149 0.766796
0 0.624125 0.819928
0.228458 0.667918 0.947036
0.712566 0.656855 0.866209
0.796124 0.579782 0.776837
0 0.999481 0.991577
0 0.878813 0.882506
0 0.744228 0.759045
0 0.687953 0.707317
0 0.679927 0.700832
0 0.719417 0.739025
0.274739 0.80444 0.819455
0.857084 0.873259 0.884199
0.932921 0.781689 0.799512
0 0.999939 0.982452
0 0.999741 0.919783
0 0.93228 0.773236
0 0.816663 0.667002
0 0.783429 0.637003
0 0.790722 0.644923
0.0184176 0.852674 0.7037
0.293263 0.869627 0.588632
0.911879 0.912337 0.758953
0 0 1
0.0679332 0 1
0.448386 0 1
0.811185 0 1
1 0 1
1 0 1
1 0 1
1 0 1
1 0 1
0 0.0899062 1
0 0.0563516 1
0.261738 0.0133059 1
0.637232 0 1
0.97171 0 1
1 0 1
1 0 1
1 0 1
1 0.0206607 1
0 0.260105 1
0 0.218112 1
0 0.156664 1
0.278309 0.0957961 1
0.688548 0.0473335 1
1 0.0136568 1
1 0.00851453 1
1 0.0544594 1
1 0.100237 1
0 0.41149 1
0 0.3608 1
0 0.289769 1
0 0.218235 1
0.292821 0.164279 1
0.702022 0.123888 1
0.998245 0.0992752 1
1 0.121965 1
1 0.148577 1
0 0.554574 1
0 0.488594 1
0 0.40856 1
0 0.349584 1
0 0.300603 1
0.312276 0.259983 1
0.714778 0.227222 1
0.935851 0.22649 1
1 0.238376 1
0 0.703212 1
0 0.620417 1
0 0.522423 1
0 0.467658 1
0 0.441459 1
0 0.411124 1
0.337362 0.382162 1
0.695811 0.359945 1
0.828595 0.364523 0.95462
0 0.857603 1
0 0.770977 1
0 0.648127 0.986404
0 0.578012 0.929854
0 0.557733 0.924758
0 0.559457 0.970687
0.00257877 0.567086 1
0.461692 0.555673 1
0.669062 0.539117 0.938369
0 1 1
0 0.945449 1
0 0.802808 0.971313
0 0.697246 0.874693
0 0.665904 0.846723
0 0.671702 0.854612
0 0.727916 0.916777
0.445304 0.782193 1
0.840726 0.771115 0.972259
0 1 1
0 1 1
0 0.997116 0.990677
0 0.841306 0.849104
0 0.778088 0.791684
0 0.771298 0.786419
0 0.819165 0.832044
0.422675 0.91899 0.924971
0.999298 0.999634 0.999649
