lut/eb22e103-dbcc-4aa2-9a7a-18908dc54fd5.cube
TITLE "Stylized Emerald Warmth"
LUT_3D_SIZE 5
0 0 0
0.413779 0 0
0.717388 0 0
1 0 0
1 0 0
0 0.289769 0.0119936
0.196963 0.199954 0.0106966
0.5178 0.150149 0.00944533
1 0.120516 0.0084535
1 0.172732 0.0100557
0 0.733272 0.00767529
0 0.407706 0.0122683
0.375006 0.378256 0.012314
0.717647 0.38938 0.012314
0.986175 0.519478 0.0114443
0 1 0
0 0.895155 0.00334173
0 1 0
0.716197 0.725383 0.0078584
0.996124 0.831556 0.00517281
0 1 0
0 1 0
0.369924 1 0
0 1 0
1 1 0
0 0 0.515435
0.424826 0 0.337911
0.778073 0 0.272114
1 0 0.254627
1 0 0.297337
0 0.214313 0.243137
0.144381 0.236469 0.26862
0.551644 0.160113 0.18793
0.866041 0.106233 0.128908
1 0.160845 0.188708
0 0.426352 0.11986
0 0.472801 0.011902
0.402991 0.401663 0.0931716
0.662394 0.332311 0.0198978
1 0.324712 0.0122072
0 0.858228 0.0760662
0 1 0
0.170397 0.591043 0.0104677
0.556542 0.560464 0.0109255
0.921096 0.593378 0.0104372
0 1 0
0 1 0
0.128954 1 0
0.387762 1 0
0.948287 0.960037 0.00132753
0 0 0.999298
0.473121 0 0.928115
0.848783 0 0.650111
1 0 0.592096
1 0 0.622446
0 0.191821 0.569726
0 0.163317 0.715846
0.52285 0.136736 0.545266
0.923461 0.0907301 0.462684
1 0.0973373 0.468528
0 0.413687 0.443214
0 0.416739 0.448402
0.38822 0.492073 0.524636
0.687449 0.361761 0.396216
0.981674 0.287083 0.32076
0 0.693477 0.386328
0 0.609613 0.306127
0 0.655375 0.0732586
0.603967 0.603113 0.299428
0.826093 0.512398 0.212726
0 0.998825 0.493141
0 0.998764 0.328969
0 0.999252 0.0987411
0.358557 0.77052 0.124971
0.734707 0.739376 0.0895857
0 0 1
0.441001 0 1
1 0 1
1 0 1
1 0 0.975204
0 0.20296 0.997147
0 0.118837 1
0.678447 0.0466163 1
1 0.0578317 0.833143
1 0.0787671 0.799268
0 0.441032 0.7944
0 0.374807 0.750469
0 0.365866 0.914626
0.57525 0.338567 0.746639
0.98497 0.272007 0.647303
0 0.759548 0.772045
0 0.597253 0.621347
0 0.619287 0.644495
0.698299 0.747219 0.767391
0.83917 0.562341 0.592447
0 0.999451 0.826535
0 0.898512 0.581689
0 0.790616 0.481514
0 0.834836 0.255085
0.801465 0.802228 0.492332
0 0 1
0.448386 0 1
1 0 1
1 0 1
1 0 1
0 0.260105 1
0 0.156664 1
0.688548 0.0473335 1
1 0.00851453 1
1 0.100237 1
0 0.554574 1
0 0.40856 1
0 0.300603 1
0.714778 0.227222 1
1 0.238376 1
0 0.857603 1
0 0.648127 0.986404
0 0.557733 0.924758
0.00257877 0.567086 1
0.669062 0.539117 0.938369
0 1 1
0 0.997116 0.990677
0 0.778088 0.791684
0 0.819165 0.832044
0.999298 0.999634 0.999649
