lut/f0de1c36-d600-429f-bc16-b1b3168ef2b8.cube
TITLE "Vibrant Greens"
LUT_3D_SIZE 33
0.0611887 0.0611887 0.0611887
0.0654765 0.0611887 0.0611887
0.0766155 0.0612039 0.0612039
0.087953 0.0612039 0.0612039
0.107408 0.0612345 0.0612345
0.13019 0.061265 0.061265
0.154925 0.0613107 0.0613107
0.181384 0.061387 0.061387
0.209323 0.0614481 0.0614481
0.239399 0.0615396 0.0615396
0.270741 0.0616312 0.0616312
0.306935 0.0617533 0.0617533
0.346883 0.0618906 0.0618906
0.391485 0.0620584 0.0620584
0.441169 0.0622416 0.0622416
0.497536 0.0624704 0.0624704
0.563378 0.0627298 0.0627298
0.640101 0.0630503 0.0630503
0.729839 0.0634318 0.0634318
0.828931 0.0638743 0.0638743
0.908431 0.0642252 0.0642252
0.966033 0.0644846 0.0644846
1 0.0646982 0.0646982
1 0.0648661 0.0648661
1 0.0649729 0.0649729
1 0.0649729 0.0649729
1 0.0649729 0.0649729
1 0.0649729 0.0649729
1 0.0649729 0.0649729
1 0.0649729 0.0649729
1 0.0649729 0.0649729
1 0.0649729 0.0649729
1 0.0649729 0.0649729
0.0611887 0.0624247 0.0611887
0.0635538 0.0622873 0.0611887
0.0744945 0.0618448 0.0612039
0.0865644 0.0614633 0.0612039
0.107012 0.0612345 0.0612345
0.13019 0.061265 0.061265
0.155123 0.061326 0.061326
0.181979 0.061387 0.061387
0.21004 0.0614633 0.0614633
0.240177 0.0615396 0.0615396
0.271687 0.0616464 0.0616464
0.307851 0.0617533 0.0617533
0.347829 0.0619059 0.0619059
0.392599 0.0620584 0.0620584
0.44242 0.0622568 0.0622568
0.499046 0.0624704 0.0624704
0.565179 0.0627451 0.0627451
0.642176 0.0630655 0.0630655
0.732067 0.063447 0.063447
0.831525 0.0638895 0.0638895
0.910323 0.0642405 0.0642405
0.967926 0.0644999 0.0644999
1 0.0646982 0.0646982
1 0.0648814 0.0648814
1 0.0649729 0.0649729
1 0.0649729 0.0649729
1 0.0649729 0.0649729
1 0.0649729 0.0649729
1 0.0649729 0.0649729
1 0.0649729 0.0649729
1 0.0649729 0.0649729
1 0.0649729 0.0649729
1 0.0649729 0.0649729
0.0611887 0.0667277 0.0611887
0.0612802 0.0667735 0.0611887
0.0703441 0.0658427 0.0611887
0.0802319 0.0649119 0.0612039
0.0983291 0.0640269 0.0612192
0.122423 0.0632181 0.0612497
0.147967 0.0624552 0.0612955
0.175616 0.0618143 0.0613718
0.205158 0.0615396 0.0614481
0.23714 0.0615396 0.0615396
0.269642 0.0616312 0.0616312
0.306004 0.0617533 0.0617533
0.34612 0.0618906 0.0618906
0.390997 0.0620584 0.0620584
0.44065 0.0622416 0.0622416
0.497169 0.0624704 0.0624704
0.563577 0.0627298 0.0627298
0.640558 0.0630503 0.0630503
0.730327 0.0634318 0.0634318
0.830274 0.0638743 0.0638743
0.909804 0.0642252 0.0642252
0.967346 0.0644846 0.0644846
1 0.0646982 0.0646982
1 0.0648814 0.0648814
1 0.0649729 0.0649729
1 0.0649729 0.0649729
1 0.0649729 0.0649729
1 0.0649729 0.0649729
1 0.0649729 0.0649729
1 0.0649729 0.0649729
1 0.0649729 0.0649729
1 0.0649729 0.0649729
1 0.0649729 0.0649729
0.0612039 0.0714885 0.0612039
0.0612039 0.0715953 0.0612039
0.0667277 0.0702983 0.0611887
0.0741131 0.0687572 0.0611887
0.0887922 0.0671855 0.0612039
0.113054 0.0656596 0.0612345
0.138552 0.0641642 0.0612802
0.16643 0.0626688 0.0613413
0.196719 0.0617685 0.0614176
0.229603 0.0615244 0.0615091
0.263523 0.0616159 0.0616159
0.302113 0.061738 0.061738
0.343725 0.0618906 0.0618906
0.388754 0.0620432 0.0620432
0.438804 0.0622416 0.0622416
0.495094 0.0624552 0.0624552
0.561379 0.0627298 0.0627298
0.63859 0.0630503 0.0630503
0.728603 0.0634318 0.0634318
0.828672 0.0638743 0.0638743
0.908949 0.0642252 0.0642252
0.967056 0.0644846 0.0644846
1 0.0646982 0.0646982
1 0.0648814 0.0648814
1 0.0649729 0.0649729
1 0.0649729 0.0649729
1 0.0649729 0.0649729
1 0.0649729 0.0649729
1 0.0649729 0.0649729
1 0.0649729 0.0649729
1 0.0649729 0.0649729
1 0.0649729 0.0649729
1 0.0649729 0.0649729
0.0612039 0.0803082 0.0612039
0.0612039 0.0804456 0.0612039
0.06392 0.0789044 0.0612039
0.0688945 0.076585 0.0612039
0.0789654 0.0739452 0.0612039
0.103105 0.0710765 0.0612192
0.128771 0.0678569 0.0612497
0.156603 0.0640726 0.0613107
0.187625 0.0620432 0.061387
0.221485 0.0615702 0.0614939
0.256718 0.0616007 0.0616007
0.296162 0.0617227 0.0617227
0.338598 0.0618601 0.0618601
0.385168 0.0620279 0.0620279
0.436393 0.0622263 0.0622263
0.493034 0.0624552 0.0624552
0.559579 0.0627146 0.0627146
0.636881 0.063035 0.063035
0.727108 0.0634318 0.0634318
0.827604 0.063859 0.063859
0.908598 0.0642252 0.0642252
0.967056 0.0644846 0.0644846
1 0.0646982 0.0646982
1 0.0648814 0.0648814
1 0.0649729 0.0649729
1 0.0649729 0.0649729
1 0.0649729 0.0649729
1 0.0649729 0.0649729
1 0.0649729 0.0649729
1 0.0649729 0.0649729
1 0.0649729 0.0649729
1 0.0649729 0.0649729
1 0.0649729 0.0649729
0.0612192 0.0942702 0.0612192
0.0612192 0.0946822 0.0612192
0.0621042 0.0935225 0.0612192
0.0647593 0.0913405 0.0612039
0.068986 0.0886854 0.0612039
0.0927596 0.0858167 0.0612039
0.118257 0.082826 0.0612192
0.146242 0.0791485 0.061265
0.177584 0.0749371 0.061326
0.212421 0.0711833 0.0614176
0.249409 0.0670024 0.0615396
0.289906 0.0627604 0.0616922
0.33312 0.0618448 0.0618448
0.380392 0.0620127 0.0620127
0.432288 0.062211 0.062211
0.489952 0.0624399 0.0624399
0.557839 0.0627146 0.0627146
0.635599 0.063035 0.063035
0.72636 0.0634165 0.0634165
0.827329 0.063859 0.063859
0.908766 0.0642252 0.0642252
0.967636 0.0644999 0.0644999
1 0.0646982 0.0646982
1 0.0648814 0.0648814
1 0.0649729 0.0649729
1 0.0649729 0.0649729
1 0.0649729 0.0649729
1 0.0649729 0.0649729
1 0.0649729 0.0649729
1 0.0649729 0.0649729
1 0.0649729 0.0649729
1 0.0649729 0.0649729
1 0.0649729 0.0649729
0.0612345 0.108888 0.0612345
0.0612345 0.109453 0.0612345
0.0612497 0.108873 0.0612345
0.0615091 0.106554 0.0612345
0.0619059 0.104295 0.0612345
0.0817884 0.101549 0.0612039
0.106844 0.0985428 0.0612039
0.134936 0.0950942 0.0612192
0.166537 0.090898 0.061265
0.202213 0.0861219 0.0613413
0.240772 0.0804761 0.0614633
0.282872 0.0742962 0.0616007
0.327199 0.0682994 0.0617838
0.375219 0.0637369 0.0619821
0.427817 0.0621958 0.0621958
0.486168 0.0624247 0.0624247
0.554818 0.0626993 0.0626993
0.634089 0.0630198 0.0630198
0.72604 0.0634165 0.0634165
0.827604 0.063859 0.063859
0.909636 0.0642252 0.0642252
0.968795 0.0644999 0.0644999
1 0.0647135 0.0647135
1 0.0648966 0.0648966
1 0.0649729 0.0649729
1 0.0649729 0.0649729
1 0.0649729 0.0649729
1 0.0649729 0.0649729
1 0.0649729 0.0649729
1 0.0649729 0.0649729
1 0.0649729 0.0649729
1 0.0649729 0.0649729
1 0.0649729 0.0649729
0.061265 0.124453 0.061265
0.061265 0.125017 0.061265
0.061265 0.12488 0.061265
0.061265 0.123201 0.061265
0.0612497 0.120806 0.0612497
0.0731212 0.118441 0.0612345
0.0953841 0.115541 0.0612192
0.122164 0.112215 0.0612192
0.154162 0.10808 0.0612345
0.190494 0.10309 0.0612955
0.230838 0.0964065 0.061387
0.274861 0.0872511 0.0615244
0.320378 0.0781262 0.0616922
0.369451 0.0692912 0.0619211
0.423011 0.0629892 0.0621653
0.482124 0.0624094 0.0624094
0.551415 0.0626841 0.0626841
0.631739 0.0630198 0.0630198
0.72459 0.0634165 0.0634165
0.827909 0.063859 0.063859
0.910903 0.0642405 0.0642405
0.970489 0.0644999 0.0644999
1 0.0647135 0.0647135
1 0.0648966 0.0648966
1 0.0649729 0.0649729
1 0.0649729 0.0649729
1 0.0649729 0.0649729
1 0.0649729 0.0649729
1 0.0649729 0.0649729
1 0.0649729 0.0649729
1 0.0649729 0.0649729
1 0.0649729 0.0649729
1 0.0649729 0.0649729
0.0612955 0.14139 0.0612955
0.0612955 0.142077 0.0612955
0.0612955 0.141939 0.0612955
0.0612955 0.141222 0.0612955
0.0612955 0.139086 0.0612955
0.0654612 0.136858 0.0612802
0.0839704 0.134188 0.0612497
0.107057 0.131106 0.0612192
0.139452 0.127459 0.0612192
0.176226 0.122698 0.0612497
0.218357 0.11632 0.0613107
0.264851 0.1075 0.0614176
0.311986 0.0965896 0.0615854
0.362325 0.0827344 0.061799
0.416907 0.067628 0.0621042
0.477012 0.0623789 0.0623789
0.547341 0.0626688 0.0626688
0.628504 0.0630045 0.0630045
0.722683 0.0634012 0.0634012
0.827573 0.063859 0.063859
0.911604 0.0642405 0.0642405
0.971954 0.0645151 0.0645151
1 0.0647288 0.0647288
1 0.0649119 0.0649119
1 0.0649729 0.0649729
1 0.0649729 0.0649729
1 0.0649729 0.0649729
1 0.0649729 0.0649729
1 0.0649729 0.0649729
1 0.0649729 0.0649729
1 0.0649729 0.0649729
1 0.0649729 0.0649729
1 0.0649729 0.0649729
0.061326 0.159808 0.061326
0.0613413 0.160769 0.0613413
0.0613413 0.161044 0.0613413
0.0613413 0.161181 0.0613413
0.061326 0.159487 0.061326
0.061326 0.157504 0.061326
0.0732433 0.155337 0.0612955
0.0888838 0.152621 0.061265
0.12166 0.149065 0.0612345
0.158938 0.14464 0.0612345
0.20235 0.13872 0.061265
0.252262 0.130632 0.0613413
0.301442 0.120089 0.0614633
0.353277 0.106981 0.0616464
0.409079 0.0910048 0.0619059
0.470359 0.0755779 0.0622416
0.541833 0.0643626 0.062623
0.624109 0.0629892 0.0629892
0.719554 0.063386 0.063386
0.826215 0.063859 0.063859
0.911864 0.0642405 0.0642405
0.972793 0.0645151 0.0645151
1 0.0647288 0.0647288
1 0.0649271 0.0649271
1 0.0649729 0.0649729
1 0.0649729 0.0649729
1 0.0649729 0.0649729
1 0.0649729 0.0649729
1 0.0649729 0.0649729
1 0.0649729 0.0649729
1 0.0649729 0.0649729
1 0.0649729 0.0649729
1 0.0649729 0.0649729
0.061387 0.180545 0.061387
0.061387 0.181872 0.061387
0.061387 0.182498 0.061387
0.061387 0.183108 0.061387
0.061387 0.182986 0.061387
0.061387 0.181445 0.061387
0.0645304 0.179767 0.0613718
0.0742809 0.177417 0.0613413
0.0995499 0.174319 0.0612802
0.137591 0.170077 0.0612497
0.181445 0.164492 0.0612497
0.235691 0.157031 0.0612955
0.287846 0.147387 0.061387
0.341588 0.134813 0.0615244
0.398962 0.119203 0.0617227
0.461769 0.0996109 0.0620279
0.534356 0.0750286 0.0624857
0.618036 0.0633707 0.0629587
0.714351 0.0633707 0.0633707
0.822217 0.0638437 0.0638437
0.909926 0.0642252 0.0642252
0.971893 0.0645151 0.0645151
1 0.0647288 0.0647288
1 0.0649271 0.0649271
1 0.0649729 0.0649729
1 0.0649729 0.0649729
1 0.0649729 0.0649729
1 0.0649729 0.0649729
1 0.0649729 0.0649729
1 0.0649729 0.0649729
1 0.0649729 0.0649729
1 0.0649729 0.0649729
1 0.0649729 0.0649729
0.0614481 0.206821 0.0614481
0.0614481 0.208667 0.0614481
0.0614481 0.209735 0.0614481
0.0614481 0.210666 0.0614481
0.0614633 0.211734 0.0614633
0.0614633 0.211566 0.0614633
0.0614481 0.210529 0.0614481
0.0629129 0.20911 0.0614481
0.070634 0.206806 0.0614176
0.109239 0.203449 0.061326
0.153857 0.198672 0.061265
0.210376 0.191714 0.061265
0.26804 0.182269 0.0613107
0.325368 0.170245 0.0614023
0.384848 0.154696 0.0615702
0.448905 0.135241 0.061799
0.522194 0.108934 0.0621653
0.607065 0.0733349 0.0627909
0.703593 0.0633249 0.0633249
0.812039 0.063798 0.063798
0.904463 0.06421 0.06421
0.968444 0.0644999 0.0644999
1 0.0647135 0.0647135
1 0.0649119 0.0649119
1 0.0649729 0.0649729
1 0.0649729 0.0649729
1 0.0649729 0.0649729
1 0.0649729 0.0649729
1 0.0649729 0.0649729
1 0.0649729 0.0649729
1 0.0649729 0.0649729
1 0.0649729 0.0649729
1 0.0649729 0.0649729
0.0615244 0.235126 0.0615244
0.0615244 0.237324 0.0615244
0.0615244 0.238926 0.0615244
0.0615396 0.240391 0.0615396
0.0615396 0.241993 0.0615396
0.0615396 0.24361 0.0615396
0.0615396 0.243687 0.0615396
0.0615549 0.24303 0.0615396
0.0616464 0.242008 0.0615396
0.0823072 0.240024 0.0614633
0.121324 0.236408 0.0613718
0.17821 0.230915 0.0612955
0.242313 0.223285 0.0612955
0.305074 0.212833 0.0613413
0.367315 0.198901 0.0614328
0.433127 0.180148 0.0616007
0.507301 0.153841 0.0618753
0.592737 0.117922 0.0623484
0.689738 0.0771801 0.0630961
0.798688 0.0637369 0.0637369
0.896757 0.0641794 0.0641794
0.96289 0.0644694 0.0644694
1 0.0646982 0.0646982
1 0.0648966 0.0648966
1 0.0649729 0.0649729
1 0.0649729 0.0649729
1 0.0649729 0.0649729
1 0.0649729 0.0649729
1 0.0649729 0.0649729
1 0.0649729 0.0649729
1 0.0649729 0.0649729
1 0.0649729 0.0649729
1 0.0649729 0.0649729
0.0616007 0.265522 0.0616007
0.0616159 0.268376 0.0616159
0.0616159 0.27068 0.0616159
0.0616159 0.272816 0.0616159
0.0616312 0.274968 0.0616312
0.0616312 0.277409 0.0616312
0.0616464 0.27921 0.0616464
0.0616464 0.279667 0.0616464
0.0616464 0.279545 0.0616464
0.0646677 0.27834 0.0616312
0.0814832 0.275898 0.0615549
0.136965 0.271702 0.0614176
0.205722 0.266026 0.061326
0.277455 0.258015 0.061326
0.344488 0.247288 0.0613718
0.413046 0.232456 0.0614633
0.489219 0.209628 0.0616464
0.575021 0.175723 0.0619821
0.672374 0.12958 0.0625467
0.781582 0.07776 0.0634775
0.886351 0.0641337 0.0641337
0.955215 0.0644388 0.0644388
1 0.064683 0.064683
1 0.0648814 0.0648814
1 0.0649729 0.0649729
1 0.0649729 0.0649729
1 0.0649729 0.0649729
1 0.0649729 0.0649729
1 0.0649729 0.0649729
1 0.0649729 0.0649729
1 0.0649729 0.0649729
1 0.0649729 0.0649729
1 0.0649729 0.0649729
0.0616922 0.298634 0.0616922
0.0617075 0.302266 0.0617075
0.0617227 0.305165 0.0617227
0.0617227 0.308202 0.0617227
0.061738 0.311101 0.061738
0.061738 0.313985 0.061738
0.0617533 0.316884 0.0617533
0.0617533 0.318502 0.0617533
0.0617533 0.319097 0.0617533
0.0617533 0.318944 0.0617533
0.0625772 0.317525 0.0617533
0.090425 0.314061 0.0616312
0.156161 0.309483 0.0614481
0.239536 0.303243 0.0613565
0.315175 0.294759 0.0613565
0.388067 0.283497 0.0614023
0.46688 0.266789 0.0615091
0.554009 0.242573 0.0617227
0.652125 0.202228 0.062089
0.760662 0.144167 0.0627604
0.871672 0.077821 0.063859
0.945739 0.0643931 0.0643931
1 0.0646372 0.0646372
1 0.0648508 0.0648508
1 0.0649729 0.0649729
1 0.0649729 0.0649729
1 0.0649729 0.0649729
1 0.0649729 0.0649729
1 0.0649729 0.0649729
1 0.0649729 0.0649729
1 0.0649729 0.0649729
1 0.0649729 0.0649729
1 0.0649729 0.0649729
0.0618143 0.335668 0.0618143
0.0618143 0.340002 0.0618143
0.0618296 0.343725 0.0618296
0.0618448 0.347311 0.0618448
0.0618448 0.350591 0.0618448
0.0618601 0.354162 0.0618601
0.0618753 0.357443 0.0618753
0.0618753 0.36051 0.0618753
0.0618906 0.361822 0.0618906
0.0618906 0.362249 0.0618906
0.0618906 0.361593 0.0618906
0.0634318 0.359319 0.0618753
0.0992905 0.355749 0.0617075
0.182315 0.350469 0.0614939
0.275013 0.34342 0.061387
0.3561 0.334295 0.061387
0.439155 0.321233 0.0614481
0.528969 0.302541 0.0615702
0.628229 0.275151 0.061799
0.736706 0.234867 0.0621958
0.851637 0.163638 0.0629435
0.934829 0.0838026 0.0640574
0.992935 0.0646067 0.0646067
1 0.0648203 0.0648203
1 0.0649577 0.0649577
1 0.0649729 0.0649729
1 0.0649729 0.0649729
1 0.0649729 0.0649729
1 0.0649729 0.0649729
1 0.0649729 0.0649729
1 0.0649729 0.0649729
1 0.0649729 0.0649729
1 0.0649729 0.0649729
0.0619364 0.377295 0.0619364
0.0619516 0.382284 0.0619516
0.0619669 0.386648 0.0619669
0.0619821 0.390845 0.0619821
0.0619821 0.395056 0.0619821
0.0619974 0.399252 0.0619974
0.0620127 0.403143 0.0620127
0.0620279 0.406714 0.0620279
0.0620279 0.409201 0.0620279
0.0620432 0.410666 0.0620432
0.0620432 0.410651 0.0620432
0.0620279 0.409125 0.0620279
0.0620279 0.406378 0.0620279
0.10248 0.402045 0.0618296
0.210422 0.395865 0.0615396
0.309941 0.388251 0.0614328
0.401526 0.377813 0.0614328
0.496086 0.362982 0.0614939
0.597467 0.342901 0.0616312
0.707851 0.314321 0.0618906
0.826062 0.271092 0.0623026
0.920272 0.198795 0.0629435
0.98201 0.0971847 0.0640879
1 0.0647898 0.0647898
1 0.0649424 0.0649424
1 0.0649729 0.0649729
1 0.0649729 0.0649729
1 0.0649729 0.0649729
1 0.0649729 0.0649729
1 0.0649729 0.0649729
1 0.0649729 0.0649729
1 0.0649729 0.0649729
1 0.0649729 0.0649729
0.0620737 0.424125 0.0620737
0.0621042 0.429862 0.0621042
0.0621195 0.434958 0.0621195
0.0621347 0.44004 0.0621347
0.06215 0.444785 0.06215
0.0621653 0.449714 0.0621653
0.0621805 0.454475 0.0621805
0.0621958 0.458991 0.0621958
0.0621958 0.462654 0.0621958
0.062211 0.464759 0.062211
0.062211 0.465553 0.062211
0.062211 0.464607 0.062211
0.0621958 0.462669 0.0621958
0.0639658 0.459434 0.0621805
0.109697 0.454612 0.0619516
0.234211 0.448081 0.0616007
0.348974 0.439338 0.0614786
0.45362 0.427359 0.0614786
0.560189 0.411383 0.0615396
0.672862 0.390219 0.0617075
0.794598 0.361135 0.0619669
0.899733 0.318349 0.0623331
0.968139 0.247547 0.0628214
1 0.131945 0.063859
1 0.0649271 0.0649271
1 0.0649729 0.0649729
1 0.0649729 0.0649729
1 0.0649729 0.0649729
1 0.0649729 0.0649729
1 0.0649729 0.0649729
1 0.0649729 0.0649729
1 0.0649729 0.0649729
1 0.0649729 0.0649729
0.0622416 0.476921 0.0622416
0.0622721 0.48336 0.0622721
0.0622873 0.489097 0.0622873
0.0623026 0.494835 0.0623026
0.0623331 0.500877 0.0623331
0.0623484 0.506645 0.0623484
0.0623636 0.512398 0.0623636
0.0623789 0.517586 0.0623789
0.0623941 0.522042 0.0623941
0.0624094 0.525521 0.0624094
0.0624094 0.527153 0.0624094
0.0624094 0.527169 0.0624094
0.0624094 0.525963 0.0624094
0.0624094 0.523964 0.0624094
0.0635996 0.520729 0.0623789
0.115282 0.515343 0.0621042
0.267262 0.507897 0.061677
0.395819 0.497841 0.0615396
0.513161 0.484688 0.0615244
0.631113 0.468162 0.0616007
0.756283 0.445914 0.0617685
0.874968 0.416098 0.0620279
0.952544 0.376196 0.0622873
1 0.312459 0.0626383
1 0.20032 0.0634012
1 0.0666361 0.0649424
1 0.0649729 0.0649729
1 0.0649729 0.0649729
1 0.0649729 0.0649729
1 0.0649729 0.0649729
1 0.0649729 0.0649729
1 0.0649729 0.0649729
1 0.0649729 0.0649729
0.0624399 0.53521 0.0624399
0.0624704 0.542824 0.0624704
0.0624857 0.54992 0.0624857
0.0625162 0.556481 0.0625162
0.0625315 0.563439 0.0625315
0.0625467 0.570184 0.0625467
0.0625772 0.576944 0.0625772
0.0625925 0.583291 0.0625925
0.062623 0.588861 0.062623
0.0626383 0.59382 0.0626383
0.0626383 0.596536 0.0626383
0.0626383 0.597726 0.0626383
0.0626535 0.597772 0.0626535
0.0626383 0.596597 0.0626383
0.0626383 0.594232 0.0626383
0.062623 0.590219 0.062623
0.12462 0.583825 0.0622721
0.31194 0.574823 0.061738
0.453529 0.563638 0.0616007
0.581476 0.54963 0.0615854
0.711864 0.531624 0.061677
0.844266 0.508965 0.0618448
0.932631 0.479103 0.0620279
0.993454 0.439048 0.0622263
1 0.380301 0.0624857
1 0.278477 0.0629892
1 0.120531 0.0641947
1 0.0665141 0.0649424
1 0.0649729 0.0649729
1 0.0649729 0.0649729
1 0.0649729 0.0649729
1 0.0649729 0.0649729
1 0.0649729 0.0649729
0.0626535 0.600183 0.0626535
0.0626841 0.609354 0.0626841
0.0627146 0.617685 0.0627146
0.0627451 0.626001 0.0627451
0.0627604 0.633677 0.0627604
0.0627909 0.641779 0.0627909
0.0628214 0.649943 0.0628214
0.0628519 0.658228 0.0628519
0.0628672 0.665797 0.0628672
0.0628977 0.672236 0.0628977
0.0629129 0.676539 0.0629129
0.0629129 0.678935 0.0629129
0.0629282 0.679667 0.0629282
0.0629129 0.679408 0.0629129
0.0629129 0.677958 0.0629129
0.0628977 0.674464 0.0628977
0.0628824 0.669032 0.0628824
0.142229 0.660731 0.0624247
0.362356 0.649927 0.0618143
0.516716 0.637201 0.061677
0.65771 0.621912 0.0616617
0.798184 0.603174 0.0617533
0.908614 0.57995 0.0618906
0.977539 0.550942 0.0620127
1 0.51136 0.06215
1 0.457618 0.0623484
1 0.369253 0.0626078
1 0.189349 0.0635386
1 0.067216 0.0649424
1 0.0649729 0.0649729
1 0.0649729 0.0649729
1 0.0649729 0.0649729
1 0.0649729 0.0649729
0.0628977 0.673381 0.0628977
0.0629435 0.684184 0.0629435
0.062974 0.693828 0.062974
0.0630045 0.703685 0.0630045
0.063035 0.713527 0.063035
0.0630655 0.72369 0.0630655
0.0631113 0.734096 0.0631113
0.0631418 0.743999 0.0631418
0.0631723 0.752911 0.0631723
0.0632029 0.760586 0.0632029
0.0632181 0.765957 0.0632181
0.0632334 0.768978 0.0632334
0.0632334 0.770794 0.0632334
0.0632334 0.771069 0.0632334
0.0632334 0.769833 0.0632334
0.0632181 0.766873 0.0632181
0.0632029 0.7617 0.0632029
0.0631723 0.754406 0.0631723
0.187015 0.743908 0.0624857
0.42594 0.732128 0.0618906
0.590341 0.718181 0.0617533
0.741878 0.702205 0.061738
0.877501 0.682857 0.0618296
0.957748 0.65922 0.0619059
1 0.629572 0.0619974
1 0.590509 0.0621042
1 0.53814 0.0621958
1 0.455055 0.0623636
1 0.284489 0.0629587
1 0.0991073 0.0644541
1 0.0649729 0.0649729
1 0.0649729 0.0649729
1 0.0649729 0.0649729
0.0631723 0.755398 0.0631723
0.0632181 0.768017 0.0632181
0.0632639 0.780072 0.0632639
0.0633097 0.79266 0.0633097
0.0633555 0.8047 0.0633555
0.063386 0.816464 0.063386
0.0634318 0.828244 0.0634318
0.0634623 0.839475 0.0634623
0.0634928 0.847562 0.0634928
0.0635233 0.854536 0.0635233
0.0635386 0.859403 0.0635386
0.0635538 0.862318 0.0635538
0.0635538 0.86392 0.0635538
0.0635538 0.864424 0.0635538
0.0635538 0.863539 0.0635538
0.0635386 0.86154 0.0635386
0.0635386 0.857374 0.0635386
0.063508 0.850935 0.063508
0.0642557 0.842756 0.0634775
0.260304 0.832197 0.0624857
0.49926 0.819638 0.0619669
0.672984 0.805402 0.0618296
0.833158 0.788693 0.0618296
0.934218 0.768856 0.0618753
0.998703 0.745205 0.0619364
1 0.714946 0.0619974
1 0.675395 0.0620432
1 0.62211 0.062089
1 0.539559 0.0621958
1 0.386999 0.0625467
1 0.157458 0.0638132
1 0.0649729 0.0649729
1 0.0649729 0.0649729
0.0634928 0.846082 0.0634928
0.0635386 0.857496 0.0635386
0.0635691 0.86807 0.0635691
0.0635996 0.878202 0.0635996
0.0636454 0.88835 0.0636454
0.0636759 0.897032 0.0636759
0.0636912 0.904753 0.0636912
0.0637217 0.911971 0.0637217
0.0637369 0.918517 0.0637369
0.0637675 0.924056 0.0637675
0.0637827 0.928252 0.0637827
0.0637827 0.930571 0.0637827
0.063798 0.931991 0.063798
0.063798 0.932387 0.063798
0.063798 0.931884 0.063798
0.0637827 0.930419 0.0637827
0.0637827 0.927565 0.0637827
0.0637675 0.923156 0.0637675
0.0637369 0.917403 0.0637369
0.0708934 0.910674 0.0636606
0.325093 0.901747 0.0624857
0.578439 0.892699 0.0620279
0.760845 0.88249 0.0619059
0.901457 0.870405 0.0619059
0.978714 0.855436 0.0619364
1 0.833722 0.0619669
1 0.803708 0.0619974
1 0.763851 0.0619974
1 0.707393 0.0620279
1 0.621897 0.062089
1 0.487083 0.0622873
1 0.211597 0.063386
1 0.0739757 0.0648203
0.0637369 0.915328 0.0637369
0.0637675 0.924727 0.0637675
0.063798 0.933288 0.063798
0.0638285 0.940932 0.0638285
0.0638437 0.947921 0.0638437
0.0638743 0.954467 0.0638743
0.0638895 0.961028 0.0638895
0.06392 0.967147 0.06392
0.0639353 0.972702 0.0639353
0.0639506 0.976944 0.0639506
0.0639658 0.980102 0.0639658
0.0639658 0.981903 0.0639658
0.0639658 0.982742 0.0639658
0.0639658 0.98294 0.0639658
0.0639658 0.982483 0.0639658
0.0639658 0.981323 0.0639658
0.0639506 0.979019 0.0639506
0.0639506 0.975616 0.0639506
0.0639353 0.971435 0.0639353
0.0639048 0.966369 0.0639048
0.105776 0.960113 0.0635843
0.433219 0.952651 0.0623484
0.665232 0.945418 0.0620432
0.850446 0.937789 0.0619669
0.952483 0.928496 0.0619669
1 0.917494 0.0619821
1 0.902388 0.0619974
1 0.881636 0.0620127
1 0.846937 0.0619974
1 0.789883 0.0619974
1 0.702907 0.0620279
1 0.559548 0.0621653
1 0.490669 0.0622721
0.06392 0.968994 0.06392
0.0639506 0.976684 0.0639506
0.0639658 0.983276 0.0639658
0.0639963 0.989609 0.0639963
0.0640116 0.995804 0.0640116
0.0640421 1 0.0640421
0.0640574 1 0.0640574
0.0640726 1 0.0640726
0.0640879 1 0.0640879
0.0641031 1 0.0641031
0.0641031 1 0.0641031
0.0641184 1 0.0641184
0.0641184 1 0.0641184
0.0641184 1 0.0641184
0.0641184 1 0.0641184
0.0641184 1 0.0641184
0.0641031 1 0.0641031
0.0640879 1 0.0640879
0.0640726 1 0.0640726
0.0640574 1 0.0640574
0.0640421 1 0.0640421
0.13962 1 0.063508
0.525185 0.993484 0.0622873
0.759289 0.987457 0.0620432
0.914702 0.981048 0.0620127
0.99443 0.973587 0.0620127
1 0.964492 0.0620279
1 0.952316 0.0620279
1 0.935241 0.0620279
1 0.909361 0.0620127
1 0.862623 0.0619974
1 0.776532 0.0619974
1 0.713481 0.0620279
0.0640726 1 0.0640726
0.0641031 1 0.0641031
0.0641184 1 0.0641184
0.0641337 1 0.0641337
0.0641642 1 0.0641642
0.0641794 1 0.0641794
0.0641947 1 0.0641947
0.06421 1 0.06421
0.0642252 1 0.0642252
0.0642405 1 0.0642405
0.0642405 1 0.0642405
0.0642557 1 0.0642557
0.0642557 1 0.0642557
0.0642557 1 0.0642557
0.0642557 1 0.0642557
0.0642405 1 0.0642405
0.0642405 1 0.0642405
0.0642252 1 0.0642252
0.06421 1 0.06421
0.0641947 1 0.0641947
0.0641794 1 0.0641794
0.0641642 1 0.0641642
0.236332 1 0.0631571
0.614572 1 0.0622263
0.848035 1 0.0620584
0.963027 1 0.0620432
1 1 0.0620432
1 1 0.0620584
1 0.991989 0.0620584
1 0.976959 0.0620432
1 0.954879 0.0620279
1 0.916686 0.0620127
1 0.878233 0.0620127
0.06421 1 0.06421
0.0642405 1 0.0642405
0.0642557 1 0.0642557
0.0642557 1 0.0642557
0.064271 1 0.064271
0.064271 1 0.064271
0.064271 1 0.064271
0.0642863 1 0.0642863
0.0642863 1 0.0642863
