lut/f0de1c36-d600-429f-bc16-b1b3168ef2b8.cube
TITLE "Vibrant Greens"
LUT_3D_SIZE 9
0.0611887 0.0611887 0.0611887
0.107408 0.0612345 0.0612345
0.209323 0.0614481 0.0614481
0.346883 0.0618906 0.0618906
0.563378 0.0627298 0.0627298
0.908431 0.0642252 0.0642252
1 0.0649729 0.0649729
1 0.0649729 0.0649729
1 0.0649729 0.0649729
0.0612039 0.0803082 0.0612039
0.0789654 0.0739452 0.0612039
0.187625 0.0620432 0.061387
0.338598 0.0618601 0.0618601
0.559579 0.0627146 0.0627146
0.908598 0.0642252 0.0642252
1 0.0649729 0.0649729
1 0.0649729 0.0649729
1 0.0649729 0.0649729
0.0612955 0.14139 0.0612955
0.0612955 0.139086 0.0612955
0.139452 0.127459 0.0612192
0.311986 0.0965896 0.0615854
0.547341 0.0626688 0.0626688
0.911604 0.0642405 0.0642405
1 0.0649729 0.0649729
1 0.0649729 0.0649729
1 0.0649729 0.0649729
0.0615244 0.235126 0.0615244
0.0615396 0.241993 0.0615396
0.0616464 0.242008 0.0615396
0.242313 0.223285 0.0612955
0.507301 0.153841 0.0618753
0.896757 0.0641794 0.0641794
1 0.0649729 0.0649729
1 0.0649729 0.0649729
1 0.0649729 0.0649729
0.0619364 0.377295 0.0619364
0.0619821 0.395056 0.0619821
0.0620279 0.409201 0.0620279
0.0620279 0.406378 0.0620279
0.401526 0.377813 0.0614328
0.826062 0.271092 0.0623026
1 0.0649424 0.0649424
1 0.0649729 0.0649729
1 0.0649729 0.0649729
0.0626535 0.600183 0.0626535
0.0627604 0.633677 0.0627604
0.0628672 0.665797 0.0628672
0.0629282 0.679667 0.0629282
0.0628824 0.669032 0.0628824
0.65771 0.621912 0.0616617
1 0.51136 0.06215
1 0.067216 0.0649424
1 0.0649729 0.0649729
0.0637369 0.915328 0.0637369
0.0638437 0.947921 0.0638437
0.0639353 0.972702 0.0639353
0.0639658 0.982742 0.0639658
0.0639506 0.979019 0.0639506
0.105776 0.960113 0.0635843
0.952483 0.928496 0.0619669
1 0.846937 0.0619974
1 0.490669 0.0622721
0.0642863 1 0.0642863
0.0642863 1 0.0642863
0.0642863 1 0.0642863
0.0642863 1 0.0642863
0.0642863 1 0.0642863
0.0642863 1 0.0642863
0.425589 1 0.0626535
1 1 0.0621042
1 1 0.0620737
0.0642863 1 0.0642863
0.0642863 1 0.0642863
0.0642863 1 0.0642863
0.0642863 1 0.0642863
0.0642863 1 0.0642863
0.0642863 1 0.0642863
0.0642863 1 0.0642863
0.620874 1 0.0623026
1 1 0.0621042
0.0612192 0.0612192 0.112428
0.0958724 0.0612192 0.0953994
0.200702 0.0614328 0.0702525
0.344015 0.0618906 0.0618906
0.562188 0.0627298 0.0627298
0.907729 0.0642252 0.0642252
1 0.0649729 0.0649729
1 0.0649729 0.0649729
1 0.0649729 0.0649729
0.0612039 0.0760967 0.0796979
0.0709392 0.0700999 0.0706951
0.180621 0.0614176 0.0617075
0.336721 0.0618601 0.0618601
0.559579 0.0627146 0.0627146
0.909117 0.0642252 0.0642252
1 0.0649729 0.0649729
1 0.0649729 0.0649729
1 0.0649729 0.0649729
0.0612955 0.139376 0.0612955
0.0612802 0.137545 0.0612802
0.136034 0.126467 0.0612192
0.312581 0.0971237 0.0615854
0.550362 0.0626841 0.0626841
0.915694 0.0642557 0.0642557
1 0.0649729 0.0649729
1 0.0649729 0.0649729
1 0.0649729 0.0649729
0.0615244 0.236881 0.0615244
0.0615396 0.244923 0.0615396
0.0616312 0.24593 0.0615549
0.247364 0.228168 0.0612955
0.514336 0.158984 0.0618753
0.904143 0.06421 0.06421
1 0.0649729 0.0649729
1 0.0649729 0.0649729
1 0.0649729 0.0649729
0.0619516 0.382757 0.0619516
0.0620127 0.401282 0.0620127
0.0620584 0.41651 0.0620584
0.0620584 0.413947 0.0620432
0.410483 0.386023 0.0614328
0.841215 0.279484 0.0623026
1 0.0649577 0.0649577
1 0.0649729 0.0649729
1 0.0649729 0.0649729
0.0626841 0.610636 0.0626841
0.0628061 0.645838 0.0628061
0.0629282 0.67982 0.0629282
0.062974 0.694713 0.062974
0.0629435 0.684672 0.0629435
0.672847 0.636637 0.061677
1 0.523827 0.06215
1 0.0742504 0.0648203
1 0.0649729 0.0649729
0.0637675 0.926741 0.0637675
0.0638743 0.957458 0.0638743
0.0639658 0.981247 0.0639658
0.0639963 0.991333 0.0639963
0.0639811 0.987259 0.0639811
0.0990005 0.968719 0.0636606
0.961074 0.937667 0.0619821
1 0.85803 0.0619974
1 0.528405 0.062211
0.0642863 1 0.0642863
0.0642863 1 0.0642863
0.0642863 1 0.0642863
0.0642863 1 0.0642863
0.0642863 1 0.0642863
0.0642863 1 0.0642863
0.426703 1 0.0626535
1 1 0.0621042
1 1 0.0620737
0.0642863 1 0.0642863
0.0642863 1 0.0642863
0.0642863 1 0.0642863
0.0642863 1 0.0642863
0.0642863 1 0.0642863
0.0642863 1 0.0642863
0.0642863 1 0.0642863
0.626963 1 0.0623026
1 1 0.0621042
0.061326 0.061326 0.218387
0.0759289 0.0612955 0.204623
0.182193 0.0614176 0.181094
0.333928 0.0618296 0.122652
0.555535 0.0626993 0.0626993
0.904479 0.06421 0.06421
1 0.0649577 0.0649577
1 0.0649729 0.0649729
1 0.0649729 0.0649729
0.0612802 0.0674601 0.190982
0.0623941 0.0625925 0.182193
0.163012 0.0613565 0.16202
0.327504 0.0618143 0.113176
0.554376 0.0626993 0.0626993
0.907744 0.0642252 0.0642252
1 0.0649729 0.0649729
1 0.0649729 0.0649729
1 0.0649729 0.0649729
0.061265 0.13135 0.139559
0.061265 0.130068 0.136446
0.119173 0.119417 0.118502
0.304204 0.0907149 0.0804761
0.548791 0.0626688 0.0626688
0.918013 0.064271 0.064271
1 0.0649729 0.0649729
1 0.0649729 0.0649729
1 0.0649729 0.0649729
0.0615091 0.233814 0.0616922
0.0615396 0.242557 0.0616922
0.0615396 0.244282 0.0615396
0.240955 0.227314 0.0612955
0.516701 0.15816 0.0618906
0.909545 0.0642252 0.0642252
1 0.0649729 0.0649729
1 0.0649729 0.0649729
1 0.0649729 0.0649729
0.0619669 0.386648 0.0619669
0.0620279 0.405692 0.0620279
0.0620737 0.421134 0.0620737
0.0620737 0.419348 0.0620584
0.415793 0.392126 0.0614328
0.853513 0.286839 0.0623178
1 0.0649729 0.0649729
1 0.0649729 0.0649729
1 0.0649729 0.0649729
0.0627146 0.619379 0.0627146
0.0628367 0.656153 0.0628367
0.0629587 0.691981 0.0629587
0.0630198 0.707866 0.0630198
0.062974 0.697368 0.062974
0.686213 0.649287 0.0616922
1 0.534722 0.06215
1 0.0821851 0.0646982
1 0.0649729 0.0649729
0.063798 0.935973 0.063798
0.0639048 0.965576 0.0639048
0.0639811 0.988464 0.0639811
0.0640269 0.998047 0.0640269
0.0640116 0.993622 0.0640116
0.101335 0.974853 0.0636606
0.967941 0.94461 0.0619821
1 0.866529 0.0619974
1 0.557046 0.0621653
0.0642863 1 0.0642863
0.0642863 1 0.0642863
0.0642863 1 0.0642863
0.0642863 1 0.0642863
0.0642863 1 0.0642863
0.0642863 1 0.0642863
0.427527 1 0.0626535
1 1 0.0621042
1 1 0.062089
0.0642863 1 0.0642863
0.0642863 1 0.0642863
0.0642863 1 0.0642863
0.0642863 1 0.0642863
0.0642863 1 0.0642863
0.0642863 1 0.0642863
0.0642863 1 0.0642863
0.641947 1 0.0622721
1 1 0.0621042
0.0615396 0.0615396 0.366644
0.061677 0.0615396 0.360052
0.13698 0.0615244 0.345403
0.309087 0.0618601 0.307759
0.538293 0.0625772 0.190021
0.894102 0.0641642 0.0641642
1 0.0649577 0.0649577
1 0.0649729 0.0649729
1 0.0649729 0.0649729
0.0615244 0.0615244 0.351797
0.0615091 0.0615091 0.347784
0.121645 0.0614939 0.335637
0.304555 0.0618448 0.303243
0.538689 0.0625772 0.190311
0.898985 0.0641794 0.0641794
1 0.0649729 0.0649729
1 0.0649729 0.0649729
1 0.0649729 0.0649729
0.061387 0.1122 0.319051
0.061387 0.111833 0.319097
0.085481 0.101823 0.309621
0.281041 0.0754406 0.279744
0.536797 0.0625772 0.168933
0.913451 0.0642405 0.0642405
1 0.0649729 0.0649729
1 0.0649729 0.0649729
1 0.0649729 0.0649729
0.0614328 0.219852 0.232242
0.0614481 0.230228 0.242557
0.0614481 0.232853 0.241474
0.214481 0.215717 0.213245
0.508446 0.146059 0.100023
0.907607 0.0642252 0.0642252
1 0.0649729 0.0649729
1 0.0649729 0.0649729
1 0.0649729 0.0649729
0.0619516 0.381888 0.0619516
0.0620127 0.401389 0.0628214
0.0620584 0.417746 0.06215
0.0620584 0.416556 0.0620584
0.407691 0.389883 0.0614328
0.856001 0.283574 0.0623331
1 0.0649729 0.0649729
1 0.0649729 0.0649729
1 0.0649729 0.0649729
0.0627146 0.620356 0.0627146
0.0628519 0.658595 0.0628519
0.062974 0.695354 0.062974
0.063035 0.711711 0.063035
0.0629892 0.701793 0.0629892
0.688075 0.652552 0.0616922
1 0.537408 0.06215
1 0.0816663 0.0646982
1 0.0649729 0.0649729
0.0638132 0.939406 0.0638132
0.06392 0.968963 0.06392
0.0639963 0.991043 0.0639963
0.0640269 1 0.0640269
0.0640116 0.995697 0.0640116
0.0927749 0.976654 0.0637217
0.969314 0.946181 0.0619821
1 0.867918 0.0619974
1 0.559258 0.0621653
0.0642863 1 0.0642863
0.0642863 1 0.0642863
0.0642863 1 0.0642863
0.0642863 1 0.0642863
0.0642863 1 0.0642863
0.0642863 1 0.0642863
0.425269 1 0.0626535
1 1 0.0621042
1 1 0.062089
0.0642863 1 0.0642863
0.0642863 1 0.0642863
0.0642863 1 0.0642863
0.0642863 1 0.0642863
0.0642863 1 0.0642863
0.0642863 1 0.0642863
0.0642863 1 0.0642863
0.643198 1 0.0622721
1 1 0.0621042
0.0620279 0.0620279 0.619257
0.0620279 0.0620279 0.614221
0.0619974 0.0619974 0.60058
0.216068 0.0619974 0.565209
0.496513 0.0626383 0.494728
0.870161 0.0639506 0.305669
1 0.0649271 0.0649271
1 0.0649729 0.0649729
1 0.0649729 0.0649729
0.0620127 0.0620127 0.606668
0.0619974 0.0619974 0.604089
0.0619821 0.0619821 0.59353
0.214115 0.0619821 0.562676
0.498329 0.0626535 0.496529
0.879683 0.0639963 0.313909
1 0.0649577 0.0649577
1 0.0649729 0.0649729
1 0.0649729 0.0649729
0.0619059 0.0679789 0.575708
0.0619211 0.068452 0.578729
0.0619211 0.0648814 0.574517
0.181186 0.0619974 0.552682
0.500313 0.0626535 0.498512
0.898817 0.0640726 0.321736
1 0.0649729 0.0649729
1 0.0649729 0.0649729
1 0.0649729 0.0649729
0.0616007 0.174701 0.503746
0.0616159 0.186267 0.518166
0.0616312 0.188739 0.527123
0.10782 0.170123 0.517342
0.474479 0.103471 0.47274
0.895277 0.0640574 0.28716
1 0.0649729 0.0649729
1 0.0649729 0.0649729
1 0.0649729 0.0649729
0.0617533 0.36405 0.379248
0.061799 0.384207 0.399969
0.0618448 0.400488 0.416266
0.0618448 0.399817 0.411185
0.37261 0.373861 0.371115
0.843412 0.2607 0.138521
1 0.0649729 0.0649729
1 0.0649729 0.0649729
1 0.0649729 0.0649729
0.0626841 0.611063 0.0626841
0.0628214 0.650217 0.0628214
0.0629435 0.687495 0.0629435
0.0630045 0.704509 0.0630045
0.062974 0.694316 0.062974
0.673335 0.644999 0.061677
1 0.528145 0.06215
1 0.0760357 0.0647898
1 0.0649729 0.0649729
0.0638132 0.936751 0.0638132
0.0639048 0.966323 0.0639048
0.0639963 0.988815 0.0639963
0.0640269 0.997909 0.0640269
0.0639963 0.992309 0.0639963
0.065095 0.972992 0.06392
0.962982 0.940978 0.0619821
1 0.859113 0.0619974
1 0.530251 0.062211
0.0642863 1 0.0642863
0.0642863 1 0.0642863
0.0642863 1 0.0642863
0.0642863 1 0.0642863
0.0642863 1 0.0642863
0.0642863 1 0.0642863
0.404288 1 0.0627146
1 1 0.0621042
1 1 0.0620737
0.0642863 1 0.0642863
0.0642863 1 0.0642863
0.0642863 1 0.0642863
0.0642863 1 0.0642863
0.0642863 1 0.0642863
0.0642863 1 0.0642863
0.0642863 1 0.0642863
0.619623 1 0.0623026
1 1 0.0621042
0.0628367 0.0628367 0.976623
0.0628367 0.0628367 0.97438
0.0628214 0.0628214 0.967758
0.0627756 0.0627756 0.946609
0.337713 0.0628367 0.903914
0.806668 0.0641031 0.804685
1 0.0648508 0.580072
1 0.0649729 0.0649729
1 0.0649729 0.0649729
0.0628214 0.0628214 0.97052
0.0628214 0.0628214 0.969741
0.0628061 0.0628061 0.964355
0.0627604 0.0627604 0.945739
0.340841 0.0628519 0.907362
0.820829 0.0641794 0.818753
1 0.0648966 0.598795
1 0.0649729 0.0649729
1 0.0649729 0.0649729
0.0627909 0.0627909 0.953948
0.0627909 0.0627909 0.956847
0.0627909 0.0627909 0.956802
0.0627604 0.0627604 0.945357
0.344976 0.0628824 0.918471
0.85391 0.064332 0.851148
1 0.0649729 0.643198
1 0.0649729 0.0649729
1 0.0649729 0.0649729
0.0626688 0.0626688 0.906844
0.0627146 0.0629892 0.922087
0.0627298 0.0627298 0.932738
0.0627298 0.0627298 0.93022
0.308095 0.0627909 0.909712
0.850416 0.0643168 0.847745
1 0.0649882 0.644938
1 0.0649729 0.0649729
1 0.0649729 0.0649729
0.0619974 0.300618 0.805066
0.0620584 0.319249 0.838392
0.0621042 0.335821 0.86656
0.0621042 0.333898 0.87155
0.141283 0.304875 0.855436
0.791241 0.147494 0.788495
1 0.0649424 0.592386
1 0.0649729 0.0649729
1 0.0649729 0.0649729
0.0623178 0.583597 0.605798
0.0624247 0.622415 0.646372
0.0625162 0.6598 0.684443
0.062562 0.675837 0.700114
0.0625315 0.665751 0.68484
0.613642 0.616037 0.611414
1 0.494072 0.355962
1 0.0649729 0.0649729
1 0.0649729 0.0649729
0.0636912 0.926696 0.0944991
0.0637827 0.957595 0.105226
0.063859 0.980438 0.103929
0.0638895 0.989227 0.107179
0.0639658 0.98352 0.0643626
0.0639048 0.963241 0.0639048
0.945052 0.927733 0.0619669
1 0.838911 0.0619974
1 0.462959 0.0623331
0.0642863 1 0.0642863
0.0642863 1 0.0642863
0.0642863 1 0.0642863
0.0642863 1 0.0642863
0.0642863 1 0.0642863
0.0642863 1 0.0642863
0.325261 1 0.0629282
1 1 0.0621042
1 1 0.0620737
0.0642863 1 0.0642863
0.0642863 1 0.0642863
0.0642863 1 0.0642863
0.0642863 1 0.0642863
0.0642863 1 0.0642863
0.0642863 1 0.0642863
0.0642863 1 0.0642863
0.580194 1 0.0623636
1 1 0.0621042
0.0630655 0.0630655 1
0.0630655 0.0630655 1
0.0630655 0.0630655 1
0.0630655 0.0630655 1
0.0630655 0.0630655 1
0.618814 0.0638437 1
1 0.0652018 1
1 0.0652628 0.926055
1 0.0649424 0.0844892
0.0630655 0.0630655 1
0.0630655 0.0630655 1
0.0630655 0.0630655 1
0.0630655 0.0630655 1
0.0630655 0.0630655 1
0.633539 0.0639048 1
1 0.0652628 1
1 0.0652934 0.954376
1 0.0649119 0.550774
0.0630655 0.0630655 1
0.0630655 0.0630655 1
0.0630655 0.0630655 1
0.0630655 0.0630655 1
0.0630655 0.0630655 1
0.667628 0.0640116 1
1 0.0653849 1
1 0.0653391 0.99173
1 0.0651713 0.849348
0.0630655 0.0630655 1
0.0630655 0.0630655 1
0.0630655 0.0630655 1
0.0630655 0.0630655 1
0.0630655 0.0630655 1
0.664347 0.0640116 1
1 0.0654002 1
1 0.0653544 1
1 0.0652781 0.947021
0.063035 0.063035 1
0.063035 0.0655222 1
0.0630655 0.0630655 1
0.0630655 0.0630655 1
0.0630655 0.0630655 1
0.604486 0.0638285 1
1 0.0653697 1
1 0.0653391 0.994049
1 0.0652323 0.906523
0.0624399 0.515999 1
0.062501 0.552605 1
0.0625772 0.586877 1
0.0626078 0.601007 1
0.0625925 0.590143 1
0.370336 0.537102 1
1 0.387106 1
1 0.0652476 0.921111
1 0.0648814 0.488685
0.0631876 0.908263 0.925704
0.0632792 0.941131 0.956207
0.0633402 0.965408 0.979751
0.0633707 0.974029 0.987396
0.0633555 0.967422 0.980438
0.0632944 0.944808 0.955596
0.898878 0.904295 0.897154
1 0.797055 0.672129
1 0.337743 0.0627146
0.0637522 1 0.421942
0.0637369 1 0.441749
0.0637064 1 0.473594
0.0637064 1 0.472648
0.0637217 1 0.447761
0.063859 1 0.303822
0.220081 1 0.219318
1 1 0.063798
1 1 0.0620584
0.0642863 1 0.0642863
0.0642863 1 0.0642863
0.0642863 1 0.0642863
0.0642863 1 0.0642863
0.0642863 1 0.0642863
0.0642863 1 0.0642863
0.0642863 1 0.0642863
0.44802 1 0.0626078
1 1 0.0621042
0.0630655 0.0630655 1
0.0630655 0.0630655 1
0.0630655 0.0630655 1
0.0630655 0.0630655 1
0.0630655 0.0630655 1
0.0630655 0.0630655 1
0.950607 0.0649882 1
1 0.0654459 1
1 0.0654459 1
0.0630655 0.0630655 1
0.0630655 0.0630655 1
0.0630655 0.0630655 1
0.0630655 0.0630655 1
0.0630655 0.0630655 1
0.0630655 0.0630655 1
0.968505 0.0650492 1
1 0.0654459 1
1 0.0654459 1
0.0630655 0.0630655 1
0.0630655 0.0630655 1
0.0630655 0.0630655 1
0.0630655 0.0630655 1
0.0630655 0.0630655 1
0.0630655 0.0630655 1
1 0.0651713 1
1 0.0654459 1
1 0.0654459 1
0.0630655 0.0630655 1
0.0630655 0.0630655 1
0.0630655 0.0630655 1
0.0630655 0.0630655 1
0.0630655 0.0630655 1
0.0630655 0.0630655 1
1 0.0652018 1
1 0.0654459 1
1 0.0654459 1
0.0630655 0.0630655 1
0.0630655 0.0630655 1
0.0630655 0.0630655 1
0.0630655 0.0630655 1
0.0630655 0.0630655 1
0.0630655 0.0630655 1
0.99704 0.065156 1
1 0.0654459 1
1 0.0654459 1
0.0623789 0.254994 1
0.0623636 0.274113 1
0.0623636 0.284169 1
0.0623636 0.301961 1
0.0623636 0.276768 1
0.0624704 0.190066 1
0.927611 0.066865 1
1 0.0654459 1
1 0.0654459 1
0.0631266 0.857984 1
0.0632181 0.899275 1
0.0632792 0.927855 1
0.0633097 0.937057 1
0.0632944 0.928649 1
0.0632181 0.898878 1
0.689021 0.840238 1
1 0.693141 1
1 0.0666514 1
0.0636301 1 1
0.0636301 1 1
0.0636301 1 1
0.0636301 1 1
0.0636301 1 1
0.0636301 1 1
0.0636301 1 1
1 1 1
1 0.990372 0.899565
0.0636301 1 0.651179
0.0635996 1 0.840909
0.0636149 1 0.895933
0.0636149 1 0.902052
0.0635996 1 0.860243
0.0636454 1 0.627451
0.0637369 1 0.428138
0.313802 1 0.312581
1 1 0.0621042
0.0630655 0.0630655 1
0.0630655 0.0630655 1
0.0630655 0.0630655 1
0.0630655 0.0630655 1
0.0630655 0.0630655 1
0.0630655 0.0630655 1
0.557534 0.0636912 1
1 0.0654459 1
1 0.0654459 1
0.0630655 0.0630655 1
0.0630655 0.0630655 1
0.0630655 0.0630655 1
0.0630655 0.0630655 1
0.0630655 0.0630655 1
0.0630655 0.0630655 1
0.720546 0.0641794 1
1 0.0654459 1
1 0.0654459 1
0.0630655 0.0630655 1
0.0630655 0.0630655 1
0.0630655 0.0630655 1
0.0630655 0.0630655 1
0.0630655 0.0630655 1
0.0630655 0.0630655 1
0.904356 0.0648203 1
1 0.0654459 1
1 0.0654459 1
0.0630655 0.0630655 1
0.0630655 0.0630655 1
0.0630655 0.0630655 1
0.0630655 0.0630655 1
0.0630655 0.0630655 1
0.0630655 0.0630655 1
0.956985 0.0650034 1
1 0.0654459 1
1 0.0654459 1
0.0630655 0.0630655 1
0.0630655 0.0630655 1
0.0630655 0.0630655 1
0.0630655 0.0630655 1
0.0630655 0.0630655 1
0.0630655 0.0630655 1
0.914351 0.0648508 1
1 0.0654459 1
1 0.0654459 1
0.0630655 0.0630655 1
0.0630655 0.0630655 1
0.0630655 0.0630655 1
0.0630655 0.0630655 1
0.0630655 0.0630655 1
0.0630655 0.0630655 1
0.568231 0.0637217 1
1 0.0654459 1
1 0.0654459 1
0.0627146 0.650507 1
0.0628977 0.753765 1
0.0630655 0.831785 1
0.0631113 0.853315 1
0.0630655 0.831373 1
0.0628977 0.752041 1
0.0626688 0.632136 1
1 0.336004 1
1 0.0654459 1
0.0635996 1 1
0.0636301 1 1
0.0636301 1 1
0.0636301 1 1
0.0636301 1 1
0.0635996 1 1
0.0635691 1 1
0.918273 1 1
1 0.928359 1
0.0636301 1 1
0.0636301 1 1
0.0636301 1 1
0.0636301 1 1
0.0636301 1 1
0.0636301 1 1
0.0636301 1 1
0.0636301 1 1
1 1 1
