lut/f0de1c36-d600-429f-bc16-b1b3168ef2b8.cube
TITLE "Vibrant Greens"
LUT_3D_SIZE 5
0.0611887 0.0611887 0.0611887
0.209323 0.0614481 0.0614481
0.563378 0.0627298 0.0627298
1 0.0649729 0.0649729
1 0.0649729 0.0649729
0.0612955 0.14139 0.0612955
0.139452 0.127459 0.0612192
0.547341 0.0626688 0.0626688
1 0.0649729 0.0649729
1 0.0649729 0.0649729
0.0619364 0.377295 0.0619364
0.0620279 0.409201 0.0620279
0.401526 0.377813 0.0614328
1 0.0649424 0.0649424
1 0.0649729 0.0649729
0.0637369 0.915328 0.0637369
0.0639353 0.972702 0.0639353
0.0639506 0.979019 0.0639506
0.952483 0.928496 0.0619669
1 0.490669 0.0622721
0.0642863 1 0.0642863
0.0642863 1 0.0642863
0.0642863 1 0.0642863
0.0642863 1 0.0642863
1 1 0.0621042
0.061326 0.061326 0.218387
0.182193 0.0614176 0.181094
0.555535 0.0626993 0.0626993
1 0.0649577 0.0649577
1 0.0649729 0.0649729
0.061265 0.13135 0.139559
0.119173 0.119417 0.118502
0.548791 0.0626688 0.0626688
1 0.0649729 0.0649729
1 0.0649729 0.0649729
0.0619669 0.386648 0.0619669
0.0620737 0.421134 0.0620737
0.415793 0.392126 0.0614328
1 0.0649729 0.0649729
1 0.0649729 0.0649729
0.063798 0.935973 0.063798
0.0639811 0.988464 0.0639811
0.0640116 0.993622 0.0640116
0.967941 0.94461 0.0619821
1 0.557046 0.0621653
0.0642863 1 0.0642863
0.0642863 1 0.0642863
0.0642863 1 0.0642863
0.0642863 1 0.0642863
1 1 0.0621042
0.0620279 0.0620279 0.619257
0.0619974 0.0619974 0.60058
0.496513 0.0626383 0.494728
1 0.0649271 0.0649271
1 0.0649729 0.0649729
0.0619059 0.0679789 0.575708
0.0619211 0.0648814 0.574517
0.500313 0.0626535 0.498512
1 0.0649729 0.0649729
1 0.0649729 0.0649729
0.0617533 0.36405 0.379248
0.0618448 0.400488 0.416266
0.37261 0.373861 0.371115
1 0.0649729 0.0649729
1 0.0649729 0.0649729
0.0638132 0.936751 0.0638132
0.0639963 0.988815 0.0639963
0.0639963 0.992309 0.0639963
0.962982 0.940978 0.0619821
1 0.530251 0.062211
0.0642863 1 0.0642863
0.0642863 1 0.0642863
0.0642863 1 0.0642863
0.0642863 1 0.0642863
1 1 0.0621042
0.0630655 0.0630655 1
0.0630655 0.0630655 1
0.0630655 0.0630655 1
1 0.0652018 1
1 0.0649424 0.0844892
0.0630655 0.0630655 1
0.0630655 0.0630655 1
0.0630655 0.0630655 1
1 0.0653849 1
1 0.0651713 0.849348
0.063035 0.063035 1
0.0630655 0.0630655 1
0.0630655 0.0630655 1
1 0.0653697 1
1 0.0652323 0.906523
0.0631876 0.908263 0.925704
0.0633402 0.965408 0.979751
0.0633555 0.967422 0.980438
0.898878 0.904295 0.897154
1 0.337743 0.0627146
0.0642863 1 0.0642863
0.0642863 1 0.0642863
0.0642863 1 0.0642863
0.0642863 1 0.0642863
1 1 0.0621042
0.0630655 0.0630655 1
0.0630655 0.0630655 1
0.0630655 0.0630655 1
0.557534 0.0636912 1
1 0.0654459 1
0.0630655 0.0630655 1
0.0630655 0.0630655 1
0.0630655 0.0630655 1
0.904356 0.0648203 1
1 0.0654459 1
0.0630655 0.0630655 1
0.0630655 0.0630655 1
0.0630655 0.0630655 1
0.914351 0.0648508 1
1 0.0654459 1
0.0627146 0.650507 1
0.0630655 0.831785 1
0.0630655 0.831373 1
0.0626688 0.632136 1
1 0.0654459 1
0.0636301 1 1
0.0636301 1 1
0.0636301 1 1
0.0636301 1 1
1 1 1
