lut/f85ae58e-3d8c-496f-888d-54ce8b652066.cube
TITLE "Cool Breeze"
LUT_3D_SIZE 16
0.000126 0.001087 0.020062
0.003315 0.001556 0.012203
0.027885 0.002554 0.011320
0.063853 0.004340 0.007841
0.101624 0.006489 0.004618
0.141666 0.009396 0.002708
0.184400 0.013891 0.004638
0.231956 0.017546 0.006388
0.280759 0.020398 0.007272
0.327764 0.022881 0.008118
0.374995 0.026172 0.008544
0.419715 0.029079 0.008704
0.462074 0.031471 0.009106
0.500121 0.033368 0.009940
0.528637 0.034782 0.011700
0.537155 0.035195 0.012243
0.000615 0.018084 0.014761
0.007936 0.022878 0.009737
0.033430 0.026981 0.006437
0.065878 0.033097 0.004482
0.100483 0.038407 0.004212
0.139631 0.043257 0.004289
0.183530 0.047402 0.004691
0.231268 0.052008 0.004928
0.281521 0.056541 0.004889
0.336143 0.061240 0.004899
0.389300 0.065914 0.004874
0.436785 0.070104 0.004639
0.479730 0.073824 0.004071
0.517776 0.076078 0.003823
0.544914 0.076430 0.004317
0.552195 0.074599 0.004586
0.001925 0.058992 0.011221
0.016977 0.066740 0.007419
0.041734 0.072587 0.006230
0.072069 0.078190 0.005415
0.105024 0.083445 0.004751
0.143272 0.087906 0.003984
0.187636 0.091897 0.004079
0.236309 0.095650 0.004909
0.285960 0.099870 0.005806
0.341597 0.105624 0.006596
0.398715 0.110704 0.006153
0.449491 0.113383 0.005219
0.494702 0.115476 0.004596
0.534285 0.116859 0.004124
0.562417 0.116320 0.004046
0.569389 0.113154 0.003919
0.012016 0.105912 0.010771
0.030912 0.115048 0.009966
0.056538 0.121010 0.011204
0.080883 0.125181 0.012981
0.112687 0.129961 0.012095
0.151267 0.134433 0.010082
0.195436 0.138514 0.008402
0.244087 0.142084 0.007916
0.294252 0.145127 0.008336
0.349167 0.149170 0.009054
0.405601 0.152521 0.008450
0.457014 0.153632 0.007163
0.504910 0.153537 0.005936
0.549090 0.152867 0.005358
0.578821 0.150922 0.005344
0.584842 0.145767 0.005170
0.028892 0.154878 0.015081
0.049331 0.165370 0.014331
0.072076 0.171612 0.015041
0.095670 0.175412 0.016438
0.122787 0.179976 0.018180
0.160624 0.184398 0.016593
0.205806 0.188568 0.013926
0.254387 0.192039 0.011710
0.306371 0.194638 0.011794
0.362486 0.196659 0.013439
0.419009 0.197308 0.013562
0.470609 0.196107 0.011014
0.519582 0.194484 0.008764
0.566230 0.192281 0.006776
0.599700 0.187938 0.006371
0.605100 0.179662 0.006169
0.049892 0.212983 0.019397
0.072836 0.222700 0.018045
0.090049 0.227903 0.019908
0.110042 0.231342 0.023373
0.137224 0.235959 0.026634
0.173061 0.241461 0.029924
0.217872 0.245038 0.029030
0.268522 0.247954 0.026849
0.322677 0.249968 0.025154
0.380520 0.251323 0.025410
0.439319 0.250424 0.025001
0.494171 0.247562 0.023517
0.544707 0.242770 0.020262
0.590914 0.237396 0.015869
0.624096 0.229846 0.010827
0.627620 0.217549 0.007664
0.076938 0.281569 0.030418
0.104770 0.288979 0.025357
0.122801 0.293415 0.026620
0.131725 0.294601 0.032043
0.153034 0.298499 0.037725
0.189718 0.305082 0.043309
0.233510 0.311587 0.048790
0.283883 0.312826 0.048465
0.339974 0.313372 0.045594
0.399313 0.313817 0.043067
0.459947 0.311568 0.041730
0.518312 0.306994 0.040286
0.573548 0.299641 0.037067
0.621603 0.290569 0.031154
0.657089 0.279020 0.023240
0.657874 0.261569 0.017569
0.107790 0.358029 0.038249
0.136133 0.363515 0.031621
0.148697 0.364842 0.034071
0.157321 0.366364 0.040786
0.170734 0.369014 0.047916
0.205574 0.375917 0.051886
0.249961 0.384027 0.058141
0.305985 0.393045 0.061224
0.363443 0.391923 0.060470
0.424143 0.389678 0.059507
0.484973 0.384336 0.061096
0.544789 0.376698 0.060444
0.601376 0.365547 0.056643
0.653661 0.353015 0.050895
0.692251 0.338248 0.045029
0.691472 0.313914 0.035252
0.135407 0.437929 0.042311
0.162775 0.443442 0.037885
0.168430 0.442683 0.042288
0.175994 0.445453 0.050604
0.192963 0.450097 0.058484
0.225335 0.457103 0.062937
0.267051 0.464096 0.067327
0.324536 0.474605 0.069050
0.392144 0.485862 0.070239
0.453937 0.480935 0.070840
0.517163 0.472937 0.076188
0.578617 0.460381 0.080865
0.635661 0.444920 0.074478
0.689233 0.428766 0.063303
0.730338 0.407943 0.059406
0.727874 0.375688 0.055020
0.152667 0.516280 0.043916
0.171668 0.519849 0.043723
0.177420 0.520295 0.047723
0.188105 0.527683 0.060365
0.216416 0.542730 0.078477
0.251525 0.551593 0.083889
0.290881 0.555826 0.083628
0.343526 0.563265 0.074288
0.411594 0.575882 0.073286
0.489984 0.587788 0.069888
0.553282 0.574301 0.077802
0.616921 0.557104 0.089044
0.675461 0.535919 0.088518
0.731533 0.514458 0.075949
0.771687 0.487530 0.067804
0.765795 0.446943 0.062640
0.161966 0.597423 0.048053
0.181319 0.602371 0.048322
0.192072 0.605779 0.050743
0.205223 0.614926 0.061798
0.237361 0.634185 0.084465
0.278973 0.648044 0.102469
0.321495 0.654665 0.105333
0.369894 0.659778 0.087087
0.429650 0.667610 0.070002
0.505088 0.678378 0.064087
0.593530 0.690220 0.064606
0.655986 0.664171 0.076687
0.719570 0.635926 0.080359
0.780378 0.606805 0.075274
0.819372 0.572894 0.071223
0.808777 0.524862 0.070004
0.173307 0.679774 0.050723
0.191828 0.686202 0.056049
0.207727 0.692316 0.059143
0.225194 0.702389 0.065841
0.258293 0.721779 0.083387
0.301976 0.737075 0.103524
0.348362 0.748219 0.120283
0.397330 0.754730 0.104740
0.451515 0.759995 0.079103
0.519462 0.767769 0.066219
0.603241 0.780108 0.060423
0.704788 0.793743 0.061265
0.767640 0.750674 0.064268
0.833049 0.707319 0.055799
0.871556 0.660723 0.057331
0.856416 0.605281 0.065167
0.193655 0.763536 0.053514
0.210265 0.772395 0.061385
0.227951 0.780588 0.067501
0.247070 0.789575 0.075519
0.275551 0.803103 0.085651
0.317062 0.821098 0.098863
0.362980 0.837949 0.112087
0.413110 0.849127 0.109868
0.469545 0.856033 0.092374
0.534062 0.862319 0.079149
0.614016 0.873590 0.074201
0.706823 0.894742 0.057098
0.839528 0.909374 0.044918
0.898414 0.832264 0.041749
0.928485 0.760504 0.040662
0.908190 0.689337 0.048623
0.221305 0.845598 0.056274
0.235533 0.856263 0.062812
0.246971 0.865689 0.068589
0.265102 0.875683 0.076753
0.290675 0.886724 0.086148
0.325510 0.900056 0.092254
0.366498 0.915795 0.094589
0.414988 0.927595 0.091576
0.474777 0.935725 0.085384
0.540367 0.940576 0.077359
0.615628 0.944540 0.070414
0.699809 0.952896 0.059368
0.806130 1.010568 0.045595
0.974699 1.017395 0.037807
0.984940 0.890560 0.031757
0.962440 0.786270 0.035877
0.248104 0.907035 0.055667
0.261764 0.916860 0.061845
0.269417 0.925708 0.065767
0.282944 0.932320 0.071742
0.302921 0.937985 0.077494
0.335133 0.943217 0.078966
0.370525 0.948245 0.078134
0.410933 1.002913 0.076844
0.466487 1.019749 0.071877
0.529789 1.037845 0.067432
0.599369 1.052587 0.062649
0.675173 1.065158 0.057445
0.762314 1.075889 0.050948
0.881771 1.082605 0.035402
0.999890 1.059397 0.032940
0.996751 0.913359 0.027751
0.256136 0.921999 0.055488
0.269427 0.929100 0.061463
0.275284 0.935519 0.064512
0.286392 0.940092 0.069629
0.302745 0.943804 0.074388
0.330560 0.948461 0.075766
0.362887 1.003152 0.073824
0.396758 1.018729 0.073098
0.442866 1.034154 0.069363
0.499711 1.051798 0.065142
0.563297 1.069385 0.062003
0.631039 1.082338 0.057630
0.704455 1.091914 0.053741
0.792292 1.099279 0.048345
0.910302 1.103168 0.029092
1.009782 1.069435 0.037811
0.000000 0.001466 0.076862
0.005378 0.001935 0.072605
0.029163 0.003170 0.067637
0.059630 0.005726 0.064268
0.093401 0.008384 0.061400
0.131182 0.010745 0.058503
0.172412 0.012753 0.055904
0.218505 0.015679 0.053836
0.267933 0.019035 0.052231
0.320192 0.023369 0.050217
0.371369 0.027911 0.048792
0.417905 0.031857 0.046229
0.459282 0.034693 0.043267
0.493890 0.036225 0.041338
0.519270 0.037051 0.040151
0.527039 0.037272 0.037878
0.000798 0.018612 0.074645
0.007745 0.020958 0.068718
0.031199 0.023867 0.062828
0.060748 0.027595 0.057952
0.093124 0.032198 0.054606
0.131152 0.038183 0.051810
0.173897 0.044637 0.049137
0.220938 0.050504 0.047772
0.270249 0.055084 0.047930
0.322156 0.059575 0.047744
0.374653 0.064125 0.046889
0.423535 0.069347 0.045472
0.468601 0.074747 0.043963
0.509490 0.079679 0.042246
0.538505 0.082803 0.041554
0.547143 0.083732 0.041348
0.002634 0.057504 0.071139
0.016218 0.060730 0.066111
0.038469 0.065261 0.062268
0.066975 0.069270 0.058218
0.098871 0.073763 0.054851
0.136104 0.078931 0.051296
0.179731 0.085584 0.048273
0.227771 0.091381 0.046815
0.277073 0.095195 0.047177
0.329559 0.099057 0.047582
0.383932 0.102624 0.045329
0.433728 0.105248 0.041646
0.478684 0.107941 0.039634
0.519981 0.110985 0.038484
0.549035 0.112100 0.038256
0.556894 0.110259 0.038396
0.013137 0.103501 0.071672
0.029511 0.106353 0.069195
0.052548 0.111042 0.066428
0.075453 0.114177 0.065811
0.106538 0.118303 0.062746
0.144509 0.123227 0.057822
0.188060 0.128715 0.053215
0.236117 0.133840 0.050677
0.286225 0.137129 0.050283
0.338574 0.140173 0.049844
0.392596 0.142550 0.046851
0.442909 0.143557 0.042480
0.489278 0.143877 0.038529
0.532489 0.144189 0.036720
0.563009 0.143287 0.037147
0.569761 0.139259 0.037212
0.029947 0.151923 0.074846
0.046800 0.154878 0.073219
0.067837 0.159591 0.071789
0.090494 0.162838 0.071256
0.117158 0.166967 0.071163
0.154807 0.171694 0.067188
0.199711 0.176669 0.061608
0.247839 0.180884 0.056949
0.299549 0.183784 0.055189
0.353078 0.185933 0.053987
0.407795 0.187086 0.050801
0.458307 0.186444 0.046046
0.505964 0.184872 0.041822
0.549894 0.182206 0.038431
0.582981 0.178048 0.038133
0.588833 0.170686 0.037860
0.049868 0.206980 0.080281
0.067839 0.209673 0.079260
0.085153 0.214338 0.079358
0.106165 0.217887 0.079286
0.133040 0.222393 0.079904
0.168592 0.228521 0.083632
0.212893 0.232881 0.080526
0.262556 0.236582 0.075948
0.316438 0.239212 0.071284
0.372323 0.240864 0.067974
0.429745 0.241116 0.064146
0.484156 0.239068 0.060188
0.533230 0.234482 0.054168
0.575885 0.228395 0.048922
0.608471 0.220214 0.044320
0.611667 0.207829 0.041414
0.073087 0.270612 0.085351
0.091063 0.272920 0.084864
0.108005 0.277064 0.084795
0.124719 0.280832 0.085903
0.150096 0.285783 0.086905
0.186943 0.293026 0.091114
0.230697 0.301023 0.095042
0.279885 0.303396 0.092129
0.334879 0.304188 0.088018
0.392333 0.304811 0.084297
0.451925 0.303994 0.079760
0.509598 0.299921 0.077607
0.562767 0.292903 0.073638
0.606525 0.282883 0.067751
0.640291 0.270657 0.060988
0.641405 0.252701 0.053816
0.099733 0.344346 0.090379
0.117610 0.345675 0.089653
0.129166 0.347548 0.091234
0.145301 0.351840 0.092049
0.167711 0.357163 0.093525
0.203817 0.365224 0.097313
0.248368 0.374831 0.101948
0.303234 0.384507 0.101699
0.359230 0.383861 0.099391
0.418014 0.381812 0.096337
0.477733 0.378111 0.092767
0.536666 0.371257 0.091331
0.591487 0.360048 0.088162
0.637990 0.345156 0.083832
0.674497 0.329115 0.079525
0.673227 0.305342 0.072255
0.129123 0.427050 0.094006
0.148475 0.428302 0.093697
0.154297 0.428490 0.097808
0.165242 0.431243 0.100727
0.190001 0.437609 0.101830
0.223986 0.445386 0.104863
0.265489 0.455187 0.108960
0.322151 0.466167 0.108589
0.388462 0.477983 0.108561
0.448291 0.473519 0.106163
0.509579 0.466864 0.105019
0.569888 0.455372 0.106934
0.624987 0.439521 0.102294
0.673298 0.418930 0.093058
0.712111 0.397406 0.089883
0.709081 0.365692 0.086603
0.154359 0.516125 0.098519
0.178283 0.517259 0.097442
0.183537 0.517617 0.100709
0.190033 0.518979 0.105675
0.213289 0.525994 0.111818
0.249576 0.536022 0.116217
0.289349 0.546318 0.120509
0.342896 0.557770 0.116922
0.410758 0.570799 0.116744
0.483909 0.580218 0.107210
0.543224 0.566060 0.104774
0.607326 0.549973 0.114918
0.665737 0.528631 0.118612
0.715750 0.502286 0.105739
0.754260 0.474391 0.095848
0.747344 0.434924 0.091688
0.164525 0.600191 0.100734
0.191020 0.603934 0.099436
0.202196 0.607536 0.100622
0.210031 0.610142 0.105380
0.234916 0.619545 0.116170
0.277154 0.633845 0.133934
0.320057 0.644710 0.141086
0.370546 0.654988 0.133256
0.431399 0.664913 0.120997
0.502534 0.672739 0.108042
0.580592 0.678343 0.090978
0.642991 0.652895 0.098335
0.708833 0.624883 0.110213
0.767697 0.592276 0.108401
0.803946 0.556775 0.102212
0.791396 0.509933 0.097571
0.177003 0.683188 0.102996
0.200196 0.689479 0.104111
0.215387 0.695853 0.104350
0.229397 0.702056 0.107474
0.256680 0.712720 0.117116
0.300141 0.725806 0.137783
0.346882 0.737907 0.157621
0.397812 0.748373 0.152259
0.452998 0.756954 0.131920
0.517494 0.763951 0.108767
0.592960 0.769723 0.091487
0.692115 0.779834 0.085973
0.755696 0.736999 0.091087
0.822595 0.693998 0.092833
0.859958 0.645744 0.092859
0.841596 0.589201 0.097931
0.195103 0.764966 0.102731
0.214609 0.774826 0.109931
0.230269 0.783960 0.110326
0.248021 0.793382 0.113094
0.276329 0.804809 0.119028
0.317126 0.818923 0.132150
0.361085 0.831279 0.149372
0.411498 0.840809 0.151119
0.467665 0.850809 0.134930
0.529485 0.859476 0.111084
0.606714 0.868365 0.102085
0.697890 0.879902 0.090527
0.829325 0.890625 0.073477
0.887051 0.814051 0.072834
0.916860 0.744022 0.074248
0.895991 0.673511 0.084327
0.217754 0.846763 0.097923
0.236601 0.858838 0.110225
0.248961 0.868581 0.112776
0.266213 0.879778 0.114723
0.291714 0.890876 0.118244
0.325975 0.903552 0.121340
0.363760 0.916145 0.128118
0.410974 0.925329 0.129433
0.470023 0.932045 0.121341
0.533913 0.937938 0.107972
0.607903 0.942364 0.096619
0.692033 0.946280 0.090077
0.799104 0.950743 0.076917
0.967079 0.953292 0.061451
0.981613 0.870386 0.059650
0.951798 0.768241 0.067856
0.239205 0.905884 0.091012
0.257140 0.918046 0.104870
0.266300 0.925082 0.108064
0.278798 0.931998 0.110632
0.299954 0.938009 0.112578
0.331999 0.942792 0.112050
0.366674 0.946994 0.112240
0.407709 0.955564 0.112513
0.463145 1.010851 0.106870
0.525364 1.028046 0.100503
0.593691 1.042113 0.092106
0.668331 1.051942 0.084089
0.755726 1.063158 0.075709
0.878487 1.069979 0.060604
1.010538 1.061055 0.047335
0.996329 0.894695 0.054836
0.246197 0.920301 0.087332
0.263265 0.930008 0.103256
0.270985 0.934838 0.106363
0.281061 0.939426 0.109131
0.298233 0.943429 0.110827
0.326519 0.947647 0.110102
0.358466 0.994690 0.108526
0.392978 1.012553 0.108176
0.440232 1.025535 0.104309
0.496412 1.041753 0.098949
0.558844 1.058844 0.093913
0.625478 1.069472 0.086495
0.697818 1.078548 0.079026
0.785989 1.088267 0.070349
0.909984 1.093671 0.054517
1.039644 1.079718 0.046405
0.000588 0.003452 0.161997
0.007531 0.003872 0.153657
0.032011 0.004642 0.147637
0.060944 0.006509 0.142612
0.091785 0.009289 0.138593
0.127682 0.012982 0.134355
0.167915 0.015152 0.130174
0.212339 0.016629 0.125896
0.261062 0.019675 0.121869
0.314273 0.024576 0.118545
0.368453 0.029593 0.114482
0.415696 0.032576 0.107632
0.456860 0.034699 0.100204
0.491609 0.036323 0.093389
0.516237 0.037354 0.087294
0.524247 0.037804 0.081071
0.000854 0.023589 0.154584
0.010168 0.025381 0.146792
0.033312 0.027711 0.140001
0.061176 0.031009 0.133817
0.091581 0.035556 0.129115
0.127736 0.041083 0.124534
0.169628 0.046855 0.119124
0.215600 0.051630 0.113970
0.264579 0.055280 0.110834
0.316811 0.059458 0.108460
0.370409 0.064219 0.104004
0.418705 0.068132 0.097643
0.463072 0.072399 0.091742
0.503919 0.076742 0.086032
0.533234 0.079672 0.081050
0.542492 0.080759 0.076485
0.004738 0.057662 0.148540
0.019167 0.060283 0.141066
0.038968 0.063563 0.135644
0.065815 0.067079 0.130220
0.096851 0.071275 0.125455
0.132746 0.076322 0.121694
0.175383 0.083199 0.117880
0.222911 0.090667 0.114193
0.272803 0.095974 0.112628
0.325786 0.101042 0.111900
0.379973 0.105677 0.107738
0.431264 0.109596 0.100900
0.477971 0.113822 0.096107
0.521112 0.118492 0.094287
0.551302 0.121682 0.093985
0.560329 0.122650 0.093906
0.016085 0.100689 0.145788
0.032560 0.103312 0.140940
0.052812 0.106564 0.136673
0.074390 0.109511 0.133634
0.104541 0.113448 0.129280
0.141016 0.117931 0.124587
0.183802 0.123496 0.119280
0.231468 0.129871 0.115206
0.282362 0.134751 0.113280
0.335341 0.138933 0.111902
0.389459 0.142205 0.106433
0.441352 0.144336 0.098722
0.489819 0.145905 0.092410
0.533585 0.147430 0.089910
0.564828 0.147921 0.090379
0.572684 0.145557 0.090691
0.032160 0.149297 0.145195
0.049061 0.151617 0.141461
0.067802 0.154316 0.138825
0.089240 0.157404 0.136123
0.115296 0.161274 0.133440
0.151673 0.165626 0.128736
0.195794 0.170637 0.122247
0.243490 0.175692 0.117278
0.295331 0.180229 0.114562
0.349588 0.183813 0.112570
0.405262 0.186456 0.107712
0.458182 0.187136 0.100334
0.507031 0.186321 0.093830
0.550377 0.184360 0.089982
0.581959 0.181123 0.089389
0.588620 0.174960 0.089274
0.051420 0.203558 0.146313
0.068982 0.205775 0.142773
0.084713 0.208429 0.142224
0.104823 0.211956 0.140078
0.131287 0.216311 0.137408
0.166744 0.221800 0.134931
0.210961 0.226433 0.129028
0.259719 0.230824 0.123775
0.312218 0.234480 0.119516
0.367875 0.237268 0.116070
0.426167 0.239151 0.111079
0.482522 0.239210 0.105622
0.533337 0.236321 0.099745
0.574950 0.230674 0.095429
0.605755 0.223086 0.093007
0.609366 0.212003 0.091167
0.074652 0.266738 0.147544
0.091441 0.268414 0.144449
0.106987 0.271435 0.144807
0.122864 0.275266 0.144289
0.148364 0.280142 0.142272
0.185346 0.286505 0.140166
0.229096 0.294372 0.141287
0.277817 0.297555 0.136462
0.331294 0.299641 0.131559
0.388166 0.300822 0.128052
0.448233 0.301288 0.122542
0.507537 0.299470 0.117362
0.561600 0.294151 0.112918
0.604851 0.284861 0.107897
0.635150 0.272827 0.103369
0.636234 0.256249 0.098582
0.098004 0.337789 0.146907
0.114395 0.339330 0.144282
0.126907 0.342203 0.146593
0.142565 0.346782 0.146064
0.165998 0.352327 0.145511
0.203181 0.359661 0.144023
0.247693 0.368863 0.145595
0.301651 0.378578 0.143476
0.356309 0.379149 0.139152
0.414435 0.377737 0.136142
0.473695 0.374981 0.132140
0.534074 0.370558 0.127453
0.589507 0.360715 0.124001
0.636194 0.346679 0.120701
0.668829 0.329436 0.118318
0.667288 0.306901 0.113020
0.123232 0.418231 0.146136
0.140836 0.420192 0.143506
0.149926 0.422362 0.148511
0.162025 0.425979 0.149874
0.187891 0.432535 0.149376
0.223806 0.440527 0.149001
0.266265 0.450025 0.150893
0.322103 0.460816 0.149181
0.386564 0.472374 0.147259
0.445508 0.468569 0.143967
0.505808 0.463021 0.140362
0.565800 0.453727 0.136850
0.621399 0.439024 0.131678
0.670093 0.418782 0.124827
0.704642 0.394984 0.123615
0.701393 0.364736 0.122690
0.147484 0.507306 0.149768
0.169937 0.509019 0.144553
0.178171 0.511545 0.150105
0.186252 0.514151 0.153964
0.211341 0.521722 0.159536
0.249674 0.531206 0.160610
0.290921 0.540992 0.162756
0.344316 0.552596 0.158931
0.409970 0.565045 0.157125
0.481340 0.573744 0.145366
0.539085 0.560283 0.138136
0.601682 0.546625 0.140272
0.660152 0.526279 0.142229
0.710350 0.499712 0.133088
0.745276 0.469002 0.125690
0.738072 0.430473 0.123798
0.158038 0.592867 0.150236
0.183377 0.597066 0.143331
0.197803 0.602987 0.148083
0.207304 0.606719 0.152206
0.235169 0.616485 0.164014
0.277675 0.628971 0.176890
0.321216 0.639101 0.180957
0.372034 0.649396 0.174381
0.432859 0.659944 0.166891
0.502467 0.667654 0.153268
0.576250 0.671533 0.127692
0.635125 0.646254 0.124291
0.701291 0.619931 0.133870
0.760617 0.586875 0.134279
0.794018 0.548642 0.129144
0.780953 0.502603 0.126456
0.170496 0.676368 0.150375
0.193527 0.682739 0.145099
0.213436 0.692458 0.149820
0.228357 0.699195 0.152005
0.258528 0.709123 0.162421
0.301433 0.720616 0.178151
0.347414 0.731726 0.192991
0.398129 0.742112 0.187130
0.453827 0.751964 0.175040
0.518763 0.760109 0.158710
0.590346 0.764769 0.134759
0.681138 0.768727 0.114695
0.745254 0.727526 0.117304
0.814748 0.685006 0.125116
0.849943 0.635781 0.123009
0.830502 0.579103 0.125291
0.190552 0.759799 0.150706
0.210585 0.769851 0.150922
0.232843 0.782743 0.157575
0.250747 0.792262 0.157024
0.279336 0.803268 0.159982
0.318247 0.814526 0.169480
0.360775 0.824973 0.183430
0.410899 0.833256 0.181865
0.466729 0.843937 0.170863
0.528727 0.853918 0.155197
0.603433 0.862649 0.143374
0.689385 0.869269 0.126235
0.818561 0.875399 0.108878
0.879045 0.800805 0.109702
0.909411 0.732581 0.111673
0.885882 0.663008 0.118347
0.213741 0.843318 0.146463
0.233463 0.854516 0.150271
0.253131 0.867262 0.161471
0.269788 0.877764 0.159585
0.294032 0.889695 0.157690
0.325680 0.902490 0.157830
0.361733 0.914005 0.164109
0.408970 0.921495 0.163782
0.467417 0.927281 0.156294
0.530207 0.933798 0.145419
0.602555 0.938980 0.134448
0.685925 0.942669 0.126498
0.796718 0.944580 0.115378
0.960635 0.945837 0.091651
0.979456 0.855719 0.093699
0.945639 0.756040 0.106099
0.231031 0.903849 0.134537
0.250589 0.915441 0.139690
0.267552 0.925490 0.156057
0.280610 0.931727 0.155437
0.301781 0.937692 0.153599
0.331326 0.942579 0.151602
0.364054 0.946468 0.151109
0.405242 0.951886 0.150094
0.460996 1.005054 0.144326
0.522731 1.018920 0.137725
0.589132 1.030892 0.128948
0.663025 1.041908 0.118888
0.750650 1.053294 0.108920
0.873216 1.058104 0.091558
1.014807 1.057613 0.072371
0.995815 0.879544 0.087072
0.236991 0.919176 0.127225
0.256396 0.928501 0.133876
0.271847 0.935694 0.154437
0.282680 0.939586 0.154276
0.300207 0.943434 0.152816
0.326876 0.947600 0.150478
0.356625 0.957763 0.148277
0.390271 1.010099 0.147203
0.438309 1.021829 0.142395
0.494847 1.034757 0.137112
0.555348 1.048351 0.130878
0.620767 1.057951 0.122268
0.692252 1.069476 0.112368
0.781004 1.079742 0.102197
0.903847 1.082973 0.083162
1.049241 1.082261 0.069296
0.001208 0.010354 0.234998
0.012930 0.010673 0.226623
0.037647 0.011028 0.220775
0.064924 0.010162 0.219187
0.094994 0.012598 0.215634
0.128812 0.015859 0.210727
0.166943 0.018361 0.205280
0.210339 0.020342 0.199580
0.259264 0.023163 0.192688
0.312508 0.027500 0.185262
0.366592 0.032025 0.178360
0.412986 0.034208 0.169458
0.452324 0.034611 0.159373
0.485387 0.034815 0.149395
0.509923 0.035730 0.139948
0.517993 0.036164 0.130374
0.003717 0.033740 0.225160
0.015257 0.034031 0.219004
0.038088 0.035105 0.212664
0.063137 0.036837 0.208762
0.092533 0.040730 0.203954
0.127650 0.045884 0.198477
0.168255 0.050914 0.191330
0.213514 0.055341 0.184337
0.262607 0.058488 0.178246
0.314650 0.061913 0.172548
0.367851 0.066304 0.165687
0.415573 0.069610 0.156746
0.458029 0.072027 0.147175
0.497214 0.074569 0.137389
0.526642 0.077268 0.128932
0.536199 0.078400 0.120635
0.009186 0.066817 0.218620
0.024100 0.067433 0.212542
0.043691 0.070438 0.206589
0.067669 0.072635 0.202161
0.097564 0.076259 0.196565
0.132818 0.080833 0.191831
0.174313 0.086386 0.186326
0.221208 0.092779 0.180330
0.271218 0.097810 0.175237
0.324007 0.102213 0.170211
0.377860 0.106622 0.162344
0.428859 0.110371 0.151738
0.475035 0.113861 0.142489
0.517327 0.117584 0.135955
0.547864 0.120661 0.131536
0.557334 0.121703 0.126747
0.018632 0.100736 0.214426
0.036145 0.103278 0.208186
0.056265 0.106470 0.202861
0.076293 0.109040 0.199090
0.105491 0.112966 0.194217
0.141152 0.117799 0.190255
0.182969 0.123316 0.186614
0.230040 0.129873 0.183044
0.281556 0.136284 0.179850
0.335382 0.142620 0.176580
0.390185 0.148118 0.170353
0.442810 0.152619 0.161305
0.493697 0.156843 0.152958
0.540105 0.160894 0.148738
0.573987 0.164344 0.149066
0.584075 0.165409 0.149150
0.033935 0.146863 0.212127
0.052072 0.149508 0.206994
0.070837 0.152432 0.202946
0.091031 0.155270 0.199865
0.116088 0.158964 0.196523
0.151669 0.163583 0.192235
0.194521 0.168404 0.187065
0.241819 0.173644 0.182843
0.294028 0.179509 0.179595
0.348930 0.185382 0.176047
0.404920 0.190006 0.170647
0.459003 0.193103 0.162344
0.510881 0.195002 0.154273
0.557453 0.195744 0.149916
0.591450 0.195180 0.149344
0.599855 0.192076 0.149104
0.052812 0.200807 0.209925
0.071257 0.203229 0.205163
0.086959 0.206077 0.203095
0.106442 0.209415 0.201324
0.131894 0.213642 0.197882
0.166769 0.218989 0.193780
0.209840 0.223500 0.188213
0.258064 0.227981 0.183643
0.310441 0.232749 0.180363
0.366119 0.237496 0.176739
0.424360 0.240951 0.172195
0.481515 0.242829 0.166405
0.535944 0.242665 0.159704
0.581969 0.240023 0.156084
0.614698 0.234980 0.154273
0.620480 0.226755 0.152735
0.076421 0.264556 0.207180
0.093057 0.265914 0.203403
0.108709 0.268981 0.202190
0.124095 0.272502 0.202990
0.148742 0.277266 0.200245
0.185281 0.283330 0.196060
0.228779 0.290057 0.192585
0.277159 0.293438 0.187602
0.330274 0.296594 0.182823
0.386104 0.299164 0.179450
0.445430 0.300817 0.174884
0.505118 0.300813 0.169588
0.562152 0.298207 0.165073
0.609911 0.292111 0.162350
0.643034 0.282531 0.160974
0.645948 0.268745 0.158990
0.099896 0.335877 0.204877
0.115865 0.337222 0.201385
0.127840 0.340203 0.201811
0.143857 0.344472 0.204236
0.166650 0.349694 0.203118
0.203849 0.356479 0.200039
0.247971 0.364185 0.196861
