lut/f85ae58e-3d8c-496f-888d-54ce8b652066.cube
TITLE "Cool Breeze"
LUT_3D_SIZE 6
0.000126 0.001087 0.020062
0.063853 0.004340 0.007841
0.184400 0.013891 0.004638
0.327764 0.022881 0.008118
0.462074 0.031471 0.009106
0.537155 0.035195 0.012243
0.012016 0.105912 0.010771
0.080883 0.125181 0.012981
0.195436 0.138514 0.008402
0.349167 0.149170 0.009054
0.504910 0.153537 0.005936
0.584842 0.145767 0.005170
0.076938 0.281569 0.030418
0.131725 0.294601 0.032043
0.233510 0.311587 0.048790
0.399313 0.313817 0.043067
0.573548 0.299641 0.037067
0.657874 0.261569 0.017569
0.152667 0.516280 0.043916
0.188105 0.527683 0.060365
0.290881 0.555826 0.083628
0.489984 0.587788 0.069888
0.675461 0.535919 0.088518
0.765795 0.446943 0.062640
0.193655 0.763536 0.053514
0.247070 0.789575 0.075519
0.362980 0.837949 0.112087
0.534062 0.862319 0.079149
0.839528 0.909374 0.044918
0.908190 0.689337 0.048623
0.256136 0.921999 0.055488
0.286392 0.940092 0.069629
0.362887 1.003152 0.073824
0.499711 1.051798 0.065142
0.704455 1.091914 0.053741
1.009782 1.069435 0.037811
0.001208 0.010354 0.234998
0.064924 0.010162 0.219187
0.166943 0.018361 0.205280
0.312508 0.027500 0.185262
0.452324 0.034611 0.159373
0.517993 0.036164 0.130374
0.018632 0.100736 0.214426
0.076293 0.109040 0.199090
0.182969 0.123316 0.186614
0.335382 0.142620 0.176580
0.493697 0.156843 0.152958
0.584075 0.165409 0.149150
0.076421 0.264556 0.207180
0.124095 0.272502 0.202990
0.228779 0.290057 0.192585
0.386104 0.299164 0.179450
0.562152 0.298207 0.165073
0.645948 0.268745 0.158990
0.145627 0.500313 0.200119
0.185593 0.510726 0.206628
0.291605 0.534964 0.208887
0.480445 0.566565 0.194747
0.656390 0.525248 0.184948
0.740794 0.437069 0.168870
0.184611 0.755515 0.195763
0.254287 0.786420 0.205001
0.362880 0.815819 0.227286
0.526281 0.840808 0.199204
0.805640 0.857780 0.163086
0.876532 0.657141 0.167189
0.230207 0.915609 0.166743
0.290682 0.939840 0.203312
0.359531 0.952046 0.196210
0.487063 1.024659 0.182103
0.685724 1.060371 0.157489
1.046633 1.073291 0.108147
0.023421 0.048959 0.440709
0.085584 0.041994 0.431328
0.179146 0.040522 0.432181
0.316460 0.049924 0.415198
0.453757 0.047689 0.356429
0.517167 0.040659 0.290472
0.031830 0.121756 0.433820
0.091755 0.127702 0.425244
0.193317 0.140293 0.415616
0.338469 0.150740 0.388093
0.500234 0.161797 0.352334
0.583398 0.167172 0.294206
0.088479 0.267529 0.429958
0.136814 0.276271 0.422610
0.236248 0.291416 0.412403
0.395266 0.314476 0.400508
0.572396 0.339042 0.391713
0.702347 0.354118 0.388706
0.151041 0.492122 0.409378
0.192265 0.508220 0.409194
0.309096 0.525124 0.415784
0.481782 0.552257 0.397737
0.662010 0.532837 0.381292
0.775080 0.491841 0.369993
0.177463 0.737142 0.371416
0.252505 0.769408 0.363692
0.385839 0.786747 0.391416
0.534027 0.809996 0.369978
0.797527 0.827940 0.352327
0.891731 0.670578 0.355792
0.214083 0.907772 0.303802
0.291159 0.937869 0.316030
0.427496 0.948769 0.371831
0.518246 1.010644 0.351950
0.686587 1.036691 0.336972
1.058222 1.058693 0.281034
0.030947 0.063729 0.670881
0.083994 0.048193 0.658844
0.175330 0.051016 0.650297
0.317941 0.064495 0.642571
0.458952 0.066013 0.596190
0.519103 0.054959 0.484972
0.058256 0.146134 0.659406
0.116203 0.148575 0.657417
0.210507 0.160989 0.652689
0.359315 0.174744 0.644791
0.498188 0.173066 0.575037
0.585899 0.174196 0.481171
0.096380 0.264658 0.668835
0.156847 0.279712 0.664525
0.263579 0.310906 0.660524
0.414680 0.330345 0.646936
0.580406 0.348155 0.590967
0.703111 0.360216 0.520450
0.173560 0.503941 0.672204
0.217800 0.520959 0.665535
0.331044 0.536521 0.649374
0.495382 0.554074 0.628254
0.696756 0.572734 0.603018
0.858411 0.592164 0.577206
0.179868 0.728823 0.594747
0.263788 0.758460 0.579627
0.398592 0.783276 0.575999
0.570946 0.811076 0.584030
0.805547 0.820501 0.557361
0.966184 0.726706 0.548691
0.212736 0.890656 0.472813
0.286411 0.928046 0.471126
0.432015 0.942730 0.492731
0.600770 1.035339 0.553376
0.723481 1.064119 0.541904
1.155340 1.066868 0.454656
0.033150 0.062475 1.137016
0.096935 0.057818 1.134576
0.164288 0.053175 1.109252
0.297106 0.063222 1.099972
0.459239 0.064342 1.124373
0.517420 0.059266 0.688825
0.074367 0.166825 1.130267
0.150774 0.169391 1.134363
0.264210 0.201570 1.138644
0.357380 0.186780 1.131791
0.528378 0.189484 1.130833
0.592110 0.183968 0.679947
0.112491 0.257313 1.138978
0.174836 0.275602 1.139019
0.290411 0.325571 1.142295
0.402320 0.332169 1.143601
0.602877 0.358048 1.132146
0.717875 0.367127 0.688397
0.161312 0.471857 1.145537
0.226563 0.472261 1.144725
0.338858 0.499845 1.135209
0.503554 0.547622 1.112996
0.708291 0.568628 1.083410
0.874982 0.591712 0.694238
0.204768 0.751244 1.112306
0.272630 0.761080 1.109061
0.395106 0.787514 1.087515
0.562619 0.807594 1.060876
0.808218 0.818087 1.015449
1.023218 0.829013 0.719233
0.205848 0.892598 0.675258
0.285243 0.928183 0.654592
0.426436 0.945450 0.645982
0.590736 1.034064 0.670244
0.806120 1.105918 0.709519
1.188482 1.099092 0.599361
0.044474 0.074354 1.148390
0.084963 0.059256 1.148388
0.141704 0.055841 1.148367
0.234279 0.056997 1.148367
0.362463 0.064510 1.148395
0.547329 0.073470 1.148441
0.047800 0.141168 1.148379
0.154592 0.175849 1.148432
0.262075 0.223212 1.148459
0.363236 0.224196 1.148415
0.425050 0.186237 1.148454
0.623650 0.189317 1.148393
0.091649 0.228755 1.148440
0.186150 0.270197 1.148394
0.299194 0.339022 1.148424
0.371763 0.319079 1.148440
0.489504 0.327635 1.148423
0.726471 0.366604 1.135832
0.148540 0.382479 1.148399
0.215852 0.386545 1.148436
0.331212 0.442969 1.147612
0.504918 0.545434 1.123112
0.620238 0.557222 1.113751
0.919994 0.562505 1.095853
0.166231 0.567180 1.147009
0.245241 0.579412 1.139233
0.362255 0.610820 1.124829
0.534640 0.690989 1.101629
0.794011 0.786097 1.073808
1.035636 0.741470 1.063126
0.179788 0.883794 1.107509
0.264920 0.920889 1.094295
0.392765 0.951648 1.075359
0.530854 1.069798 1.056952
0.703283 1.105927 1.042167
1.138428 1.092484 1.015848
