lut/ff1ea0ad-7be6-470a-94cd-d1cdc7800284.cube
TITLE "Vibrant Magenta Pastel"
LUT_3D_SIZE 5
0 0 0
0.531334 0 0
0.880446 0.027863 0.0324102
1 0.070985 0.0803693
1 0.107652 0.121111
0 0.435813 0
0.482918 0.372869 0
0.749584 0.363912 0
0.906874 0.378592 0
1 0.398764 0
0.0238651 0.653056 0.0238499
0.507317 0.576104 0
0.763836 0.558297 0
0.915251 0.567834 0
1 0.58529 0
0.0314794 0.840574 0.0314336
0.513207 0.762112 0
0.770336 0.744839 0
0.925383 0.757549 0
1 0.780835 0
0 1 0
0.459876 0.98967 0
0.729992 0.983719 0
0.900359 1 0
1 1 0
0 0 0.39588
0.548012 0 0.553368
0.865705 0.014725 0.59324
1 0.0515297 0.634211
1 0.0851301 0.671565
0 0.415274 0.537209
0.45655 0.349599 0.465629
0.721172 0.338857 0.454261
0.877562 0.352743 0.469902
1 0.372076 0.491463
0 0.626688 0.570047
0.477043 0.549416 0.485634
0.733135 0.531228 0.466041
0.884581 0.54081 0.476905
1 0.558434 0.49659
0.000823987 0.813535 0.576898
0.482856 0.735363 0.491493
0.740642 0.718639 0.473518
0.896468 0.732036 0.488594
1 0.756756 0.516121
0 1 0.52018
0.433204 0.96611 0.443885
0.705577 0.962142 0.440009
0.876005 0.988296 0.4692
1 1 0.507408
0 0 0.725399
0.574121 0.00184634 0.772702
0.877577 0.0250095 0.79884
1 0.0576181 0.835172
1 0.0883497 0.869352
0 0.41976 0.7364
0.459724 0.35227 0.662821
0.722774 0.340154 0.649943
0.878096 0.353124 0.66453
1 0.371939 0.685542
0 0.626871 0.764477
0.476799 0.549126 0.679545
0.732677 0.530739 0.659739
0.88397 0.540185 0.670436
1 0.558206 0.690578
0.00047303 0.813138 0.770687
0.482704 0.735134 0.685481
0.741344 0.719173 0.66833
0.898238 0.733501 0.684443
1 0.759854 0.713771
0 1 0.716655
0.437461 0.969757 0.642145
0.711635 0.967346 0.639994
0.882109 0.99353 0.669215
1 1 0.707149
0.0242313 0.020737 0.953872
0.596551 0.0213474 0.955627
0.890455 0.0361791 0.972549
1 0.0646525 1
1 0.09337 1
0 0.426108 0.904768
0.464775 0.356603 0.828962
0.726528 0.343359 0.814832
0.880827 0.355413 0.828428
1 0.373953 0.849119
0 0.629129 0.928328
0.478874 0.550866 0.842817
0.734813 0.53254 0.823072
0.886198 0.542062 0.83386
1 0.560449 0.854398
0.00282292 0.815122 0.934234
0.485527 0.73753 0.84947
0.745037 0.722316 0.833173
0.903212 0.737758 0.850507
1 0.76556 0.881437
0 1 0.883207
0.445472 0.976669 0.811139
0.720043 0.974609 0.809384
0.890822 1 0.838895
1 1 0.876829
0.0713512 0.0617838 1
0.61323 0.0358434 1
0.900267 0.0446632 1
1 0.0700847 1
1 0.0970474 1
0 0.430854 1
0.46833 0.359625 1
0.729107 0.345541 0.989883
0.882612 0.356909 1
1 0.375036 1
0 0.630472 1
0.480186 0.551919 1
0.735973 0.533471 0.99675
0.887663 0.543252 1
1 0.561852 1
0.00425727 0.816297 1
0.487739 0.739376 1
0.747951 0.724788 1
0.907851 0.741726 1
1 0.771618 1
0 1 1
0.452995 0.983154 0.990951
0.727855 0.981353 0.989487
0.898604 1 1
1 1 1
