lut/ff1ea0ad-7be6-470a-94cd-d1cdc7800284.cube
TITLE "Vibrant Magenta Pastel"
LUT_3D_SIZE 9
0 0 0
0.198978 0 0
0.531334 0 0
0.739284 0.0033875 0.00511177
0.880446 0.027863 0.0324102
0.986053 0.0502022 0.0572671
1 0.070985 0.0803693
1 0.090425 0.101961
1 0.107652 0.121111
0 0.259922 0
0.28275 0.234943 0
0.505943 0.222644 0
0.668269 0.221347 0
0.788174 0.227283 0
0.879805 0.2374 0
0.954742 0.25005 0
1 0.263172 0
1 0.275486 0
0 0.435813 0
0.271611 0.395544 0
0.482918 0.372869 0
0.636393 0.363851 0
0.749584 0.363912 0
0.836057 0.369528 0
0.906874 0.378592 0
0.970123 0.38883 0
1 0.398764 0
0.00102235 0.555566 0.00169375
0.283024 0.509896 0
0.489601 0.483085 0
0.639216 0.470695 0
0.74934 0.468086 0
0.833402 0.471611 0
0.902281 0.478965 0
0.964004 0.487877 0
1 0.496681 0
0.0238651 0.653056 0.0238499
0.302861 0.604761 0
0.507317 0.576104 0
0.655161 0.562173 0
0.763836 0.558297 0
0.847028 0.561059 0
0.915251 0.567834 0
0.976623 0.57644 0
1 0.58529 0
0.0377356 0.744595 0.0373388
0.315557 0.695293 0
0.519173 0.665888 0
0.666499 0.651499 0
0.774868 0.647364 0
0.858274 0.650309 0
0.92694 0.657481 0
0.988983 0.666667 0
1 0.6766 0
0.0314794 0.840574 0.0314336
0.309361 0.791302 0
0.513207 0.762112 0
0.661082 0.748196 0
0.770336 0.744839 0
0.855024 0.748898 0
0.925383 0.757549 0
0.989487 0.768536 0
1 0.780835 0
0.00103761 0.947463 0.0021973
0.279973 0.899123 0
0.485206 0.871153 0
0.634714 0.858656 0
0.746532 0.857527 0
0.834165 0.864164 0
0.908141 0.875959 0
0.976608 0.890776 0
1 0.907591 0
0 1 0
0.251469 1 0
0.459876 0.98967 0
0.613321 0.980621 0
0.729992 0.983719 0
0.822507 0.994614 0
0.900359 1 0
0.97116 1 0
1 1 0
0 0 0.0918746
0.241184 0 0.253086
0.538949 0 0.31194
0.732204 0 0.340673
0.86891 0.0176394 0.363668
0.971984 0.0377661 0.386069
1 0.0576486 0.408194
1 0.0762646 0.42887
1 0.092668 0.44712
0 0.252323 0.312352
0.270588 0.22417 0.281849
0.491798 0.210132 0.266758
0.652659 0.207553 0.26421
0.771634 0.212665 0.270085
0.862623 0.222248 0.280827
0.937041 0.23444 0.294423
1 0.247135 0.308568
1 0.2589 0.32166
0 0.421881 0.311727
0.254566 0.380499 0.26659
0.465431 0.357443 0.24152
0.618418 0.347997 0.231373
0.731228 0.347738 0.231296
0.81738 0.353079 0.237354
0.887907 0.361883 0.247196
0.950912 0.371908 0.258381
1 0.381537 0.269139
0 0.539574 0.326574
0.264332 0.493416 0.276143
0.470771 0.466499 0.246815
0.620172 0.45391 0.233204
0.729885 0.450935 0.230121
0.813993 0.45449 0.234211
0.882734 0.461738 0.242329
0.944381 0.470588 0.252216
1 0.479362 0.262013
0.00469978 0.636164 0.347738
0.283528 0.587732 0.294789
0.487861 0.558968 0.263416
0.635599 0.54493 0.248203
0.744091 0.540902 0.243946
0.827344 0.543709 0.247211
0.895567 0.5505 0.254826
0.956909 0.559075 0.264408
1 0.568017 0.274388
0.0180819 0.727291 0.360769
0.295918 0.677974 0.306844
0.499489 0.648554 0.274739
0.646815 0.63415 0.259129
0.755245 0.63006 0.25481
0.838712 0.633082 0.258289
0.907485 0.64033 0.266438
0.969589 0.649577 0.276753
1 0.659739 0.288075
0.0117647 0.823209 0.354803
0.289738 0.774014 0.301015
0.493675 0.7449 0.269261
0.64155 0.730999 0.25417
0.751095 0.727886 0.25095
0.835966 0.732097 0.255772
0.906508 0.740902 0.265614
0.971008 0.752239 0.278248
1 0.76495 0.292393
0 0.930404 0.325902
0.260807 0.882246 0.273259
0.466285 0.854475 0.242985
0.616037 0.842191 0.229709
0.728176 0.841337 0.228977
0.816205 0.848325 0.236851
0.890547 0.860456 0.25037
0.95996 0.876066 0.26775
1 0.89308 0.286656
0 1 0.296941
0.233326 0.998886 0.246891
0.442161 0.974044 0.219867
0.596109 0.965423 0.210636
0.713405 0.969085 0.214893
0.806104 0.980148 0.227283
0.883711 0.995117 0.243946
0.954757 1 0.262913
1 1 0.28217
0 0 0.39588
0.269123 0 0.512749
0.548012 0 0.553368
0.732509 0 0.573648
0.865705 0.014725 0.59324
0.966476 0.0328527 0.613428
1 0.0515297 0.634211
1 0.0693217 0.653986
1 0.0851301 0.671565
0 0.250568 0.543206
0.2663 0.22031 0.510384
0.486 0.204974 0.493843
0.645594 0.201297 0.490089
0.76347 0.205432 0.494881
0.853849 0.214481 0.505028
0.927764 0.22623 0.518151
0.993469 0.238621 0.531945
1 0.25008 0.544717
0 0.415274 0.537209
0.246357 0.373236 0.491341
0.45655 0.349599 0.465629
0.608988 0.339651 0.454948
0.721172 0.338857 0.454261
0.807263 0.344137 0.460273
0.877562 0.352743 0.469902
0.940246 0.362493 0.480766
1 0.372076 0.491463
0 0.531044 0.549935
0.254414 0.484657 0.49926
0.460533 0.45745 0.469612
0.609705 0.444663 0.455772
0.719265 0.44155 0.452552
0.803235 0.444999 0.456504
0.87187 0.452155 0.46453
0.933227 0.460731 0.474128
0.993667 0.469657 0.484092
0 0.626688 0.570047
0.272831 0.578286 0.517143
0.477043 0.549416 0.485634
0.624704 0.535317 0.470359
0.733135 0.531228 0.466041
0.816358 0.53402 0.469276
0.884581 0.54081 0.476905
0.945861 0.549325 0.486412
1 0.558434 0.49659
0.00703441 0.71754 0.582773
0.284947 0.668284 0.528939
0.488502 0.638849 0.496818
0.635645 0.624308 0.481025
0.74432 0.620417 0.476951
0.827893 0.623514 0.480522
0.896788 0.630884 0.488777
0.959045 0.640253 0.499245
1 0.650584 0.51075
0.000823987 0.813535 0.576898
0.278843 0.764401 0.523171
0.482856 0.735363 0.491493
0.630808 0.721508 0.476478
0.740642 0.718639 0.473518
0.825727 0.723064 0.478569
0.896468 0.732036 0.488594
0.961318 0.743679 0.501579
1 0.756756 0.516121
0 0.921035 0.548333
0.25037 0.87303 0.495857
0.456062 0.845441 0.465797
0.60621 0.833509 0.452903
0.718715 0.832975 0.452522
0.807172 0.84033 0.460807
0.881956 0.852842 0.474754
0.952071 0.869093 0.492821
1 0.886244 0.511894
0 1 0.52018
0.224018 0.990646 0.470573
0.433204 0.96611 0.443885
0.587915 0.958175 0.435416
0.705577 0.962142 0.440009
0.798291 0.97322 0.452415
0.876005 0.988296 0.4692
0.947066 1 0.488151
1 1 0.507408
0 0 0.584543
0.29723 0 0.652506
0.560555 0 0.67808
0.740276 0.00392157 0.693751
0.871046 0.0193484 0.711025
0.970245 0.0360723 0.729671
1 0.0536355 0.749203
1 0.0705577 0.768017
1 0.0856641 0.784817
0 0.256291 0.662211
0.270558 0.223987 0.6271
0.489036 0.207568 0.609384
0.6477 0.203067 0.604715
0.764614 0.206394 0.608606
0.854505 0.215 0.618265
0.927855 0.226261 0.630838
0.993103 0.238239 0.64419
1 0.249516 0.656764
0 0.416556 0.651301
0.247349 0.374044 0.604898
0.457038 0.349966 0.578698
0.609003 0.33962 0.567575
0.720775 0.338445 0.566476
0.806561 0.343465 0.572198
0.876631 0.351873 0.581598
0.939101 0.361425 0.592264
1 0.370947 0.602884
0 0.5308 0.662333
0.253956 0.484199 0.611414
0.459785 0.456748 0.581491
0.608606 0.443656 0.567315
0.718074 0.440482 0.564019
0.801938 0.443824 0.567864
0.870497 0.450889 0.575799
0.931792 0.459434 0.585351
0.992203 0.46833 0.59527
0 0.625742 0.681651
0.271626 0.577188 0.62858
0.4757 0.548196 0.596963
0.623072 0.533852 0.581399
0.731685 0.529915 0.577249
0.814893 0.532692 0.580468
0.882994 0.539361 0.587976
0.944457 0.548043 0.597665
1 0.557229 0.607919
0.00560006 0.716243 0.694011
0.283467 0.666957 0.640116
0.487037 0.637522 0.608011
0.634211 0.622995 0.592248
0.742931 0.619165 0.58822
0.826596 0.622339 0.591867
0.895415 0.629648 0.600061
0.958083 0.639384 0.610941
1 0.649897 0.62266
0 0.812253 0.688151
0.277516 0.76318 0.634485
0.481636 0.734234 0.602914
0.629694 0.720485 0.588022
0.739712 0.717784 0.585229
0.825086 0.722438 0.590539
0.896025 0.731609 0.600793
0.961364 0.743679 0.614237
1 0.757107 0.629175
0 0.920104 0.659968
0.249546 0.872251 0.60766
0.455299 0.844709 0.577646
0.605951 0.833234 0.565255
0.718914 0.833097 0.565316
0.807889 0.840909 0.574105
0.883253 0.853925 0.588632
0.953765 0.870512 0.60705
1 0.887785 0.626261
0 1 0.63267
0.224292 0.990829 0.583444
0.433997 0.966751 0.55726
0.589502 0.959503 0.549554
0.707347 0.963638 0.554345
0.800031 0.974685 0.566705
0.877821 0.989822 0.583551
0.948882 1 0.602518
1 1 0.621698
0 0 0.725399
0.325292 0 0.76112
0.574121 0.00184634 0.772702
0.749386 0.011841 0.78407
0.877577 0.0250095 0.79884
0.975799 0.0408942 0.816556
1 0.0576181 0.835172
1 0.0736095 0.852949
1 0.0883497 0.869352
0 0.263478 0.75172
0.277089 0.229648 0.714916
0.494102 0.211948 0.695796
0.65182 0.206622 0.690211
0.768093 0.2094 0.693477
0.857466 0.217548 0.702647
0.930358 0.228397 0.714778
0.99501 0.239872 0.72755
1 0.251026 0.739971
0 0.41976 0.7364
0.250538 0.376791 0.689494
0.459724 0.35227 0.662821
0.611276 0.341558 0.651286
0.722774 0.340154 0.649943
0.808286 0.34493 0.655375
0.878096 0.353124 0.66453
0.940352 0.362478 0.674983
1 0.371939 0.685542
0 0.532586 0.745876
0.255802 0.485771 0.694713
0.461418 0.458137 0.664591
0.609918 0.44477 0.650111
0.719341 0.441535 0.646754
0.803067 0.44477 0.650477
0.871473 0.451713 0.658259
0.932815 0.460288 0.667842
0.993194 0.469154 0.67776
0 0.626871 0.764477
0.272847 0.57821 0.711284
0.476799 0.549126 0.679545
0.624109 0.534707 0.663905
0.732677 0.530739 0.659739
0.8159 0.533516 0.662959
0.88397 0.540185 0.670436
0.945525 0.548943 0.680232
1 0.558206 0.690578
0.00663767 0.717098 0.776516
0.284474 0.667796 0.722606
0.487922 0.638254 0.690379
0.635264 0.62388 0.674784
0.74406 0.620111 0.670832
0.827817 0.623362 0.674571
0.896773 0.630777 0.682887
0.959625 0.640681 0.693935
1 0.651438 0.705928
0.00047303 0.813138 0.770687
0.27866 0.764157 0.717128
0.482704 0.735134 0.685481
0.631144 0.721721 0.670939
0.741344 0.719173 0.66833
0.826764 0.723873 0.673686
0.898238 0.733501 0.684443
0.964034 0.745953 0.698314
1 0.759854 0.713771
0 0.921386 0.742947
0.251316 0.873747 0.690883
0.457313 0.846448 0.661128
0.60827 0.835218 0.649012
0.721645 0.835447 0.649485
0.810956 0.843549 0.658595
0.887297 0.85742 0.674037
0.957992 0.874174 0.692668
1 0.891478 0.71191
0 1 0.716655
0.227253 0.993393 0.667842
0.437461 0.969757 0.642145
0.593606 0.963043 0.635035
0.711635 0.967346 0.639994
0.804211 0.978302 0.652262
0.882109 0.99353 0.669215
0.95317 1 0.688182
1 1 0.707149
0 0 0.841764
0.34609 0.00988785 0.860258
0.58648 0.012604 0.863691
0.758175 0.0194858 0.871611
0.884306 0.0308537 0.884382
0.981064 0.0454566 0.900694
1 0.0613718 0.91841
1 0.0767834 0.935561
1 0.0910811 0.951461
0 0.270359 0.838422
0.283436 0.235157 0.800107
0.499214 0.216373 0.779782
0.65568 0.209964 0.772992
0.771496 0.212329 0.775814
0.860365 0.220035 0.784497
0.932876 0.230579 0.796262
0.997223 0.241764 0.808728
1 0.252659 0.820874
0 0.423194 0.819287
0.253834 0.379644 0.77174
0.462455 0.35462 0.744518
0.613413 0.343404 0.732403
0.724834 0.341924 0.730968
0.810101 0.346502 0.736187
0.879515 0.354314 0.744945
0.941802 0.363714 0.755444
1 0.373053 0.765866
0 0.534539 0.827115
0.25774 0.487434 0.775647
0.463127 0.459586 0.745281
0.611475 0.446082 0.730663
0.72076 0.442741 0.727184
0.804379 0.445884 0.730785
0.872572 0.452628 0.738369
0.934005 0.461295 0.748043
0.9944 0.470176 0.757961
0 0.628122 0.844953
0.274205 0.57937 0.791638
0.478035 0.550149 0.759777
0.62533 0.535744 0.744137
0.733883 0.531746 0.73994
0.81709 0.534524 0.74316
0.885206 0.541222 0.750668
0.946853 0.550057 0.760555
1 0.559411 0.770993
0.00784314 0.718105 0.856733
0.285664 0.668803 0.802808
0.489036 0.6392 0.770504
0.636515 0.624933 0.755047
0.745418 0.621256 0.751186
0.829206 0.624537 0.754955
0.898405 0.632181 0.763531
0.961456 0.642237 0.774746
1 0.653162 0.786923
0.00173953 0.814221 0.85098
0.280003 0.765286 0.797467
0.484215 0.736416 0.765988
0.632868 0.723171 0.751644
0.743297 0.720836 0.749264
0.828916 0.725719 0.754818
0.90074 0.735653 0.765911
0.966949 0.74847 0.780179
1 0.762722 0.796033
0 0.922866 0.823682
0.253162 0.875319 0.77171
0.459663 0.848463 0.742443
0.611002 0.837568 0.730709
0.724804 0.838163 0.731579
0.814603 0.846708 0.741161
0.891585 0.861128 0.757244
0.962478 0.878035 0.776028
1 0.895094 0.794995
0 1 0.798474
0.230426 0.996124 0.74995
0.441474 0.97322 0.725063
0.597955 0.966812 0.718288
0.715846 0.970977 0.723095
0.808698 0.982177 0.735637
0.88658 0.997406 0.75259
0.957641 1 0.771557
1 1 0.790524
0.0242313 0.020737 0.953872
0.360845 0.0227359 0.95671
0.596551 0.0213474 0.955627
0.76582 0.0261082 0.961212
0.890455 0.0361791 0.972549
0.985946 0.0496681 0.987625
1 0.0646525 1
1 0.0795148 1
1 0.09337 1
0 0.276204 0.927153
0.288853 0.239841 0.887556
0.5037 0.220249 0.866331
0.659373 0.213153 0.858778
0.774548 0.214954 0.86099
0.862852 0.222171 0.869123
0.934783 0.232197 0.880323
0.999023 0.243305 0.892699
1 0.254002 0.904631
0 0.426108 0.904768
0.256718 0.382116 0.856733
0.464775 0.356603 0.828962
0.615442 0.345129 0.816571
0.726528 0.343359 0.814832
0.811566 0.347738 0.819821
0.880827 0.355413 0.828428
0.942977 0.364706 0.838804
1 0.373953 0.849119
0 0.536187 0.911208
0.259403 0.488838 0.859464
0.464317 0.460594 0.828656
0.612696 0.44712 0.814069
0.721874 0.443671 0.810468
0.805417 0.446738 0.814008
0.873549 0.453452 0.821546
0.934951 0.462074 0.831174
0.995346 0.470954 0.841093
0 0.629129 0.928328
0.275273 0.580255 0.874907
0.478874 0.550866 0.842817
0.626291 0.536538 0.827283
0.734813 0.53254 0.823072
0.817838 0.535149 0.826108
0.886198 0.542062 0.83386
0.947951 0.550988 0.843839
1 0.560449 0.854398
0.00877394 0.718898 0.939864
0.28661 0.669581 0.885939
0.490013 0.640009 0.853681
0.637552 0.625803 0.838254
0.746532 0.622202 0.834485
0.83035 0.625498 0.838285
0.89987 0.633417 0.84715
0.963134 0.643671 0.85861
1 0.65478 0.87097
0.00282292 0.815122 0.934234
0.281117 0.766232 0.880766
0.485527 0.73753 0.84947
0.634348 0.724437 0.835294
0.745037 0.722316 0.833173
0.831006 0.727504 0.839063
0.903212 0.737758 0.850507
0.969833 0.750942 0.865187
1 0.76556 0.881437
0 0.924224 0.907439
0.254917 0.876829 0.855634
0.461814 0.850309 0.826749
0.613611 0.839811 0.815442
0.727794 0.840742 0.816693
0.818341 0.849912 0.826993
0.895689 0.864683 0.843427
0.966628 0.881621 0.862272
1 0.898756 0.8813
0 1 0.883207
0.233692 0.998932 0.835325
0.445472 0.976669 0.811139
0.602152 0.970428 0.804547
0.720043 0.974609 0.809384
0.812924 0.985824 0.821942
0.890822 1 0.838895
0.961639 1 0.857633
1 1 0.876829
0.0515908 0.0445716 1
0.374014 0.0341802 1
0.60528 0.0289311 1
0.772137 0.0316014 1
0.895598 0.0406348 1
0.990158 0.053315 1
1 0.0674296 1
1 0.0818799 1
1 0.0952468 1
0.00234989 0.281544 1
0.293538 0.243885 0.978134
0.507378 0.223438 0.955947
0.66247 0.215824 0.947829
0.777142 0.217182 0.949538
0.864988 0.224002 0.957229
0.936446 0.233616 0.967987
1 0.24448 0.980102
1 0.254994 0.991806
0 0.428519 0.993545
0.259022 0.384085 0.945022
0.466667 0.358221 0.916838
0.617075 0.346517 0.904204
0.727886 0.344503 0.90219
0.812604 0.348592 0.906874
0.881743 0.356191 0.915373
0.943786 0.365377 0.925628
1 0.374548 0.935866
0 0.537438 0.998688
0.260655 0.489906 0.946731
0.465385 0.461479 0.91574
0.613596 0.447868 0.900984
0.722637 0.444312 0.897261
0.80592 0.447135 0.900542
0.874189 0.453971 0.908217
0.935576 0.462593 0.917845
0.99588 0.471397 0.927672
0 0.629847 1
0.275914 0.580774 0.961563
0.479561 0.551415 0.929519
0.626932 0.537057 0.913954
0.73547 0.533059 0.909743
0.818509 0.535698 0.91281
0.886931 0.542641 0.920607
0.94876 0.551644 0.930663
1 0.561059 0.941161
0.00941482 0.719417 1
0.287053 0.669932 0.972412
0.490715 0.640574 0.940398
0.638315 0.626429 0.925048
0.747402 0.622919 0.92137
0.831342 0.626322 0.925292
0.901045 0.634409 0.934356
0.964584 0.644907 0.946044
1 0.656168 0.958602
0.00361639 0.815793 1
0.281941 0.766903 0.967605
0.486625 0.738445 0.936568
0.63563 0.725521 0.922591
0.746334 0.723415 0.92047
0.832853 0.729076 0.926894
0.905516 0.739742 0.938781
0.972671 0.753384 0.953979
1 0.76849 0.970779
0 0.925414 0.994842
0.25658 0.878248 0.943297
0.463798 0.851987 0.914702
0.615991 0.841856 0.903792
0.730663 0.843198 0.905501
0.822019 0.853101 0.916594
0.899565 0.868025 0.933227
0.970474 0.884947 0.952041
1 0.902144 0.971145
0 1 0.97174
0.236835 1 0.924407
0.449226 0.979904 0.900816
0.606012 0.97377 0.894331
0.723964 0.977996 0.899229
0.816846 0.989212 0.911772
0.894743 1 0.92874
0.965499 1 0.947417
1 1 0.966659
0.0713512 0.0617838 1
0.385687 0.0443275 1
0.61323 0.0358434 1
0.778271 0.0369116 1
0.900267 0.0446632 1
0.993881 0.0565194 1
1 0.0700847 1
1 0.0840772 1
1 0.0970474 1
0.00807202 0.286503 1
0.298039 0.247791 1
0.510658 0.226246 1
0.665263 0.218219 1
0.779431 0.219135 1
0.866896 0.225635 1
0.938064 0.234989 1
1 0.245594 1
1 0.255879 1
0 0.430854 1
0.261173 0.385931 1
0.46833 0.359625 1
0.618524 0.347753 0.992126
0.729107 0.345541 0.989883
0.813504 0.34934 0.994247
0.882612 0.356909 1
0.944518 0.365972 1
1 0.375036 1
0 0.538567 1
0.261707 0.490776 1
0.466346 0.462272 1
0.614435 0.448554 0.988296
0.723369 0.444907 0.984466
0.806531 0.447639 0.987655
0.8748 0.454459 0.995315
0.936187 0.463081 1
0.99646 0.471855 1
0 0.630472 1
0.276555 0.581292 1
0.480186 0.551919 1
0.627527 0.537545 1
0.735973 0.533471 0.99675
0.819165 0.536217 0.999954
0.887663 0.543252 1
0.949584 0.552331 1
1 0.561852 1
0.0100252 0.719905 1
0.287663 0.67042 1
0.491371 0.641123 1
0.639078 0.627054 1
0.748089 0.623468 1
0.832395 0.627207 1
0.902281 0.635447 1
0.965911 0.646006 1
1 0.657694 1
0.00425727 0.816297 1
0.282856 0.767666 1
0.487739 0.739376 1
0.637003 0.726665 1
0.747951 0.724788 1
0.834775 0.730724 1
0.907851 0.741726 1
0.975326 0.755657 1
1 0.771618 1
0 0.926421 1
0.25835 0.879744 1
0.46595 0.853834 1
0.61857 0.844068 0.992798
0.73373 0.845853 0.99498
0.825727 0.856291 1
0.903456 0.871382 1
0.974212 0.888167 1
1 0.905501 1
0 1 1
0.240269 1 1
0.452995 0.983154 0.990951
0.609659 0.976913 0.98436
0.727855 0.981353 0.989487
0.820737 0.992569 1
0.898604 1 1
0.96939 1 1
1 1 1
