lut/ff1ea0ad-7be6-470a-94cd-d1cdc7800284.cube
TITLE "Vibrant Magenta Pastel"
LUT_3D_SIZE 33
0 0 0
0 0 0
0 0 0
0.0786145 0 0
0.198978 0 0
0.30399 0 0
0.391058 0 0
0.464485 0 0
0.531334 0 0
0.594003 0 0
0.64892 0 0
0.696727 0 0
0.739284 0.0033875 0.00511177
0.778744 0.00958267 0.0120241
0.815564 0.0160678 0.0192721
0.849638 0.022385 0.0263066
0.880446 0.027863 0.0324102
0.909072 0.0332189 0.0383612
0.936156 0.0388037 0.0445716
0.9617 0.0444343 0.0508583
0.986053 0.0502022 0.0572671
1 0.055375 0.0630198
1 0.0605173 0.0687419
1 0.0657816 0.0745861
1 0.070985 0.0803693
1 0.076112 0.0860456
1 0.0810559 0.0915541
1 0.085771 0.096788
1 0.090425 0.101961
1 0.0949416 0.106981
1 0.0992294 0.111757
1 0.103487 0.116487
1 0.107652 0.121111
0 0 0
0 0 0
0.0870832 0 0
0.184527 0.0134127 0
0.270039 0.0231479 0
0.349187 0.032929 0
0.421317 0.0419928 0
0.485908 0.0492561 0
0.541985 0.0534066 0
0.592752 0.0568551 0
0.639963 0.060853 0
0.683558 0.0650034 0
0.723507 0.0688487 0
0.760449 0.0728618 0
0.794247 0.0767224 0
0.825956 0.0809796 0.00355535
0.855497 0.0853437 0.00842298
0.882872 0.089601 0.0131685
0.908431 0.0938582 0.0179141
0.932845 0.098497 0.0230869
0.95581 0.103044 0.0281529
0.977554 0.107591 0.0332189
0.998093 0.112047 0.0381781
1 0.116426 0.0430304
1 0.120958 0.0480812
1 0.125612 0.053254
1 0.129992 0.0581216
1 0.134188 0.0627909
1 0.138247 0.0672923
1 0.142245 0.0717479
1 0.146334 0.0762951
1 0.150256 0.0806439
1 0.153933 0.0847486
0 0.0996414 0
0.0347601 0.105486 0
0.128725 0.110643 0
0.214176 0.114519 0
0.290303 0.11606 0
0.358206 0.11603 0
0.420737 0.116716 0
0.478218 0.117784 0
0.530983 0.11902 0
0.579126 0.120195 0
0.623285 0.121508 0
0.664286 0.1234 0
0.702953 0.126146 0
0.738247 0.12871 0
0.770672 0.131365 0
0.800778 0.134234 0
0.829038 0.137469 0
0.855589 0.141009 0
0.88069 0.144869 0
0.903883 0.148455 0
0.925856 0.152132 0
0.946853 0.156024 0.00366217
0.966857 0.160006 0.00810254
0.986267 0.164218 0.0127871
1 0.168093 0.0171054
1 0.171984 0.0214237
1 0.175921 0.025803
1 0.179812 0.0301366
1 0.183597 0.0343481
1 0.187366 0.0385443
1 0.19089 0.0424659
1 0.1944 0.0463569
1 0.197864 0.0502174
0 0.1953 0
0.0576638 0.192172 0
0.140291 0.187427 0
0.216938 0.183627 0
0.287999 0.180728 0
0.353552 0.178653 0
0.412757 0.176425 0
0.467185 0.174838 0
0.517708 0.174121 0
0.564431 0.174044 0
0.607706 0.174609 0
0.647272 0.175235 0
0.68397 0.176257 0
0.718166 0.177859 0
0.749844 0.179873 0
0.779202 0.182071 0
0.806806 0.184741 0
0.83238 0.187427 0
0.856504 0.190433 0
0.879225 0.193606 0
0.900664 0.196811 0
0.920958 0.200107 0
0.940627 0.2038 0
0.959304 0.207355 0
0.977295 0.210941 0
0.994675 0.214466 0
1 0.217975 0
1 0.221515 0.00259403
1 0.225177 0.00666819
1 0.22855 0.0104067
1 0.231785 0.014023
1 0.234958 0.0175479
1 0.238132 0.021088
0 0.259922 0
0.0603799 0.25333 0
0.140414 0.246326 0
0.214328 0.240146 0
0.28275 0.234943 0
0.345892 0.230762 0
0.403845 0.227451 0
0.457008 0.224735 0
0.505943 0.222644 0
0.551522 0.221561 0
0.593606 0.221088 0
0.632395 0.221042 0
0.668269 0.221347 0
0.701457 0.222065 0
0.73228 0.223331 0
0.761349 0.225284 0
0.788174 0.227283 0
0.813153 0.229435 0
0.836576 0.23183 0
0.858747 0.234516 0
0.879805 0.2374 0
0.900038 0.24062 0
0.918944 0.243671 0
0.937133 0.246799 0
0.954742 0.25005 0
0.971847 0.253346 0
0.988739 0.256825 0
1 0.260029 0
1 0.263172 0
1 0.266285 0
1 0.269368 0
1 0.272358 0
1 0.275486 0
0 0.312963 0
0.059617 0.304173 0
0.138247 0.295933 0
0.21091 0.28867 0
0.277745 0.282078 0
0.339284 0.276509 0
0.396002 0.272114 0
0.448341 0.268681 0
0.496895 0.266255 0
0.541283 0.264134 0
0.5823 0.262715 0
0.62034 0.262028 0
0.655711 0.261891 0
0.688579 0.262348 0
0.718868 0.263127 0
0.746975 0.26424 0
0.773297 0.265782 0
0.797925 0.267643 0
0.820981 0.269718 0
0.842863 0.27216 0
0.863508 0.274678 0
0.883116 0.277363 0
0.901778 0.280186 0
0.919661 0.283055 0
0.936889 0.285969 0
0.953902 0.289189 0
0.970306 0.292241 0
0.986419 0.295262 0
1 0.298207 0
1 0.30106 0
1 0.303929 0
1 0.30695 0
1 0.309758 0
0 0.358953 0
0.059617 0.349096 0
0.136522 0.339345 0
0.207919 0.330983 0
0.274006 0.323735 0
0.334783 0.317494 0
0.390646 0.312352 0
0.442252 0.308293 0
0.48983 0.305013 0
0.533745 0.30248 0
0.574197 0.300572 0
0.611551 0.299275 0
0.646479 0.298741 0
0.678859 0.298772 0
0.70869 0.299168 0
0.736385 0.299916 0
0.762203 0.30103 0
0.786404 0.30251 0
0.809354 0.304494 0
0.830839 0.306584 0
0.851087 0.308766 0
0.870329 0.311116 0
0.888685 0.31368 0
0.906355 0.316365 0
0.923629 0.31931 0
0.940124 0.322072 0
0.956237 0.32488 0
0.972122 0.327718 0
0.987976 0.33051 0
1 0.333425 0
1 0.33611 0
1 0.33875 0
1 0.341421 0
0 0.399527 0
0.060029 0.388785 0
0.13608 0.378302 0
0.206485 0.369039 0
0.271748 0.361089 0
0.332052 0.354437 0
0.387518 0.348959 0
0.438331 0.344182 0
0.485206 0.340291 0
0.528572 0.337301 0
0.568673 0.335073 0
0.605951 0.333715 0
0.640238 0.332631 0
0.672007 0.332113 0
0.701473 0.332189 0
0.728893 0.332708 0
0.754543 0.333669 0
0.778531 0.334966 0
0.800916 0.336461 0
0.822065 0.338262 0
0.84213 0.340261 0
0.861143 0.342428 0
0.879362 0.344869 0
0.896849 0.347387 0
0.913695 0.349966 0
0.930037 0.35259 0
0.945968 0.355245 0
0.961639 0.357885 0
0.977478 0.360678 0
0.993149 0.363317 0
1 0.365896 0
1 0.368399 0
1 0.370916 0
0 0.435813 0
0.0612802 0.424445 0
0.136843 0.413535 0
0.206729 0.40383 0
0.271611 0.395544 0
0.331167 0.388235 0
0.385962 0.382162 0
0.436423 0.377096 0
0.482918 0.372869 0
0.525841 0.369482 0
0.565682 0.367041 0
0.602365 0.365148 0
0.636393 0.363851 0
0.667857 0.363073 0
0.696941 0.362799 0
0.724132 0.363119 0
0.749584 0.363912 0
0.773236 0.36492 0
0.795377 0.366201 0
0.816236 0.367742 0
0.836057 0.369528 0
0.855024 0.371664 0
0.87306 0.373938 0
0.890257 0.376211 0
0.906874 0.378592 0
0.923033 0.381064 0
0.938857 0.383612 0
0.954635 0.386343 0
0.970123 0.38883 0
0.98558 0.391287 0
1 0.393744 0
1 0.396185 0
1 0.398764 0
0 0.469123 0
0.0637827 0.45716 0
0.13875 0.445716 0
0.208515 0.43592 0
0.272755 0.427085 0
0.331899 0.419394 0
0.386175 0.412879 0
0.436225 0.407446 0
0.48246 0.403006 0
0.525307 0.399542 0
0.564599 0.396612 0
0.600885 0.3944 0
0.634638 0.392844 0
0.665888 0.391882 0
0.695003 0.391638 0
0.721828 0.391638 0
0.746853 0.39205 0
0.770275 0.392874 0
0.792279 0.394018 0
0.813031 0.395468 0
0.832807 0.397223 0
0.851438 0.399054 0
0.8692 0.401099 0
0.88629 0.403281 0
0.90277 0.405539 0
0.918868 0.407965 0
0.934646 0.410468 0
0.950088 0.412909 0
0.965499 0.41532 0
0.980865 0.417685 0
0.996139 0.420035 0
1 0.422492 0
1 0.424933 0
0 0.499809 0
0.0677043 0.487724 0
0.142229 0.475914 0
0.211215 0.465431 0
0.27512 0.456275 0
0.333989 0.448371 0
0.387991 0.441611 0
0.437919 0.436072 0
0.483772 0.431281 0
0.526131 0.427405 0
0.565225 0.424308 0
0.601297 0.421897 0
0.634745 0.420081 0
0.66598 0.419089 0
0.694667 0.418494 0
0.72134 0.418357 0
0.746181 0.418616 0
0.76939 0.419226 0
0.791226 0.420249 0
0.811978 0.421698 0
0.831464 0.423194 0
0.849943 0.424903 0
0.867536 0.426795 0
0.884489 0.42884 0
0.900954 0.431098 0
0.917006 0.433478 0
0.932555 0.435782 0
0.94786 0.438102 0
0.963165 0.440436 0
0.978469 0.442741 0
0.993896 0.445228 0
1 0.447486 0
1 0.449775 0
0 0.528511 0
0.0721752 0.516014 0
0.14641 0.503944 0
0.215076 0.493187 0
0.278584 0.483711 0
0.337133 0.475517 0
0.391135 0.468757 0
0.440635 0.462837 0
0.486244 0.457832 0
0.528298 0.453696 0
0.567163 0.450401 0
0.603067 0.447837 0
0.636606 0.446097 0
0.667399 0.444724 0
0.695857 0.443931 0
0.722362 0.443641 0
0.747082 0.443793 0
0.770397 0.444511 0
0.792035 0.445335 0
0.812421 0.446479 0
0.831785 0.447883 0
0.850187 0.4495 0
0.867704 0.451331 0
0.884733 0.453452 0
0.900999 0.455528 0
0.916823 0.45771 0
0.932296 0.459953 0
0.947555 0.462226 0
0.962829 0.464515 0
0.97818 0.466896 0
0.993347 0.469139 0
1 0.471366 0
1 0.473625 0
0.00102235 0.555566 0.00169375
0.0771496 0.542672 0
0.151095 0.530358 0
0.219562 0.519417 0
0.283024 0.509896 0
0.341375 0.501534 0
0.394873 0.494316 0
0.444144 0.488228 0
0.489601 0.483085 0
0.531502 0.478798 0
0.570336 0.475471 0
0.606073 0.47277 0
0.639216 0.470695 0
0.669886 0.46923 0
0.698222 0.468315 0
0.724559 0.467872 0
0.74934 0.468086 0
0.77232 0.468513 0
0.793881 0.469276 0
0.814176 0.470314 0
0.833402 0.471611 0
0.851698 0.473136 0
0.869337 0.475074 0
0.886091 0.476951 0
0.902281 0.478965 0
0.918029 0.481071 0
0.933425 0.483253 0
0.948669 0.485512 0
0.964004 0.487877 0
0.979171 0.490074 0
0.994278 0.492256 0
1 0.494453 0
1 0.496681 0
0.00672923 0.581216 0.00723278
0.0826276 0.568139 0
0.156283 0.55555 0
0.224628 0.544518 0
0.287861 0.534783 0
0.345983 0.526223 0
0.399283 0.518853 0
0.448341 0.512551 0
0.493599 0.507256 0
0.535531 0.502998 0
0.574121 0.499458 0
0.609674 0.49659 0
0.642649 0.494362 0
0.673182 0.492775 0
0.701427 0.491783 0
0.727886 0.491463 0
0.752331 0.491371 0
0.775189 0.491676 0
0.796658 0.492363 0
0.816876 0.493355 0
0.83624 0.494759 0
0.854459 0.496223 0
0.871794 0.497887 0
0.888487 0.499733 0
0.904646 0.501701 0
0.920333 0.503761 0
0.935897 0.506081 0
0.951034 0.508263 0
0.966171 0.510445 0
0.981308 0.512612 0
0.996399 0.514794 0
1 0.516976 0
1 0.519341 0
0.0125277 0.605768 0.0128634
0.0882734 0.592538 0
0.162005 0.580026 0
0.230015 0.568689 0
0.292912 0.558679 0
0.350866 0.549966 0
0.404059 0.542489 0
0.453086 0.536187 0
0.498314 0.530846 0
0.53991 0.526299 0
0.578317 0.522606 0
0.613779 0.519646 0
0.646662 0.517342 0
0.677226 0.51577 0
0.705409 0.514733 0
0.731579 0.514153 0
0.755962 0.514015 0
0.778744 0.51426 0
0.800122 0.514855 0
0.820432 0.515938 0
0.839582 0.517143 0
0.85774 0.518563 0
0.875029 0.520195 0
0.891676 0.521981 0
0.907774 0.523903 0
0.923644 0.526131 0
0.938979 0.528237 0
0.954101 0.530404 0
0.969207 0.532555 0
0.984314 0.534722 0
0.99939 0.536889 0
1 0.539239 0
1 0.541436 0
0.0182956 0.629618 0.0184482
0.0940108 0.616358 0.00396735
0.167361 0.603525 0
0.235264 0.592096 0
0.298024 0.581964 0
0.35581 0.573098 0
0.408942 0.565576 0
0.457893 0.559197 0
0.502907 0.553674 0
0.544396 0.549035 0
0.582681 0.54522 0
0.618036 0.542184 0
0.650965 0.539925 0
0.681407 0.538247 0
0.709453 0.537072 0
0.735531 0.536416 0
0.759838 0.536217 0
0.782574 0.536431 0
0.80412 0.537163 0
0.824201 0.538048 0
0.843259 0.539178 0
0.861387 0.540566 0
0.878645 0.542168 0
0.895415 0.54406 0
0.911543 0.546014 0
0.927184 0.548043 0
0.942504 0.550134 0
0.95761 0.5523 0
0.972732 0.554452 0
0.988037 0.556771 0
1 0.558968 0
1 0.561135 0
1 0.563363 0
0.0238651 0.653056 0.0238499
0.0992447 0.639521 0.0090486
0.172427 0.626535 0
0.240192 0.614984 0
0.302861 0.604761 0
0.360769 0.596017 0
0.413687 0.588312 0
0.462394 0.581704 0
0.507317 0.576104 0
0.548745 0.57142 0
0.587015 0.567605 0
0.622446 0.564614 0
0.655161 0.562173 0
0.68545 0.560372 0
0.713451 0.559152 0
0.739483 0.55845 0
0.763836 0.558297 0
0.786633 0.558556 0
0.807919 0.559091 0
0.827985 0.559945 0
0.847028 0.561059 0
0.865125 0.562417 0
0.882506 0.564111 0
0.899184 0.565942 0
0.915251 0.567834 0
0.930892 0.569863 0
0.946197 0.571954 0
0.961318 0.574121 0
0.976623 0.57644 0
0.991791 0.578637 0
1 0.580835 0
1 0.583032 0
1 0.58529 0
0.0286259 0.675959 0.0284733
0.103914 0.662348 0.0135805
0.177005 0.649271 0
0.244648 0.637629 0
0.307408 0.627482 0
0.365026 0.618479 0
0.417884 0.610727 0
0.466514 0.604059 0
0.511345 0.598367 0
0.552743 0.593652 0
0.591058 0.589883 0
0.626291 0.58674 0
0.658976 0.584237 0
0.689204 0.582391 0
0.717159 0.58114 0
0.743236 0.580484 0
0.767605 0.580331 0
0.790265 0.580468 0
0.811521 0.580972 0
0.831571 0.581811 0
0.850599 0.582925 0
0.868894 0.584466 0
0.886152 0.586053 0
0.902754 0.587808 0
0.918837 0.589715 0
0.934493 0.591745 0
0.949935 0.593973 0
0.965179 0.596231 0
0.980346 0.598428 0
0.995499 0.600626 0
1 0.602853 0
1 0.605097 0
1 0.607523 0
0.0326238 0.698711 0.0323644
0.10782 0.685023 0.01738
0.180835 0.671885 0.00300603
0.248615 0.660349 0
0.311101 0.649958 0
0.368627 0.640879 0
0.421408 0.633051 0
0.469993 0.626352 0
0.514992 0.620813 0
0.556283 0.616007 0
0.594385 0.612039 0
0.629587 0.608865 0
0.662226 0.606348 0
0.69247 0.604501 0
0.720577 0.603387 0
0.746548 0.60264 0
0.770779 0.602365 0
0.793423 0.602487 0
0.814694 0.603006 0
0.834806 0.603906 0
0.853986 0.605142 0
0.872084 0.6065 0
0.889342 0.608103 0
0.905989 0.609888 0
0.922087 0.611826 0
0.937865 0.613962 0
0.953338 0.616205 0
0.968536 0.618418 0
0.983749 0.620661 0
0.998962 0.622919 0
1 0.625193 0
1 0.627588 0
1 0.630014 0
0.0357061 0.721508 0.0353552
0.110994 0.707881 0.0204623
0.183948 0.694697 0.00604257
0.251469 0.682933 0
0.313893 0.672511 0
0.371374 0.663386 0
0.424109 0.655512 0
0.472847 0.648936 0
0.517601 0.643198 0
0.558877 0.638376 0
0.596963 0.634394 0
0.63212 0.631189 0
0.664759 0.628656 0
0.695155 0.626947 0
0.723079 0.625681 0
0.749065 0.624933 0
0.773281 0.624659 0
0.795941 0.624796 0
0.817273 0.625345 0
0.837507 0.626352 0
0.856565 0.627482 0
0.874693 0.628885 0
0.891981 0.630503 0
0.908644 0.632303 0
0.925002 0.63447 0
0.940749 0.636576 0
0.956176 0.638773 0
0.971405 0.641032 0
0.986664 0.64332 0
1 0.645701 0
1 0.648173 0
1 0.650538 0
1 0.652964 0
0.0377356 0.744595 0.0373388
0.11284 0.730816 0.0222782
0.185718 0.717571 0.0077821
0.253178 0.705745 0
0.315557 0.695293 0
0.373022 0.686137 0
0.42594 0.678431 0
0.474449 0.671656 0
0.519173 0.665888 0
0.560433 0.661051 0
0.598505 0.657053 0
0.63386 0.654017 0
0.666499 0.651499 0
0.696712 0.649622 0
0.724636 0.648356 0
0.750622 0.647623 0
0.774868 0.647364 0
0.797772 0.647715 0
0.819089 0.648264 0
0.839185 0.649134 0
0.858274 0.650309 0
0.876448 0.651743 0
0.893828 0.653437 0
0.91075 0.655467 0
0.92694 0.657481 0
0.942733 0.659632 0
0.958236 0.661906 0
0.973571 0.664256 0
0.988983 0.666667 0
1 0.669169 0
1 0.671595 0
1 0.674067 0
1 0.6766 0
0.0383459 0.76788 0.0379644
0.113375 0.754025 0.0228275
0.186236 0.740764 0.00830091
0.253666 0.728923 0
0.316167 0.718563 0
0.373663 0.709453 0
0.426368 0.701549 0
0.474861 0.694774 0
0.5196 0.689006 0
0.560861 0.684169 0
0.599115 0.680339 0
0.634318 0.677165 0
0.666957 0.674647 0
0.6972 0.672786 0
0.725155 0.67155 0
0.751171 0.670832 0
0.775662 0.670787 0
0.798383 0.670985 0
0.819745 0.67158 0
0.839918 0.672511 0
0.859052 0.673732 0
0.877287 0.675212 0
0.894911 0.677134 0
0.911727 0.679057 0
0.928023 0.681163 0
0.943893 0.683391 0
0.959472 0.68571 0
0.975113 0.688334 0
0.990585 0.690806 0
1 0.693294 0
1 0.695811 0
1 0.69836 0
1 0.701045 0
0.0376135 0.791531 0.0372778
0.112596 0.777661 0.0221103
0.185443 0.76437 0.00756847
0.252995 0.752621 0
0.315435 0.742214 0
0.372869 0.733043 0
0.425574 0.725155 0
0.474067 0.718379 0
0.518807 0.712612 0
0.560296 0.707973 0
0.598413 0.704021 0
0.633616 0.700847 0
0.666285 0.698344 0
0.696544 0.696529 0
0.724712 0.69546 0
0.750851 0.69485 0
0.775174 0.694667 0
0.797955 0.694911 0
0.819379 0.695552 0
0.839597 0.696544 0
0.859052 0.698024 0
0.877379 0.699596 0
0.894865 0.701381 0
0.911757 0.70338 0
0.928161 0.705577 0
0.944167 0.707912 0
0.960082 0.710552 0
0.975601 0.713069 0
0.99118 0.715633 0
1 0.718242 0
1 0.720913 0
1 0.723629 0
1 0.726574 0
0.0353246 0.815702 0.035111
0.110399 0.801892 0.0200046
0.183383 0.788724 0.00561532
0.250797 0.776883 0
0.313176 0.7664 0
0.370611 0.757244 0
0.423331 0.749371 0
0.471977 0.742718 0
0.516854 0.737072 0
0.55816 0.73228 0
0.596307 0.728344 0
0.631556 0.725216 0
0.664302 0.722774 0
0.694759 0.721126 0
0.722881 0.720027 0
0.74902 0.719417 0
0.773434 0.71931 0
0.796307 0.719646 0
0.817807 0.720348 0
0.8383 0.721569 0
0.857649 0.722957 0
0.876097 0.724636 0
0.893721 0.726543 0
0.910719 0.728649 0
0.927214 0.730922 0
0.943557 0.733562 0
0.959426 0.736141 0
0.975128 0.738811 0
0.990845 0.741497 0
1 0.744228 0
1 0.74725 0
1 0.750134 0
1 0.753094 0
0.0314794 0.840574 0.0314336
0.106645 0.826856 0.016434
0.179507 0.813581 0.00190738
0.246967 0.801755 0
0.309361 0.791302 0
0.366827 0.782177 0
0.419669 0.774395 0
0.468376 0.767788 0
0.513207 0.762112 0
0.554574 0.757366 0
0.592767 0.753475 0
0.628061 0.750393 0
0.661082 0.748196 0
0.691493 0.746502 0
0.719646 0.745434 0
0.745861 0.744884 0
0.770336 0.744839 0
0.793439 0.745357 0
0.815167 0.746273 0
0.835599 0.747448 0
0.855024 0.748898 0
0.873564 0.750637 0
0.89131 0.752682 0
0.908675 0.755077 0
0.925383 0.757549 0
0.941649 0.760113 0
0.957641 0.762814 0
0.973526 0.765637 0
0.989487 0.768536 0
1 0.771649 0
1 0.774624 0
1 0.777661 0
1 0.780835 0
0.0260471 0.8663 0.0262303
0.101091 0.852461 0.0110933
0.173968 0.8392 0
0.241459 0.82742 0
0.303929 0.817029 0
0.361639 0.808118 0
0.414466 0.800305 0
0.463081 0.793637 0
0.507958 0.788006 0
0.549401 0.783322 0
0.587762 0.779583 0
0.623316 0.776699 0
0.656184 0.77438 0
0.686671 0.772747 0
0.714931 0.771771 0
0.741268 0.771344 0
0.765988 0.771496 0
0.789166 0.772091 0
0.81091 0.773022 0
0.831495 0.774319 0
0.851102 0.775937 0
0.869795 0.777829 0
0.887831 0.780102 0
0.905226 0.782544 0
0.922103 0.785153 0
0.938613 0.787915 0
0.954787 0.790784 0
0.97084 0.793759 0
0.987243 0.79704 0
1 0.800198 0
1 0.803433 0
1 0.806683 0
1 0.81004 0
0.0186923 0.892699 0.0191653
0.0937819 0.878904 0.00408942
0.166735 0.865705 0
0.234287 0.853986 0
0.296986 0.843778 0
0.354574 0.83476 0
0.407477 0.827024 0
0.456199 0.820447 0
0.501152 0.814878 0
0.542718 0.8103 0
0.581262 0.806729 0
0.616785 0.80383 0
0.64979 0.801633 0
0.680385 0.800092 0
0.708736 0.799191 0
0.735424 0.799069 0
0.760204 0.799283 0
0.783459 0.799939 0
0.805341 0.800977 0
0.826047 0.80238 0
0.845914 0.804227 0
0.864973 0.806439 0
0.883085 0.808789 0
0.900587 0.811322 0
0.917632 0.814069 0
0.934356 0.817029 0
0.950988 0.820294 0
0.967437 0.823606 0
0.98381 0.826871 0
1 0.830228 0
1 0.833722 0
1 0.837339 0
1 0.841199 0
0.0099794 0.919875 0.0108034
0.0851148 0.906126 0
0.158343 0.893172 0
0.225986 0.881529 0
0.288579 0.871229 0
0.346242 0.862272 0
0.399207 0.854612 0
0.44802 0.848112 0
0.493339 0.842847 0
